ashok-ga/fk_ik/leader-zmq/impedance_log.csv
time,q0,q1,q2,q3,q4,q5,q6,q_err0,q_err1,q_err2,q_err3,q_err4,q_err5,q_err6,dq0,dq1,dq2,dq3,dq4,dq5,dq6,tau0,tau1,tau2,tau3,tau4,tau5,tau6
1750421814.1385372,0.0,0.0,0.0,0.0,0.0,0.0,0.0,0.0,0.0,0.0,0.0,0.0,0.0,0.0,0.0,0.0,0.0,0.0,0.0,0.0,0.0,0.0,0.0,0.0,0.0,0.0,0.0,0.0
1750421814.154452,0.0,0.0,0.0,0.0,0.0,0.0,0.0,0.0,0.0,0.0,0.0,0.0,0.0,0.0,0.0,0.0,0.0,0.0,0.0,0.0,0.0,0.0,0.0,0.0,0.0,0.0,0.0,0.0
1750421814.186348,0.0,-0.0015339807878856412,0.0015339807878856412,0.0,0.0,0.0,0.0,0.0,-0.0015339807878856412,0.0015339807878856412,0.0,0.0,0.0,0.0,0.0,-0.07669903939428206,0.07669903939428206,0.0,0.0,0.0,0.0,0.0,0.9817477042468103,0.628932123033113,0.0,0.0,0.0,0.0
1750421814.202385,0.0,0.0,0.0,0.0,-0.0015339807878856412,0.0,0.0015339807878856412,0.0,0.0,0.0,0.0,-0.0015339807878856412,0.0,0.0015339807878856412,0.0,0.07669903939428206,-0.07669903939428206,0.0,-0.07669903939428206,0.0,0.07669903939428206,0.0,-0.9203884727313848,-0.6749515466696822,0.0,-0.09081166264282996,0.0,0.0
1750421814.2184443,0.0,0.0,0.0,0.0,-0.0015339807878856412,0.0,0.0,0.0,0.0,0.0,0.0,-0.0015339807878856412,0.0,0.0,0.0,0.0,0.0,0.0,0.0,0.0,-0.07669903939428206,0.0,0.0,0.0,0.0,0.001227184630308513,0.0,0.0
1750421814.2344441,0.0,-0.0015339807878856412,0.0,0.0,0.0,0.0,0.0,0.0,-0.0015339807878856412,0.0,0.0,0.0,0.0,0.0,0.0,-0.07669903939428206,0.0,0.0,0.07669903939428206,0.0,0.0,0.0,0.9817477042468103,0.0,0.0,0.09203884727313846,0.0,0.0
1750421814.2663906,0.0,0.0,0.0,0.0,-0.0015339807878856412,0.0,0.0,0.0,0.0,0.0,0.0,-0.0015339807878856412,0.0,0.0,0.0,0.07669903939428206,0.0,0.0,-0.07669903939428206,0.0,0.0,0.0,-0.9203884727313848,0.0,0.0,-0.09081166264282996,0.0,0.0
1750421814.2823696,0.0,-0.0015339807878856412,0.0,-0.0015339807878856412,-0.0015339807878856412,0.0,0.0015339807878856412,0.0,-0.0015339807878856412,0.0,-0.0015339807878856412,-0.0015339807878856412,0.0,0.0015339807878856412,0.0,-0.07669903939428206,0.0,-0.07669903939428206,0.0,0.0,0.07669903939428206,0.0,0.9817477042468103,0.0,-0.21629129109187542,0.001227184630308513,0.0,0.0
1750421814.2983758,0.0,-0.0015339807878856412,0.0,-0.0015339807878856412,0.0,0.0,0.0,0.0,-0.0015339807878856412,0.0,-0.0015339807878856412,0.0,0.0,0.0,0.0,0.0,0.0,0.0,0.07669903939428206,0.0,-0.07669903939428206,0.0,0.06135923151542565,0.0,0.01380582709097077,0.09203884727313846,0.0,0.0
1750421814.330383,0.0,-0.0015339807878856412,0.0015339807878856412,-0.0015339807878856412,-0.0015339807878856412,0.0,0.0,0.0,-0.0015339807878856412,0.0015339807878856412,-0.0015339807878856412,-0.0015339807878856412,0.0,0.0,0.0,0.0,0.07669903939428206,0.0,-0.07669903939428206,0.0,0.0,0.0,0.06135923151542565,0.628932123033113,0.01380582709097077,-0.09081166264282996,0.0,0.0
1750421814.346424,0.0,-0.0015339807878856412,0.0015339807878856412,-0.0015339807878856412,0.0,0.0,0.0,0.0,-0.0015339807878856412,0.0015339807878856412,-0.0015339807878856412,0.0,0.0,0.0,0.0,0.0,0.0,0.0,0.07669903939428206,0.0,0.0,0.0,0.06135923151542565,-0.04601942363656923,0.01380582709097077,0.09203884727313846,0.0,0.0
1750421814.3623784,0.0,0.0,0.0,-0.0015339807878856412,-0.0015339807878856412,0.0,0.0,0.0,0.0,0.0,-0.0015339807878856412,-0.0015339807878856412,0.0,0.0,0.0,0.07669903939428206,-0.07669903939428206,0.0,-0.07669903939428206,0.0,0.0,0.0,-0.9203884727313848,-0.6749515466696822,0.01380582709097077,-0.09081166264282996,0.0,0.0
1750421814.3783581,-0.0015339807878856412,-0.0015339807878856412,0.0015339807878856412,-0.0015339807878856412,-0.0015339807878856412,0.0,0.0015339807878856412,-0.0015339807878856412,-0.0015339807878856412,0.0015339807878856412,-0.0015339807878856412,-0.0015339807878856412,0.0,0.0015339807878856412,-0.07669903939428206,-0.07669903939428206,0.07669903939428206,0.0,0.0,0.0,0.07669903939428206,-0.2975922728498144,0.9817477042468103,0.628932123033113,0.01380582709097077,0.001227184630308513,0.0,0.0
1750421814.4104443,0.0,0.0,0.0015339807878856412,-0.0015339807878856412,0.0,0.0,0.0015339807878856412,0.0,0.0,0.0015339807878856412,-0.0015339807878856412,0.0,0.0,0.0015339807878856412,0.07669903939428206,0.07669903939428206,0.0,0.0,0.07669903939428206,0.0,0.0,0.3067961575771282,-0.9203884727313848,-0.04601942363656923,0.01380582709097077,0.09203884727313846,0.0,0.0
1750421814.4263978,0.0,0.0,0.0015339807878856412,-0.0015339807878856412,0.0,0.0,0.0,0.0,0.0,0.0015339807878856412,-0.0015339807878856412,0.0,0.0,0.0,0.0,0.0,0.0,0.0,0.0,0.0,-0.07669903939428206,0.0,0.0,-0.04601942363656923,0.01380582709097077,0.0,0.0,0.0
1750421814.442361,0.0,-0.0015339807878856412,0.0015339807878856412,-0.0030679615757712823,0.0,0.0,0.0015339807878856412,0.0,-0.0015339807878856412,0.0015339807878856412,-0.0030679615757712823,0.0,0.0,0.0015339807878856412,0.0,-0.07669903939428206,0.0,-0.07669903939428206,0.0,0.0,0.07669903939428206,0.0,0.9817477042468103,-0.04601942363656923,-0.20248546400090464,0.0,0.0,0.0
1750421814.4743922,0.0,0.0,0.0,-0.0030679615757712823,0.0,0.0,0.0015339807878856412,0.0,0.0,0.0,-0.0030679615757712823,0.0,0.0,0.0015339807878856412,0.0,0.07669903939428206,-0.07669903939428206,0.0,0.0,0.0,0.0,0.0,-0.9203884727313848,-0.6749515466696822,0.02761165418194154,0.0,0.0,0.0
1750421814.4903674,0.0,0.0,0.0015339807878856412,-0.0030679615757712823,-0.0015339807878856412,0.0,0.0015339807878856412,0.0,0.0,0.0015339807878856412,-0.0030679615757712823,-0.0015339807878856412,0.0,0.0015339807878856412,0.0,0.0,0.07669903939428206,0.0,-0.07669903939428206,0.0,0.0,0.0,0.0,0.628932123033113,0.02761165418194154,-0.09081166264282996,0.0,0.0
1750421814.5063624,0.0,0.0,0.0015339807878856412,-0.0030679615757712823,-0.0015339807878856412,0.0,0.0,0.0,0.0,0.0015339807878856412,-0.0030679615757712823,-0.0015339807878856412,0.0,0.0,0.0,0.0,0.0,0.0,0.0,0.0,-0.07669903939428206,0.0,0.0,-0.04601942363656923,0.02761165418194154,0.001227184630308513,0.0,0.0
1750421814.5224335,0.0,0.0,0.0,-0.0030679615757712823,-0.0015339807878856412,0.0,0.0015339807878856412,0.0,0.0,0.0,-0.0030679615757712823,-0.0015339807878856412,0.0,0.0015339807878856412,0.0,0.0,-0.07669903939428206,0.0,0.0,0.0,0.07669903939428206,0.0,0.0,-0.6749515466696822,0.02761165418194154,0.001227184630308513,0.0,0.0
1750421814.5544126,0.0,-0.0015339807878856412,0.0015339807878856412,-0.0046019423636569235,-0.0015339807878856412,0.0,0.0,0.0,-0.0015339807878856412,0.0015339807878856412,-0.0046019423636569235,-0.0015339807878856412,0.0,0.0,0.0,-0.07669903939428206,0.07669903939428206,-0.07669903939428206,0.0,0.0,-0.07669903939428206,0.0,0.9817477042468103,0.628932123033113,-0.1886796369099339,0.001227184630308513,0.0,0.0
1750421814.570345,0.0,0.0,0.0,-0.0046019423636569235,0.0,0.0,0.0015339807878856412,0.0,0.0,0.0,-0.0046019423636569235,0.0,0.0,0.0015339807878856412,0.0,0.07669903939428206,-0.07669903939428206,0.0,0.07669903939428206,0.0,0.07669903939428206,0.0,-0.9203884727313848,-0.6749515466696822,0.04141748127291231,0.09203884727313846,0.0,0.0
1750421814.5864148,0.0,0.0,0.0015339807878856412,-0.0046019423636569235,0.0,0.0,0.0,0.0,0.0,0.0015339807878856412,-0.0046019423636569235,0.0,0.0,0.0,0.0,0.0,0.07669903939428206,0.0,0.0,0.0,-0.07669903939428206,0.0,0.0,0.628932123033113,0.04141748127291231,0.0,0.0,0.0
1750421814.6183658,0.0,-0.0015339807878856412,0.0015339807878856412,-0.0046019423636569235,0.0,0.0,0.0015339807878856412,0.0,-0.0015339807878856412,0.0015339807878856412,-0.0046019423636569235,0.0,0.0,0.0015339807878856412,0.0,-0.07669903939428206,0.0,0.0,0.0,0.0,0.07669903939428206,0.0,0.9817477042468103,-0.04601942363656923,0.04141748127291231,0.0,0.0,0.0
1750421814.6344519,0.0,-0.0015339807878856412,0.0,-0.0046019423636569235,-0.0015339807878856412,0.0,0.0015339807878856412,0.0,-0.0015339807878856412,0.0,-0.0046019423636569235,-0.0015339807878856412,0.0,0.0015339807878856412,0.0,0.0,-0.07669903939428206,0.0,-0.07669903939428206,0.0,0.0,0.0,0.06135923151542565,-0.6749515466696822,0.04141748127291231,-0.09081166264282996,0.0,0.0
1750421814.650415,0.0,-0.0015339807878856412,0.0015339807878856412,-0.0046019423636569235,-0.0015339807878856412,0.0,0.0015339807878856412,0.0,-0.0015339807878856412,0.0015339807878856412,-0.0046019423636569235,-0.0015339807878856412,0.0,0.0015339807878856412,0.0,0.0,0.07669903939428206,0.0,0.0,0.0,0.0,0.0,0.06135923151542565,0.628932123033113,0.04141748127291231,0.001227184630308513,0.0,0.0
1750421814.666429,0.0,0.0,0.0,-0.0046019423636569235,0.0,0.0,0.0015339807878856412,0.0,0.0,0.0,-0.0046019423636569235,0.0,0.0,0.0015339807878856412,0.0,0.07669903939428206,-0.07669903939428206,0.0,0.07669903939428206,0.0,0.0,0.0,-0.9203884727313848,-0.6749515466696822,0.04141748127291231,0.09203884727313846,0.0,0.0
1750421814.6983469,-0.0015339807878856412,0.0,0.0,-0.006135923151542565,-0.0015339807878856412,0.0,0.0015339807878856412,-0.0015339807878856412,0.0,0.0,-0.006135923151542565,-0.0015339807878856412,0.0,0.0015339807878856412,-0.07669903939428206,0.0,0.0,-0.07669903939428206,-0.07669903939428206,0.0,0.0,-0.2975922728498144,0.0,0.0,-0.1748738098189631,-0.09081166264282996,0.0,0.0
1750421814.7144325,-0.0015339807878856412,0.0,0.0015339807878856412,-0.006135923151542565,0.0,0.0,0.0,-0.0015339807878856412,0.0,0.0015339807878856412,-0.006135923151542565,0.0,0.0,0.0,0.0,0.0,0.07669903939428206,0.0,0.07669903939428206,0.0,-0.07669903939428206,0.009203884727313847,0.0,0.628932123033113,0.05522330836388308,0.09203884727313846,0.0,0.0
1750421814.7304983,0.0,-0.0015339807878856412,0.0,-0.006135923151542565,-0.0015339807878856412,0.0,0.0015339807878856412,0.0,-0.0015339807878856412,0.0,-0.006135923151542565,-0.0015339807878856412,0.0,0.0015339807878856412,0.07669903939428206,-0.07669903939428206,-0.07669903939428206,0.0,-0.07669903939428206,0.0,0.07669903939428206,0.3067961575771282,0.9817477042468103,-0.6749515466696822,0.05522330836388308,-0.09081166264282996,0.0,0.0
1750421814.7623386,0.0,-0.0015339807878856412,0.0,-0.006135923151542565,-0.0015339807878856412,0.0,0.0,0.0,-0.0015339807878856412,0.0,-0.006135923151542565,-0.0015339807878856412,0.0,0.0,0.0,0.0,0.0,0.0,0.0,0.0,-0.07669903939428206,0.0,0.06135923151542565,0.0,0.05522330836388308,0.001227184630308513,0.0,0.0
1750421814.7783387,-0.0015339807878856412,-0.0015339807878856412,0.0015339807878856412,-0.006135923151542565,0.0,0.0,0.0,-0.0015339807878856412,-0.0015339807878856412,0.0015339807878856412,-0.006135923151542565,0.0,0.0,0.0,-0.07669903939428206,0.0,0.07669903939428206,0.0,0.07669903939428206,0.0,0.0,-0.2975922728498144,0.06135923151542565,0.628932123033113,0.05522330836388308,0.09203884727313846,0.0,0.0
1750421814.7943873,0.0,-0.0015339807878856412,0.0,-0.006135923151542565,-0.0015339807878856412,0.0,0.0,0.0,-0.0015339807878856412,0.0,-0.006135923151542565,-0.0015339807878856412,0.0,0.0,0.07669903939428206,0.0,-0.07669903939428206,0.0,-0.07669903939428206,0.0,0.0,0.3067961575771282,0.06135923151542565,-0.6749515466696822,0.05522330836388308,-0.09081166264282996,0.0,0.0
1750421814.8103876,0.0,0.0,0.0,-0.007669903939428206,-0.0015339807878856412,0.0,0.0015339807878856412,0.0,0.0,0.0,-0.007669903939428206,-0.0015339807878856412,0.0,0.0015339807878856412,0.0,0.07669903939428206,0.0,-0.07669903939428206,0.0,0.0,0.07669903939428206,0.0,-0.9203884727313848,0.0,-0.16106798272799233,0.001227184630308513,0.0,0.0
1750421814.8424764,0.0,0.0,0.0015339807878856412,-0.006135923151542565,0.0,0.0,0.0,0.0,0.0,0.0015339807878856412,-0.006135923151542565,0.0,0.0,0.0,0.0,0.0,0.07669903939428206,0.07669903939428206,0.07669903939428206,0.0,-0.07669903939428206,0.0,0.0,0.628932123033113,0.2853204265467293,0.09203884727313846,0.0,0.0
1750421814.8584516,0.0,-0.0015339807878856412,0.0015339807878856412,-0.007669903939428206,-0.0015339807878856412,0.0,0.0,0.0,-0.0015339807878856412,0.0015339807878856412,-0.007669903939428206,-0.0015339807878856412,0.0,0.0,0.0,-0.07669903939428206,0.0,-0.07669903939428206,-0.07669903939428206,0.0,0.0,0.0,0.9817477042468103,-0.04601942363656923,-0.16106798272799233,-0.09081166264282996,0.0,0.0
1750421814.874443,0.0,-0.0015339807878856412,0.0015339807878856412,-0.007669903939428206,-0.0015339807878856412,0.0,0.0015339807878856412,0.0,-0.0015339807878856412,0.0015339807878856412,-0.007669903939428206,-0.0015339807878856412,0.0,0.0015339807878856412,0.0,0.0,0.0,0.0,0.0,0.0,0.07669903939428206,0.0,0.06135923151542565,-0.04601942363656923,0.06902913545485385,0.001227184630308513,0.0,0.0
1750421814.906325,0.0,0.0,0.0,-0.007669903939428206,-0.0015339807878856412,0.0,0.0,0.0,0.0,0.0,-0.007669903939428206,-0.0015339807878856412,0.0,0.0,0.0,0.07669903939428206,-0.07669903939428206,0.0,0.0,0.0,-0.07669903939428206,0.0,-0.9203884727313848,-0.6749515466696822,0.06902913545485385,0.001227184630308513,0.0,0.0
1750421814.9223623,0.0,-0.0015339807878856412,0.0,-0.007669903939428206,-0.0015339807878856412,0.0,0.0,0.0,-0.0015339807878856412,0.0,-0.007669903939428206,-0.0015339807878856412,0.0,0.0,0.0,-0.07669903939428206,0.0,0.0,0.0,0.0,0.0,0.0,0.9817477042468103,0.0,0.06902913545485385,0.001227184630308513,0.0,0.0
1750421814.9383738,0.0,-0.0015339807878856412,0.0015339807878856412,-0.007669903939428206,0.0,0.0,0.0015339807878856412,0.0,-0.0015339807878856412,0.0015339807878856412,-0.007669903939428206,0.0,0.0,0.0015339807878856412,0.0,0.0,0.07669903939428206,0.0,0.07669903939428206,0.0,0.07669903939428206,0.0,0.06135923151542565,0.628932123033113,0.06902913545485385,0.09203884727313846,0.0,0.0
1750421814.9543781,0.0,0.0,0.0,-0.007669903939428206,0.0,0.0,0.0,0.0,0.0,0.0,-0.007669903939428206,0.0,0.0,0.0,0.0,0.07669903939428206,-0.07669903939428206,0.0,0.0,0.0,-0.07669903939428206,0.0,-0.9203884727313848,-0.6749515466696822,0.06902913545485385,0.0,0.0,0.0
1750421814.9863489,0.0,-0.0015339807878856412,0.0,-0.009203884727313847,0.0,0.0,0.0,0.0,-0.0015339807878856412,0.0,-0.009203884727313847,0.0,0.0,0.0,0.0,-0.07669903939428206,0.0,-0.07669903939428206,0.0,0.0,0.0,0.0,0.9817477042468103,0.0,-0.14726215563702155,0.0,0.0,0.0
1750421815.0023572,0.0,0.0,0.0015339807878856412,-0.009203884727313847,-0.0015339807878856412,0.0,0.0015339807878856412,0.0,0.0,0.0015339807878856412,-0.009203884727313847,-0.0015339807878856412,0.0,0.0015339807878856412,0.0,0.07669903939428206,0.07669903939428206,0.0,-0.07669903939428206,0.0,0.07669903939428206,0.0,-0.9203884727313848,0.628932123033113,0.08283496254582462,-0.09081166264282996,0.0,0.0
1750421815.0183759,0.0,0.0,0.0015339807878856412,-0.009203884727313847,-0.0015339807878856412,0.0,0.0,0.0,0.0,0.0015339807878856412,-0.009203884727313847,-0.0015339807878856412,0.0,0.0,0.0,0.0,0.0,0.0,0.0,0.0,-0.07669903939428206,0.0,0.0,-0.04601942363656923,0.08283496254582462,0.001227184630308513,0.0,0.0
1750421815.0504003,0.0,0.0,0.0015339807878856412,-0.009203884727313847,-0.0015339807878856412,0.0,0.0,0.0,0.0,0.0015339807878856412,-0.009203884727313847,-0.0015339807878856412,0.0,0.0,0.0,0.0,0.0,0.0,0.0,0.0,0.0,0.0,0.0,-0.04601942363656923,0.08283496254582462,0.001227184630308513,0.0,0.0
1750421815.0663617,0.0,0.0,0.0,-0.009203884727313847,0.0,0.0,0.0015339807878856412,0.0,0.0,0.0,-0.009203884727313847,0.0,0.0,0.0015339807878856412,0.0,0.0,-0.07669903939428206,0.0,0.07669903939428206,0.0,0.07669903939428206,0.0,0.0,-0.6749515466696822,0.08283496254582462,0.09203884727313846,0.0,0.0
1750421815.0824883,0.0,0.0,0.0015339807878856412,-0.009203884727313847,0.0,0.0,0.0015339807878856412,0.0,0.0,0.0015339807878856412,-0.009203884727313847,0.0,0.0,0.0015339807878856412,0.0,0.0,0.07669903939428206,0.0,0.0,0.0,0.0,0.0,0.0,0.628932123033113,0.08283496254582462,0.0,0.0,0.0
1750421815.0984762,0.0,0.0,0.0015339807878856412,-0.009203884727313847,-0.0015339807878856412,0.0,0.0,0.0,0.0,0.0015339807878856412,-0.009203884727313847,-0.0015339807878856412,0.0,0.0,0.0,0.0,0.0,0.0,-0.07669903939428206,0.0,-0.07669903939428206,0.0,0.0,-0.04601942363656923,0.08283496254582462,-0.09081166264282996,0.0,0.0
1750421815.1303673,0.0,0.0,0.0015339807878856412,-0.009203884727313847,-0.0015339807878856412,0.0,0.0015339807878856412,0.0,0.0,0.0015339807878856412,-0.009203884727313847,-0.0015339807878856412,0.0,0.0015339807878856412,0.0,0.0,0.0,0.0,0.0,0.0,0.07669903939428206,0.0,0.0,-0.04601942363656923,0.08283496254582462,0.001227184630308513,0.0,0.0
1750421815.1464324,0.0,0.0,0.0,-0.009203884727313847,0.0,0.0,0.0015339807878856412,0.0,0.0,0.0,-0.009203884727313847,0.0,0.0,0.0015339807878856412,0.0,0.0,-0.07669903939428206,0.0,0.07669903939428206,0.0,0.0,0.0,0.0,-0.6749515466696822,0.08283496254582462,0.09203884727313846,0.0,0.0
1750421815.1624959,0.0,0.0,0.0,-0.009203884727313847,0.0,0.0,0.0015339807878856412,0.0,0.0,0.0,-0.009203884727313847,0.0,0.0,0.0015339807878856412,0.0,0.0,0.0,0.0,0.0,0.0,0.0,0.0,0.0,0.0,0.08283496254582462,0.0,0.0,0.0
1750421815.194342,0.0,-0.0015339807878856412,0.0015339807878856412,-0.009203884727313847,0.0,0.0,0.0,0.0,-0.0015339807878856412,0.0015339807878856412,-0.009203884727313847,0.0,0.0,0.0,0.0,-0.07669903939428206,0.07669903939428206,0.0,0.0,0.0,-0.07669903939428206,0.0,0.9817477042468103,0.628932123033113,0.08283496254582462,0.0,0.0,0.0
1750421815.2103667,0.0,-0.0015339807878856412,0.0015339807878856412,-0.010737865515199488,-0.0015339807878856412,0.0,0.0,0.0,-0.0015339807878856412,0.0015339807878856412,-0.010737865515199488,-0.0015339807878856412,0.0,0.0,0.0,0.0,0.0,-0.07669903939428206,-0.07669903939428206,0.0,0.0,0.0,0.06135923151542565,-0.04601942363656923,-0.13345632854605077,-0.09081166264282996,0.0,0.0
1750421815.2264233,0.0,0.0,0.0,-0.010737865515199488,0.0,0.0,0.0015339807878856412,0.0,0.0,0.0,-0.010737865515199488,0.0,0.0,0.0015339807878856412,0.0,0.07669903939428206,-0.07669903939428206,0.0,0.07669903939428206,0.0,0.07669903939428206,0.0,-0.9203884727313848,-0.6749515466696822,0.0966407896367954,0.09203884727313846,0.0,0.0
1750421815.2423644,0.0,0.0,0.0,-0.010737865515199488,0.0,0.0,0.0,0.0,0.0,0.0,-0.010737865515199488,0.0,0.0,0.0,0.0,0.0,0.0,0.0,0.0,0.0,-0.07669903939428206,0.0,0.0,0.0,0.0966407896367954,0.0,0.0,0.0
1750421815.2743604,0.0,0.0,0.0015339807878856412,-0.010737865515199488,-0.0015339807878856412,0.0,0.0,0.0,0.0,0.0015339807878856412,-0.010737865515199488,-0.0015339807878856412,0.0,0.0,0.0,0.0,0.07669903939428206,0.0,-0.07669903939428206,0.0,0.0,0.0,0.0,0.628932123033113,0.0966407896367954,-0.09081166264282996,0.0,0.0
1750421815.2904181,0.0,0.0,0.0015339807878856412,-0.010737865515199488,0.0,0.0,0.0,0.0,0.0,0.0015339807878856412,-0.010737865515199488,0.0,0.0,0.0,0.0,0.0,0.0,0.0,0.07669903939428206,0.0,0.0,0.0,0.0,-0.04601942363656923,0.0966407896367954,0.09203884727313846,0.0,0.0
1750421815.3064718,0.0,0.0,0.0015339807878856412,-0.010737865515199488,0.0,0.0,0.0,0.0,0.0,0.0015339807878856412,-0.010737865515199488,0.0,0.0,0.0,0.0,0.0,0.0,0.0,0.0,0.0,0.0,0.0,0.0,-0.04601942363656923,0.0966407896367954,0.0,0.0,0.0
1750421815.3383658,0.0,-0.0015339807878856412,0.0015339807878856412,-0.010737865515199488,0.0,0.0,0.0,0.0,-0.0015339807878856412,0.0015339807878856412,-0.010737865515199488,0.0,0.0,0.0,0.0,-0.07669903939428206,0.0,0.0,0.0,0.0,0.0,0.0,0.9817477042468103,-0.04601942363656923,0.0966407896367954,0.0,0.0,0.0
1750421815.3543985,0.0,0.0,0.0015339807878856412,-0.010737865515199488,0.0,0.0,0.0,0.0,0.0,0.0015339807878856412,-0.010737865515199488,0.0,0.0,0.0,0.0,0.07669903939428206,0.0,0.0,0.0,0.0,0.0,0.0,-0.9203884727313848,-0.04601942363656923,0.0966407896367954,0.0,0.0,0.0
1750421815.3703353,0.0,0.0,0.0,-0.010737865515199488,-0.0015339807878856412,0.0,0.0015339807878856412,0.0,0.0,0.0,-0.010737865515199488,-0.0015339807878856412,0.0,0.0015339807878856412,0.0,0.0,-0.07669903939428206,0.0,-0.07669903939428206,0.0,0.07669903939428206,0.0,0.0,-0.6749515466696822,0.0966407896367954,-0.09081166264282996,0.0,0.0
1750421815.4022515,0.0,0.0,0.0015339807878856412,-0.010737865515199488,0.0,0.0,0.0,0.0,0.0,0.0015339807878856412,-0.010737865515199488,0.0,0.0,0.0,0.0,0.0,0.07669903939428206,0.0,0.07669903939428206,0.0,-0.07669903939428206,0.0,0.0,0.628932123033113,0.0966407896367954,0.09203884727313846,0.0,0.0
1750421815.4183278,0.0,-0.0015339807878856412,0.0015339807878856412,-0.010737865515199488,-0.0015339807878856412,0.0,0.0015339807878856412,0.0,-0.0015339807878856412,0.0015339807878856412,-0.010737865515199488,-0.0015339807878856412,0.0,0.0015339807878856412,0.0,-0.07669903939428206,0.0,0.0,-0.07669903939428206,0.0,0.07669903939428206,0.0,0.9817477042468103,-0.04601942363656923,0.0966407896367954,-0.09081166264282996,0.0,0.0
1750421815.4343348,0.0,-0.0015339807878856412,0.0,-0.01227184630308513,-0.0015339807878856412,0.0,0.0015339807878856412,0.0,-0.0015339807878856412,0.0,-0.01227184630308513,-0.0015339807878856412,0.0,0.0015339807878856412,0.0,0.0,-0.07669903939428206,-0.07669903939428206,0.0,0.0,0.0,0.0,0.06135923151542565,-0.6749515466696822,-0.11965050145508002,0.001227184630308513,0.0,0.0
1750421815.4503396,0.0,0.0,0.0015339807878856412,-0.01227184630308513,-0.0015339807878856412,0.0,0.0,0.0,0.0,0.0015339807878856412,-0.01227184630308513,-0.0015339807878856412,0.0,0.0,0.0,0.07669903939428206,0.07669903939428206,0.0,0.0,0.0,-0.07669903939428206,0.0,-0.9203884727313848,0.628932123033113,0.11044661672776616,0.001227184630308513,0.0,0.0
1750421815.4823895,0.0,-0.0015339807878856412,0.0015339807878856412,-0.01227184630308513,-0.0015339807878856412,0.0,0.0015339807878856412,0.0,-0.0015339807878856412,0.0015339807878856412,-0.01227184630308513,-0.0015339807878856412,0.0,0.0015339807878856412,0.0,-0.07669903939428206,0.0,0.0,0.0,0.0,0.07669903939428206,0.0,0.9817477042468103,-0.04601942363656923,0.11044661672776616,0.001227184630308513,0.0,0.0
1750421815.4984176,0.0,0.0,0.0015339807878856412,-0.01227184630308513,-0.0015339807878856412,0.0,0.0,0.0,0.0,0.0015339807878856412,-0.01227184630308513,-0.0015339807878856412,0.0,0.0,0.0,0.07669903939428206,0.0,0.0,0.0,0.0,-0.07669903939428206,0.0,-0.9203884727313848,-0.04601942363656923,0.11044661672776616,0.001227184630308513,0.0,0.0
1750421815.5144043,0.0,0.0,0.0,-0.01227184630308513,0.0,0.0,0.0,0.0,0.0,0.0,-0.01227184630308513,0.0,0.0,0.0,0.0,0.0,-0.07669903939428206,0.0,0.07669903939428206,0.0,0.0,0.0,0.0,-0.6749515466696822,0.11044661672776616,0.09203884727313846,0.0,0.0
1750421815.5463386,0.0,0.0,0.0,-0.01227184630308513,0.0,0.0,0.0,0.0,0.0,0.0,-0.01227184630308513,0.0,0.0,0.0,0.0,0.0,0.0,0.0,0.0,0.0,0.0,0.0,0.0,0.0,0.11044661672776616,0.0,0.0,0.0
1750421815.562389,0.0,0.0,0.0015339807878856412,-0.01227184630308513,0.0,0.0,0.0,0.0,0.0,0.0015339807878856412,-0.01227184630308513,0.0,0.0,0.0,0.0,0.0,0.07669903939428206,0.0,0.0,0.0,0.0,0.0,0.0,0.628932123033113,0.11044661672776616,0.0,0.0,0.0
1750421815.578323,0.0,0.0,0.0015339807878856412,-0.01227184630308513,-0.0015339807878856412,0.0,0.0,0.0,0.0,0.0015339807878856412,-0.01227184630308513,-0.0015339807878856412,0.0,0.0,0.0,0.0,0.0,0.0,-0.07669903939428206,0.0,0.0,0.0,0.0,-0.04601942363656923,0.11044661672776616,-0.09081166264282996,0.0,0.0
1750421815.5943906,0.0,0.0,0.0015339807878856412,-0.01227184630308513,-0.0015339807878856412,0.0,0.0,0.0,0.0,0.0015339807878856412,-0.01227184630308513,-0.0015339807878856412,0.0,0.0,0.0,0.0,0.0,0.0,0.0,0.0,0.0,0.0,0.0,-0.04601942363656923,0.11044661672776616,0.001227184630308513,0.0,0.0
1750421815.6263797,0.0,-0.0015339807878856412,0.0015339807878856412,-0.01380582709097077,-0.0015339807878856412,0.0,0.0015339807878856412,0.0,-0.0015339807878856412,0.0015339807878856412,-0.01380582709097077,-0.0015339807878856412,0.0,0.0015339807878856412,0.0,-0.07669903939428206,0.0,-0.07669903939428206,0.0,0.0,0.07669903939428206,0.0,0.9817477042468103,-0.04601942363656923,-0.10584467436410927,0.001227184630308513,0.0,0.0
1750421815.642399,0.0,-0.0015339807878856412,0.0015339807878856412,-0.01227184630308513,-0.0015339807878856412,0.0,0.0,0.0,-0.0015339807878856412,0.0015339807878856412,-0.01227184630308513,-0.0015339807878856412,0.0,0.0,0.0,0.0,0.0,0.07669903939428206,0.0,0.0,-0.07669903939428206,0.0,0.06135923151542565,-0.04601942363656923,0.34054373491061235,0.001227184630308513,0.0,0.0
1750421815.6583202,0.0,0.0,0.0015339807878856412,-0.01380582709097077,-0.0015339807878856412,0.0,0.0015339807878856412,0.0,0.0,0.0015339807878856412,-0.01380582709097077,-0.0015339807878856412,0.0,0.0015339807878856412,0.0,0.07669903939428206,0.0,-0.07669903939428206,0.0,0.0,0.07669903939428206,0.0,-0.9203884727313848,-0.04601942363656923,-0.10584467436410927,0.001227184630308513,0.0,0.0
1750421815.6904135,0.0,-0.0015339807878856412,0.0,-0.01380582709097077,0.0,0.0,0.0,0.0,-0.0015339807878856412,0.0,-0.01380582709097077,0.0,0.0,0.0,0.0,-0.07669903939428206,-0.07669903939428206,0.0,0.07669903939428206,0.0,-0.07669903939428206,0.0,0.9817477042468103,-0.6749515466696822,0.12425244381873693,0.09203884727313846,0.0,0.0
1750421815.706326,0.0,0.0,0.0,-0.01380582709097077,0.0,0.0,0.0,0.0,0.0,0.0,-0.01380582709097077,0.0,0.0,0.0,0.0,0.07669903939428206,0.0,0.0,0.0,0.0,0.0,0.0,-0.9203884727313848,0.0,0.12425244381873693,0.0,0.0,0.0
1750421815.7223234,0.0,0.0,0.0,-0.015339807878856412,0.0,0.0,0.0,0.0,0.0,0.0,-0.015339807878856412,0.0,0.0,0.0,0.0,0.0,0.0,-0.07669903939428206,0.0,0.0,0.0,0.0,0.0,0.0,-0.09203884727313849,0.0,0.0,0.0
1750421815.738327,0.0,0.0,0.0,-0.015339807878856412,0.0,0.0,0.0,0.0,0.0,0.0,-0.015339807878856412,0.0,0.0,0.0,0.0,0.0,0.0,0.0,0.0,0.0,0.0,0.0,0.0,0.0,0.1380582709097077,0.0,0.0,0.0
1750421815.7703717,0.0,0.0,0.0015339807878856412,-0.015339807878856412,-0.0015339807878856412,0.0,0.0,0.0,0.0,0.0015339807878856412,-0.015339807878856412,-0.0015339807878856412,0.0,0.0,0.0,0.0,0.07669903939428206,0.0,-0.07669903939428206,0.0,0.0,0.0,0.0,0.628932123033113,0.1380582709097077,-0.09081166264282996,0.0,0.0
1750421815.786362,0.0,0.0,0.0015339807878856412,-0.015339807878856412,0.0,0.0,0.0,0.0,0.0,0.0015339807878856412,-0.015339807878856412,0.0,0.0,0.0,0.0,0.0,0.0,0.0,0.07669903939428206,0.0,0.0,0.0,0.0,-0.04601942363656923,0.1380582709097077,0.09203884727313846,0.0,0.0
1750421815.80235,0.0,0.0,0.0015339807878856412,-0.01687378866674205,0.0,0.0,0.0,0.0,0.0,0.0015339807878856412,-0.01687378866674205,0.0,0.0,0.0,0.0,0.0,0.0,-0.07669903939428196,0.0,0.0,0.0,0.0,0.0,-0.04601942363656923,-0.07823302018216743,0.0,0.0,0.0
1750421815.8343542,0.0,-0.0015339807878856412,0.0,-0.01687378866674205,0.0,0.0,0.0,0.0,-0.0015339807878856412,0.0,-0.01687378866674205,0.0,0.0,0.0,0.0,-0.07669903939428206,-0.07669903939428206,0.0,0.0,0.0,0.0,0.0,0.9817477042468103,-0.6749515466696822,0.15186409800067846,0.0,0.0,0.0
1750421815.8503168,0.0,0.0,0.0,-0.01687378866674205,-0.0015339807878856412,0.0,0.0,0.0,0.0,0.0,-0.01687378866674205,-0.0015339807878856412,0.0,0.0,0.0,0.07669903939428206,0.0,0.0,-0.07669903939428206,0.0,0.0,0.0,-0.9203884727313848,0.0,0.15186409800067846,-0.09081166264282996,0.0,0.0
1750421815.866398,0.0,-0.0015339807878856412,0.0,-0.01687378866674205,0.0,0.0,0.0,0.0,-0.0015339807878856412,0.0,-0.01687378866674205,0.0,0.0,0.0,0.0,-0.07669903939428206,0.0,0.0,0.07669903939428206,0.0,0.0,0.0,0.9817477042468103,0.0,0.15186409800067846,0.09203884727313846,0.0,0.0
1750421815.8823838,0.0,0.0,0.0015339807878856412,-0.018407769454627694,-0.0015339807878856412,0.0,0.0015339807878856412,0.0,0.0,0.0015339807878856412,-0.018407769454627694,-0.0015339807878856412,0.0,0.0015339807878856412,0.0,0.07669903939428206,0.07669903939428206,-0.07669903939428215,-0.07669903939428206,0.0,0.07669903939428206,0.0,-0.9203884727313848,0.628932123033113,-0.06442719309119721,-0.09081166264282996,0.0,0.0
1750421815.9142935,0.0,0.0,0.0,-0.018407769454627694,-0.0015339807878856412,0.0,0.0,0.0,0.0,0.0,-0.018407769454627694,-0.0015339807878856412,0.0,0.0,0.0,0.0,-0.07669903939428206,0.0,0.0,0.0,-0.07669903939428206,0.0,0.0,-0.6749515466696822,0.16566992509164924,0.001227184630308513,0.0,0.0
1750421815.9303792,0.0,0.0,0.0015339807878856412,-0.018407769454627694,0.0,0.0,0.0,0.0,0.0,0.0015339807878856412,-0.018407769454627694,0.0,0.0,0.0,0.0,0.0,0.07669903939428206,0.0,0.07669903939428206,0.0,0.0,0.0,0.0,0.628932123033113,0.16566992509164924,0.09203884727313846,0.0,0.0
1750421815.9463115,0.0,-0.0015339807878856412,0.0,-0.019941750242513337,0.0,0.0,0.0,0.0,-0.0015339807878856412,0.0,-0.019941750242513337,0.0,0.0,0.0,0.0,-0.07669903939428206,-0.07669903939428206,-0.07669903939428215,0.0,0.0,0.0,0.0,0.9817477042468103,-0.6749515466696822,-0.05062136600022643,0.0,0.0,0.0
1750421815.9782617,0.0,-0.0015339807878856412,0.0,-0.019941750242513337,0.0,0.0,0.0015339807878856412,0.0,-0.0015339807878856412,0.0,-0.019941750242513337,0.0,0.0,0.0015339807878856412,0.0,0.0,0.0,0.0,0.0,0.0,0.07669903939428206,0.0,0.06135923151542565,0.0,0.17947575218262002,0.0,0.0,0.0
1750421815.9943833,0.0,0.0,0.0015339807878856412,-0.019941750242513337,0.0,0.0,0.0015339807878856412,0.0,0.0,0.0015339807878856412,-0.019941750242513337,0.0,0.0,0.0015339807878856412,0.0,0.07669903939428206,0.07669903939428206,0.0,0.0,0.0,0.0,0.0,-0.9203884727313848,0.628932123033113,0.17947575218262002,0.0,0.0,0.0
1750421816.0103216,0.0,-0.0015339807878856412,0.0015339807878856412,-0.019941750242513337,-0.0015339807878856412,0.0,0.0,0.0,-0.0015339807878856412,0.0015339807878856412,-0.019941750242513337,-0.0015339807878856412,0.0,0.0,0.0,-0.07669903939428206,0.0,0.0,-0.07669903939428206,0.0,-0.07669903939428206,0.0,0.9817477042468103,-0.04601942363656923,0.17947575218262002,-0.09081166264282996,0.0,0.0
1750421816.0263133,0.0,0.0,0.0015339807878856412,-0.021475731030398976,0.0,0.0,0.0,0.0,0.0,0.0015339807878856412,-0.021475731030398976,0.0,0.0,0.0,0.0,0.07669903939428206,0.0,-0.07669903939428196,0.07669903939428206,0.0,0.0,0.0,-0.9203884727313848,-0.04601942363656923,-0.0368155389092551,0.09203884727313846,0.0,0.0
1750421816.0583744,0.0,-0.0015339807878856412,0.0015339807878856412,-0.021475731030398976,-0.0015339807878856412,0.0,0.0,0.0,-0.0015339807878856412,0.0015339807878856412,-0.021475731030398976,-0.0015339807878856412,0.0,0.0,0.0,-0.07669903939428206,0.0,0.0,-0.07669903939428206,0.0,0.0,0.0,0.9817477042468103,-0.04601942363656923,0.1932815792735908,-0.09081166264282996,0.0,0.0
1750421816.0743904,0.0,-0.0015339807878856412,0.0015339807878856412,-0.021475731030398976,-0.0015339807878856412,0.0,0.0,0.0,-0.0015339807878856412,0.0015339807878856412,-0.021475731030398976,-0.0015339807878856412,0.0,0.0,0.0,0.0,0.0,0.0,0.0,0.0,0.0,0.0,0.06135923151542565,-0.04601942363656923,0.1932815792735908,0.001227184630308513,0.0,0.0
1750421816.090382,0.0,0.0,0.0015339807878856412,-0.021475731030398976,0.0,0.0,0.0,0.0,0.0,0.0015339807878856412,-0.021475731030398976,0.0,0.0,0.0,0.0,0.07669903939428206,0.0,0.0,0.07669903939428206,0.0,0.0,0.0,-0.9203884727313848,-0.04601942363656923,0.1932815792735908,0.09203884727313846,0.0,0.0
1750421816.1223958,0.0,0.0,0.0015339807878856412,-0.023009711818284616,-0.0015339807878856412,0.0,0.0,0.0,0.0,0.0015339807878856412,-0.023009711818284616,-0.0015339807878856412,0.0,0.0,0.0,0.0,0.0,-0.07669903939428196,-0.07669903939428206,0.0,0.0,0.0,0.0,-0.04601942363656923,-0.023009711818284373,-0.09081166264282996,0.0,0.0
1750421816.1383424,0.0,0.0,0.0,-0.023009711818284616,0.0,0.0,0.0015339807878856412,0.0,0.0,0.0,-0.023009711818284616,0.0,0.0,0.0015339807878856412,0.0,0.0,-0.07669903939428206,0.0,0.07669903939428206,0.0,0.07669903939428206,0.0,0.0,-0.6749515466696822,0.20708740636456155,0.09203884727313846,0.0,0.0
1750421816.154357,0.0,0.0,0.0015339807878856412,-0.02454369260617026,0.0,0.0,0.0015339807878856412,0.0,0.0,0.0015339807878856412,-0.02454369260617026,0.0,0.0,0.0015339807878856412,0.0,0.0,0.07669903939428206,-0.07669903939428215,0.0,0.0,0.0,0.0,0.0,0.628932123033113,-0.009203884727314093,0.0,0.0,0.0
1750421816.1703558,0.0,0.0,0.0,-0.023009711818284616,-0.0015339807878856412,0.0,0.0,0.0,0.0,0.0,-0.023009711818284616,-0.0015339807878856412,0.0,0.0,0.0,0.0,-0.07669903939428206,0.07669903939428215,-0.07669903939428206,0.0,-0.07669903939428206,0.0,0.0,-0.6749515466696822,0.43718452454740797,-0.09081166264282996,0.0,0.0
1750421816.2023163,0.0,0.0,0.0,-0.02454369260617026,0.0,0.0,0.0,0.0,0.0,0.0,-0.02454369260617026,0.0,0.0,0.0,0.0,0.0,0.0,-0.07669903939428215,0.07669903939428206,0.0,0.0,0.0,0.0,0.0,-0.009203884727314093,0.09203884727313846,0.0,0.0
1750421816.218402,0.0,0.0,0.0015339807878856412,-0.02454369260617026,0.0,0.0,0.0,0.0,0.0,0.0015339807878856412,-0.02454369260617026,0.0,0.0,0.0,0.0,0.0,0.07669903939428206,0.0,0.0,0.0,0.0,0.0,0.0,0.628932123033113,0.22089323345553233,0.0,0.0,0.0
1750421816.234301,0.0,0.0,0.0,-0.0260776733940559,-0.0015339807878856412,0.0,0.0015339807878856412,0.0,0.0,0.0,-0.0260776733940559,-0.0015339807878856412,0.0,0.0015339807878856412,0.0,0.0,-0.07669903939428206,-0.07669903939428215,-0.07669903939428206,0.0,0.07669903939428206,0.0,0.0,-0.6749515466696822,0.004601942363656686,-0.09081166264282996,0.0,0.0
1750421816.2662537,0.0,0.0,0.0015339807878856412,-0.0260776733940559,0.0,0.0,0.0,0.0,0.0,0.0015339807878856412,-0.0260776733940559,0.0,0.0,0.0,0.0,0.0,0.07669903939428206,0.0,0.07669903939428206,0.0,-0.07669903939428206,0.0,0.0,0.628932123033113,0.2346990605465031,0.09203884727313846,0.0,0.0
1750421816.2822924,0.0,0.0,0.0,-0.02761165418194154,-0.0015339807878856412,0.0,0.0,0.0,0.0,0.0,-0.02761165418194154,-0.0015339807878856412,0.0,0.0,0.0,0.0,-0.07669903939428206,-0.07669903939428196,-0.07669903939428206,0.0,0.0,0.0,0.0,-0.6749515466696822,0.018407769454627965,-0.09081166264282996,0.0,0.0
1750421816.2983232,0.0,0.0,0.0,-0.02761165418194154,0.0,0.0,0.0,0.0,0.0,0.0,-0.02761165418194154,0.0,0.0,0.0,0.0,0.0,0.0,0.0,0.07669903939428206,0.0,0.0,0.0,0.0,0.0,0.24850488763747386,0.09203884727313846,0.0,0.0
1750421816.314375,0.0,0.0015339807878856412,0.0,-0.02914563496982718,0.0,0.0,0.0015339807878856412,0.0,0.0015339807878856412,0.0,-0.02914563496982718,0.0,0.0,0.0015339807878856412,0.0,0.07669903939428206,0.0,-0.07669903939428196,0.0,0.0,0.07669903939428206,0.0,-0.9817477042468103,0.0,0.032213596545598744,0.0,0.0,0.0
1750421816.3464212,0.0,0.0,0.0,-0.02914563496982718,-0.0015339807878856412,0.0,0.0,0.0,0.0,0.0,-0.02914563496982718,-0.0015339807878856412,0.0,0.0,0.0,-0.07669903939428206,0.0,0.0,-0.07669903939428206,0.0,-0.07669903939428206,0.0,0.9203884727313848,0.0,0.26231071472844464,-0.09081166264282996,0.0,0.0
1750421816.3623044,0.0,0.0,0.0,-0.02914563496982718,0.0,0.0,0.0,0.0,0.0,0.0,-0.02914563496982718,0.0,0.0,0.0,0.0,0.0,0.0,0.0,0.07669903939428206,0.0,0.0,0.0,0.0,0.0,0.26231071472844464,0.09203884727313846,0.0,0.0
1750421816.3783712,0.0,0.0015339807878856412,0.0,-0.02914563496982718,-0.0015339807878856412,0.0,0.0015339807878856412,0.0,0.0015339807878856412,0.0,-0.02914563496982718,-0.0015339807878856412,0.0,0.0015339807878856412,0.0,0.07669903939428206,0.0,0.0,-0.07669903939428206,0.0,0.07669903939428206,0.0,-0.9817477042468103,0.0,0.26231071472844464,-0.09081166264282996,0.0,0.0
1750421816.4102957,0.0,0.0,0.0,-0.030679615757712823,-0.0015339807878856412,0.0,0.0,0.0,0.0,0.0,-0.030679615757712823,-0.0015339807878856412,0.0,0.0,0.0,-0.07669903939428206,0.0,-0.07669903939428215,0.0,0.0,-0.07669903939428206,0.0,0.9203884727313848,0.0,0.04601942363656897,0.001227184630308513,0.0,0.0
1750421816.4262698,0.0,0.0,0.0,-0.030679615757712823,-0.0015339807878856412,0.0,0.0,0.0,0.0,0.0,-0.030679615757712823,-0.0015339807878856412,0.0,0.0,0.0,0.0,0.0,0.0,0.0,0.0,0.0,0.0,0.0,0.0,0.2761165418194154,0.001227184630308513,0.0,0.0
1750421816.4423778,0.0,0.0015339807878856412,0.0,-0.030679615757712823,0.0,0.0,0.0015339807878856412,0.0,0.0015339807878856412,0.0,-0.030679615757712823,0.0,0.0,0.0015339807878856412,0.0,0.07669903939428206,0.0,0.0,0.07669903939428206,0.0,0.07669903939428206,0.0,-0.9817477042468103,0.0,0.2761165418194154,0.09203884727313846,0.0,0.0
1750421816.4583027,0.0,0.0015339807878856412,0.0,-0.030679615757712823,0.0,0.0,0.0,0.0,0.0015339807878856412,0.0,-0.030679615757712823,0.0,0.0,0.0,0.0,0.0,0.0,0.0,0.0,0.0,-0.07669903939428206,0.0,-0.06135923151542565,0.0,0.2761165418194154,0.0,0.0,0.0
1750421816.4902797,0.0,0.0030679615757712823,0.0,-0.030679615757712823,-0.0015339807878856412,0.0,0.0,0.0,0.0030679615757712823,0.0,-0.030679615757712823,-0.0015339807878856412,0.0,0.0,0.0,0.07669903939428206,0.0,0.0,-0.07669903939428206,0.0,0.0,0.0,-1.043106935762236,0.0,0.2761165418194154,-0.09081166264282996,0.0,0.0
1750421816.5063813,0.0,0.0030679615757712823,0.0,-0.030679615757712823,-0.0015339807878856412,0.0,0.0,0.0,0.0030679615757712823,0.0,-0.030679615757712823,-0.0015339807878856412,0.0,0.0,0.0,0.0,0.0,0.0,0.0,0.0,0.0,0.0,-0.1227184630308513,0.0,0.2761165418194154,0.001227184630308513,0.0,0.0
1750421816.522329,0.0,0.0030679615757712823,0.0,-0.030679615757712823,-0.0015339807878856412,0.0,0.0,0.0,0.0030679615757712823,0.0,-0.030679615757712823,-0.0015339807878856412,0.0,0.0,0.0,0.0,0.0,0.0,0.0,0.0,0.0,0.0,-0.1227184630308513,0.0,0.2761165418194154,0.001227184630308513,0.0,0.0
1750421816.5542395,0.0,0.0030679615757712823,-0.0015339807878856412,-0.0337475773334841,0.0,0.0,0.0015339807878856412,0.0,0.0030679615757712823,-0.0015339807878856412,-0.0337475773334841,0.0,0.0,0.0015339807878856412,0.0,0.0,-0.07669903939428206,-0.15339807878856393,0.07669903939428206,0.0,0.07669903939428206,0.0,-0.1227184630308513,-0.628932123033113,-0.15646604036433487,0.09203884727313846,0.0,0.0
1750421816.5702763,0.0,0.0030679615757712823,-0.0015339807878856412,-0.0337475773334841,0.0,0.0,0.0015339807878856412,0.0,0.0030679615757712823,-0.0015339807878856412,-0.0337475773334841,0.0,0.0,0.0015339807878856412,0.0,0.0,0.0,0.0,0.0,0.0,0.0,0.0,-0.1227184630308513,0.04601942363656923,0.3037281960013569,0.0,0.0,0.0
1750421816.58629,0.0,0.0030679615757712823,-0.0030679615757712823,-0.0337475773334841,-0.0015339807878856412,0.0,0.0,0.0,0.0030679615757712823,-0.0030679615757712823,-0.0337475773334841,-0.0015339807878856412,0.0,0.0,0.0,0.0,-0.07669903939428206,0.0,-0.07669903939428206,0.0,-0.07669903939428206,0.0,-0.1227184630308513,-0.5829126993965437,0.3037281960013569,-0.09081166264282996,0.0,0.0
1750421816.6022956,0.0,0.0030679615757712823,-0.0046019423636569235,-0.0337475773334841,-0.0015339807878856412,0.0,0.0015339807878856412,0.0,0.0030679615757712823,-0.0046019423636569235,-0.0337475773334841,-0.0015339807878856412,0.0,0.0015339807878856412,0.0,0.0,-0.07669903939428206,0.0,0.0,0.0,0.07669903939428206,0.0,-0.1227184630308513,-0.5368932757599745,0.3037281960013569,0.001227184630308513,0.0,0.0
1750421816.6343393,0.0,0.0030679615757712823,-0.006135923151542565,-0.0337475773334841,-0.0015339807878856412,0.0,0.0,0.0,0.0030679615757712823,-0.006135923151542565,-0.0337475773334841,-0.0015339807878856412,0.0,0.0,0.0,0.0,-0.07669903939428206,0.0,0.0,0.0,-0.07669903939428206,0.0,-0.1227184630308513,-0.49087385212340523,0.3037281960013569,0.001227184630308513,0.0,0.0
1750421816.650373,0.0,0.0030679615757712823,-0.007669903939428206,-0.0337475773334841,-0.0015339807878856412,0.0,0.0,0.0,0.0030679615757712823,-0.007669903939428206,-0.0337475773334841,-0.0015339807878856412,0.0,0.0,0.0,0.0,-0.07669903939428206,0.0,0.0,0.0,0.0,0.0,-0.1227184630308513,-0.444854428486836,0.3037281960013569,0.001227184630308513,0.0,0.0
1750421816.666344,0.0,0.0030679615757712823,-0.009203884727313847,-0.0337475773334841,0.0,0.0,0.0,0.0,0.0030679615757712823,-0.009203884727313847,-0.0337475773334841,0.0,0.0,0.0,0.0,0.0,-0.07669903939428206,0.0,0.07669903939428206,0.0,0.0,0.0,-0.1227184630308513,-0.39883500485026674,0.3037281960013569,0.09203884727313846,0.0,0.0
1750421816.698317,-0.0015339807878856412,0.0030679615757712823,-0.010737865515199488,-0.0337475773334841,-0.0015339807878856412,0.0,0.0,-0.0015339807878856412,0.0030679615757712823,-0.010737865515199488,-0.0337475773334841,-0.0015339807878856412,0.0,0.0,-0.07669903939428206,0.0,-0.07669903939428206,0.0,-0.07669903939428206,0.0,0.0,-0.2975922728498144,-0.1227184630308513,-0.3528155812136975,0.3037281960013569,-0.09081166264282996,0.0,0.0
1750421816.7143729,-0.0030679615757712823,0.0030679615757712823,-0.01380582709097077,-0.0337475773334841,0.0,0.0,0.0,-0.0030679615757712823,0.0030679615757712823,-0.01380582709097077,-0.0337475773334841,0.0,0.0,0.0,-0.07669903939428206,0.0,-0.15339807878856412,0.0,0.07669903939428206,0.0,0.0,-0.28838838812250056,-0.1227184630308513,-0.9357282806102413,0.3037281960013569,0.09203884727313846,0.0,0.0
1750421816.730364,-0.0015339807878856412,0.0030679615757712823,-0.015339807878856412,-0.0337475773334841,-0.0015339807878856412,0.0,0.0015339807878856412,-0.0015339807878856412,0.0030679615757712823,-0.015339807878856412,-0.0337475773334841,-0.0015339807878856412,0.0,0.0015339807878856412,0.07669903939428206,0.0,-0.07669903939428206,0.0,-0.07669903939428206,0.0,0.07669903939428206,0.31600004230444206,-0.1227184630308513,-0.2147573103039898,0.3037281960013569,-0.09081166264282996,0.0,0.0
1750421816.762322,-0.0015339807878856412,0.0030679615757712823,-0.01687378866674205,-0.0337475773334841,-0.0015339807878856412,0.0,0.0015339807878856412,-0.0015339807878856412,0.0030679615757712823,-0.01687378866674205,-0.0337475773334841,-0.0015339807878856412,0.0,0.0015339807878856412,0.0,0.0,-0.07669903939428196,0.0,0.0,0.0,0.0,0.009203884727313847,-0.1227184630308513,-0.16873788666741973,0.3037281960013569,0.001227184630308513,0.0,0.0
1750421816.7783196,-0.0015339807878856412,0.0030679615757712823,-0.021475731030398976,-0.030679615757712823,-0.0015339807878856412,0.0,0.0015339807878856412,-0.0015339807878856412,0.0030679615757712823,-0.021475731030398976,-0.030679615757712823,-0.0015339807878856412,0.0,0.0015339807878856412,0.0,0.0,-0.23009711818284626,0.15339807878856393,0.0,0.0,0.0,0.009203884727313847,-0.1227184630308513,-1.380582709097078,0.7363107781851073,0.001227184630308513,0.0,0.0
1750421816.7943323,-0.0015339807878856412,0.0030679615757712823,-0.023009711818284616,-0.02914563496982718,-0.0015339807878856412,0.0,0.0015339807878856412,-0.0015339807878856412,0.0030679615757712823,-0.023009711818284616,-0.02914563496982718,-0.0015339807878856412,0.0,0.0015339807878856412,0.0,0.0,-0.07669903939428196,0.07669903939428215,0.0,0.0,0.0,0.009203884727313847,-0.1227184630308513,0.015339807878857248,0.4924078329112911,0.001227184630308513,0.0,0.0
1750421816.8103135,-0.0015339807878856412,0.0030679615757712823,-0.0260776733940559,-0.02761165418194154,-0.0015339807878856412,-0.0015339807878856412,0.0015339807878856412,-0.0015339807878856412,0.0030679615757712823,-0.0260776733940559,-0.02761165418194154,-0.0015339807878856412,-0.0015339807878856412,0.0015339807878856412,0.0,0.0,-0.1533980787885643,0.07669903939428196,0.0,-0.07669903939428206,0.0,0.009203884727313847,-0.1227184630308513,-0.5675728915176887,0.47860200582031975,0.001227184630308513,-0.09081166264282996,0.0
1750421816.8423395,-0.0015339807878856412,0.0030679615757712823,-0.02761165418194154,-0.02761165418194154,-0.0015339807878856412,0.0,0.0,-0.0015339807878856412,0.0030679615757712823,-0.02761165418194154,-0.02761165418194154,-0.0015339807878856412,0.0,0.0,0.0,0.0,-0.07669903939428196,0.0,0.0,0.07669903939428206,-0.07669903939428206,0.009203884727313847,-0.1227184630308513,0.15339807878856493,0.24850488763747386,0.001227184630308513,0.09203884727313846,0.0
1750421816.8583202,-0.0015339807878856412,0.0030679615757712823,-0.030679615757712823,-0.02761165418194154,-0.0015339807878856412,-0.0015339807878856412,0.0,-0.0015339807878856412,0.0030679615757712823,-0.030679615757712823,-0.02761165418194154,-0.0015339807878856412,-0.0015339807878856412,0.0,0.0,0.0,-0.15339807878856412,0.0,0.0,-0.07669903939428206,0.0,0.009203884727313847,-0.1227184630308513,-0.4295146206079796,0.24850488763747386,0.001227184630308513,-0.09081166264282996,0.0
1750421816.8742828,-0.0015339807878856412,0.0030679615757712823,-0.032213596545598466,-0.02761165418194154,-0.0015339807878856412,-0.0015339807878856412,0.0,-0.0015339807878856412,0.0030679615757712823,-0.032213596545598466,-0.02761165418194154,-0.0015339807878856412,-0.0015339807878856412,0.0,0.0,0.0,-0.07669903939428215,0.0,0.0,0.0,0.0,0.009203884727313847,-0.1227184630308513,0.29145634969827106,0.24850488763747386,0.001227184630308513,0.001227184630308513,0.0
1750421816.9063146,-0.0015339807878856412,0.0030679615757712823,-0.035281558121369745,-0.02914563496982718,-0.0015339807878856412,-0.0015339807878856412,0.0015339807878856412,-0.0015339807878856412,0.0030679615757712823,-0.035281558121369745,-0.02914563496982718,-0.0015339807878856412,-0.0015339807878856412,0.0015339807878856412,0.0,0.0,-0.15339807878856393,-0.07669903939428196,0.0,0.0,0.07669903939428206,0.009203884727313847,-0.1227184630308513,-0.2914563496982703,0.032213596545598744,0.001227184630308513,0.001227184630308513,0.0
1750421816.9222658,-0.0015339807878856412,0.0030679615757712823,-0.03834951969714103,-0.030679615757712823,-0.0015339807878856412,-0.0015339807878856412,0.0,-0.0015339807878856412,0.0030679615757712823,-0.03834951969714103,-0.030679615757712823,-0.0015339807878856412,-0.0015339807878856412,0.0,0.0,0.0,-0.1533980787885643,-0.07669903939428215,0.0,0.0,-0.07669903939428206,0.009203884727313847,-0.1227184630308513,-0.19941750242513478,0.04601942363656897,0.001227184630308513,0.001227184630308513,0.0
1750421816.9382782,-0.0015339807878856412,0.0030679615757712823,-0.039883500485026674,-0.030679615757712823,-0.0015339807878856412,-0.0015339807878856412,0.0015339807878856412,-0.0015339807878856412,0.0030679615757712823,-0.039883500485026674,-0.030679615757712823,-0.0015339807878856412,-0.0015339807878856412,0.0015339807878856412,0.0,0.0,-0.07669903939428215,0.0,0.0,0.0,0.07669903939428206,0.009203884727313847,-0.1227184630308513,0.5215534678811174,0.2761165418194154,0.001227184630308513,0.001227184630308513,0.0
1750421816.9543107,-0.0015339807878856412,0.0030679615757712823,-0.04295146206079795,-0.030679615757712823,-0.0015339807878856412,-0.0015339807878856412,0.0,-0.0015339807878856412,0.0030679615757712823,-0.04295146206079795,-0.030679615757712823,-0.0015339807878856412,-0.0015339807878856412,0.0,0.0,0.0,-0.15339807878856393,0.0,0.0,0.0,-0.07669903939428206,0.009203884727313847,-0.1227184630308513,-0.061359231515423884,0.2761165418194154,0.001227184630308513,0.001227184630308513,0.0
1750421816.9863229,0.0,0.0030679615757712823,-0.04601942363656923,-0.0337475773334841,-0.0015339807878856412,-0.0015339807878856412,0.0,0.0,0.0030679615757712823,-0.04601942363656923,-0.0337475773334841,-0.0015339807878856412,-0.0015339807878856412,0.0,0.07669903939428206,0.0,-0.15339807878856393,-0.15339807878856393,0.0,0.0,0.0,0.3067961575771282,-0.1227184630308513,0.030679615757714496,-0.15646604036433487,0.001227184630308513,0.001227184630308513,0.0
1750421817.0023515,-0.0015339807878856412,0.0030679615757712823,-0.047553404424454875,-0.0337475773334841,-0.0015339807878856412,-0.0030679615757712823,0.0,-0.0015339807878856412,0.0030679615757712823,-0.047553404424454875,-0.0337475773334841,-0.0015339807878856412,-0.0030679615757712823,0.0,-0.07669903939428206,0.0,-0.07669903939428215,0.0,0.0,-0.07669903939428206,0.0,-0.2975922728498144,-0.1227184630308513,0.7516505860639634,0.3037281960013569,0.001227184630308513,-0.08958447801252145,0.0
1750421817.0182872,-0.0015339807878856412,0.0030679615757712823,-0.04908738521234052,-0.0337475773334841,-0.0015339807878856412,-0.0030679615757712823,0.0015339807878856412,-0.0015339807878856412,0.0030679615757712823,-0.04908738521234052,-0.0337475773334841,-0.0015339807878856412,-0.0030679615757712823,0.0015339807878856412,0.0,0.0,-0.07669903939428215,0.0,0.0,0.0,0.07669903939428206,0.009203884727313847,-0.1227184630308513,0.7976700097005326,0.3037281960013569,0.001227184630308513,0.002454369260617026,0.0
1750421817.0503051,-0.0015339807878856412,0.0030679615757712823,-0.05062136600022616,-0.0337475773334841,-0.0015339807878856412,-0.0030679615757712823,0.0,-0.0015339807878856412,0.0030679615757712823,-0.05062136600022616,-0.0337475773334841,-0.0015339807878856412,-0.0030679615757712823,0.0,0.0,0.0,-0.07669903939428215,0.0,0.0,0.0,-0.07669903939428206,0.009203884727313847,-0.1227184630308513,0.843689433337102,0.3037281960013569,0.001227184630308513,0.002454369260617026,0.0
1750421817.0663567,-0.0015339807878856412,0.0030679615757712823,-0.05368932757599744,-0.0337475773334841,-0.0015339807878856412,-0.0046019423636569235,0.0,-0.0015339807878856412,0.0030679615757712823,-0.05368932757599744,-0.0337475773334841,-0.0015339807878856412,-0.0046019423636569235,0.0,0.0,0.0,-0.15339807878856393,0.0,0.0,-0.07669903939428206,0.0,0.009203884727313847,-0.1227184630308513,0.26077673394056067,0.3037281960013569,0.001227184630308513,-0.08835729338221293,0.0
1750421817.08236,0.0,0.0030679615757712823,-0.05522330836388308,-0.0337475773334841,-0.0015339807878856412,-0.0046019423636569235,0.0,0.0,0.0030679615757712823,-0.05522330836388308,-0.0337475773334841,-0.0015339807878856412,-0.0046019423636569235,0.0,0.07669903939428206,0.0,-0.07669903939428215,0.0,0.0,0.0,0.0,0.3067961575771282,-0.1227184630308513,0.9817477042468096,0.3037281960013569,0.001227184630308513,0.003681553890925539,0.0
1750421817.098289,0.0,0.0030679615757712823,-0.056757289151768725,-0.0337475773334841,-0.0015339807878856412,-0.0046019423636569235,0.0,0.0,0.0030679615757712823,-0.056757289151768725,-0.0337475773334841,-0.0015339807878856412,-0.0046019423636569235,0.0,0.0,0.0,-0.07669903939428215,0.0,0.0,0.0,0.0,0.0,-0.1227184630308513,1.0277671278833789,0.3037281960013569,0.001227184630308513,0.003681553890925539,0.0
1750421817.1303344,0.0,0.0030679615757712823,-0.05829126993965436,-0.0337475773334841,-0.0015339807878856412,-0.0046019423636569235,0.0,0.0,0.0030679615757712823,-0.05829126993965436,-0.0337475773334841,-0.0015339807878856412,-0.0046019423636569235,0.0,0.0,0.0,-0.0766990393942818,0.0,0.0,0.0,0.0,0.0,-0.1227184630308513,1.073786551519951,0.3037281960013569,0.001227184630308513,0.003681553890925539,0.0
1750421817.1462908,0.0,0.0030679615757712823,-0.06135923151542565,-0.0337475773334841,-0.0015339807878856412,-0.006135923151542565,0.0,0.0,0.0030679615757712823,-0.06135923151542565,-0.0337475773334841,-0.0015339807878856412,-0.006135923151542565,0.0,0.0,0.0,-0.1533980787885643,0.0,0.0,-0.07669903939428206,0.0,0.0,-0.1227184630308513,0.49087385212340373,0.3037281960013569,0.001227184630308513,-0.08713010875190441,0.0
1750421817.1623251,0.0,0.0030679615757712823,-0.06442719309119693,-0.0337475773334841,-0.0015339807878856412,-0.0046019423636569235,0.0015339807878856412,0.0,0.0030679615757712823,-0.06442719309119693,-0.0337475773334841,-0.0015339807878856412,-0.0046019423636569235,0.0015339807878856412,0.0,0.0,-0.1533980787885643,0.0,0.0,0.07669903939428206,0.07669903939428206,0.0,-0.1227184630308513,0.5829126993965421,0.3037281960013569,0.001227184630308513,0.09572040116406401,0.0
1750421817.1942277,0.0,0.0030679615757712823,-0.06596117387908257,-0.0337475773334841,-0.0015339807878856412,-0.006135923151542565,0.0,0.0,0.0030679615757712823,-0.06596117387908257,-0.0337475773334841,-0.0015339807878856412,-0.006135923151542565,0.0,0.0,0.0,-0.0766990393942818,0.0,0.0,-0.07669903939428206,-0.07669903939428206,0.0,-0.1227184630308513,1.303883669702797,0.3037281960013569,0.001227184630308513,-0.08713010875190441,0.0
1750421817.2103057,0.0,0.0030679615757712823,-0.0674951546669682,-0.0337475773334841,-0.0015339807878856412,-0.006135923151542565,0.0,0.0,0.0030679615757712823,-0.0674951546669682,-0.0337475773334841,-0.0015339807878856412,-0.006135923151542565,0.0,0.0,0.0,-0.0766990393942818,0.0,0.0,0.0,0.0,0.0,-0.1227184630308513,1.3499030933393665,0.3037281960013569,0.001227184630308513,0.004908738521234052,0.0
1750421817.2263181,0.0,0.0030679615757712823,-0.06902913545485385,-0.0337475773334841,-0.0015339807878856412,-0.006135923151542565,0.0,0.0,0.0030679615757712823,-0.06902913545485385,-0.0337475773334841,-0.0015339807878856412,-0.006135923151542565,0.0,0.0,0.0,-0.07669903939428249,0.0,0.0,0.0,0.0,0.0,-0.1227184630308513,1.3959225169759297,0.3037281960013569,0.001227184630308513,0.004908738521234052,0.0
1750421817.2422702,0.0,0.0030679615757712823,-0.07209709703062514,-0.0337475773334841,-0.0015339807878856412,-0.006135923151542565,0.0,0.0,0.0030679615757712823,-0.07209709703062514,-0.0337475773334841,-0.0015339807878856412,-0.006135923151542565,0.0,0.0,0.0,-0.1533980787885643,0.0,0.0,0.0,0.0,0.0,-0.1227184630308513,0.8130098175793885,0.3037281960013569,0.001227184630308513,0.004908738521234052,0.0
1750421817.2743132,0.0,0.0030679615757712823,-0.07363107781851078,-0.0337475773334841,-0.0015339807878856412,-0.006135923151542565,0.0015339807878856412,0.0,0.0030679615757712823,-0.07363107781851078,-0.0337475773334841,-0.0015339807878856412,-0.006135923151542565,0.0015339807878856412,0.0,0.0,-0.0766990393942818,0.0,0.0,0.0,0.07669903939428206,0.0,-0.1227184630308513,1.5339807878856433,0.3037281960013569,0.001227184630308513,0.004908738521234052,0.0
1750421817.290365,0.0,0.0030679615757712823,-0.07516505860639641,-0.0337475773334841,-0.0015339807878856412,-0.006135923151542565,0.0,0.0,0.0030679615757712823,-0.07516505860639641,-0.0337475773334841,-0.0015339807878856412,-0.006135923151542565,0.0,0.0,0.0,-0.0766990393942818,0.0,0.0,0.0,-0.07669903939428206,0.0,-0.1227184630308513,1.580000211522213,0.3037281960013569,0.001227184630308513,0.004908738521234052,0.0
1750421817.306349,0.0,0.0030679615757712823,-0.07669903939428206,-0.0337475773334841,-0.0015339807878856412,-0.006135923151542565,0.0,0.0,0.0030679615757712823,-0.07669903939428206,-0.0337475773334841,-0.0015339807878856412,-0.006135923151542565,0.0,0.0,0.0,-0.07669903939428249,0.0,0.0,0.0,0.0,0.0,-0.1227184630308513,1.6260196351587757,0.3037281960013569,0.001227184630308513,0.004908738521234052,0.0
1750421817.3382983,0.0,0.0030679615757712823,-0.0782330201821677,-0.0337475773334841,-0.0015339807878856412,-0.007669903939428206,0.0,0.0,0.0030679615757712823,-0.0782330201821677,-0.0337475773334841,-0.0015339807878856412,-0.007669903939428206,0.0,0.0,0.0,-0.0766990393942818,0.0,0.0,-0.07669903939428206,0.0,0.0,-0.1227184630308513,1.6720390587953513,0.3037281960013569,0.001227184630308513,-0.0859029241215959,0.0
1750421817.3542783,0.0,0.0030679615757712823,-0.07976700097005335,-0.0337475773334841,-0.0015339807878856412,-0.006135923151542565,0.0,0.0,0.0030679615757712823,-0.07976700097005335,-0.0337475773334841,-0.0015339807878856412,-0.006135923151542565,0.0,0.0,0.0,-0.07669903939428249,0.0,0.0,0.07669903939428206,0.0,0.0,-0.1227184630308513,1.7180584824319145,0.3037281960013569,0.001227184630308513,0.09694758579437252,0.0
1750421817.3703105,0.0,0.0030679615757712823,-0.08130098175793898,-0.0337475773334841,0.0,-0.007669903939428206,0.0,0.0,0.0030679615757712823,-0.08130098175793898,-0.0337475773334841,0.0,-0.007669903939428206,0.0,0.0,0.0,-0.0766990393942818,0.0,0.07669903939428206,-0.07669903939428206,0.0,0.0,-0.1227184630308513,1.7640779060684897,0.3037281960013569,0.09203884727313846,-0.0859029241215959,0.0
1750421817.3863502,0.0,0.0030679615757712823,-0.08436894333371027,-0.0337475773334841,-0.0015339807878856412,-0.007669903939428206,0.0,0.0,0.0030679615757712823,-0.08436894333371027,-0.0337475773334841,-0.0015339807878856412,-0.007669903939428206,0.0,0.0,0.0,-0.1533980787885643,0.0,-0.07669903939428206,0.0,0.0,0.0,-0.1227184630308513,1.1811652066719425,0.3037281960013569,-0.09081166264282996,0.006135923151542565,0.0
1750421817.4183297,0.0,0.0030679615757712823,-0.0859029241215959,-0.0337475773334841,-0.0015339807878856412,-0.007669903939428206,0.0,0.0,0.0030679615757712823,-0.0859029241215959,-0.0337475773334841,-0.0015339807878856412,-0.007669903939428206,0.0,0.0,0.0,-0.0766990393942818,0.0,0.0,0.0,0.0,0.0,-0.1227184630308513,1.9021361769781977,0.3037281960013569,0.001227184630308513,0.006135923151542565,0.0
1750421817.4343517,0.0,0.0030679615757712823,-0.08743690490948154,-0.0337475773334841,0.0,-0.007669903939428206,0.0015339807878856412,0.0,0.0030679615757712823,-0.08743690490948154,-0.0337475773334841,0.0,-0.007669903939428206,0.0015339807878856412,0.0,0.0,-0.0766990393942818,0.0,0.07669903939428206,0.0,0.07669903939428206,0.0,-0.1227184630308513,1.9481556006147664,0.3037281960013569,0.09203884727313846,0.006135923151542565,0.0
1750421817.450319,0.0,0.0030679615757712823,-0.09050486648525283,-0.0337475773334841,-0.0015339807878856412,-0.007669903939428206,0.0,0.0,0.0030679615757712823,-0.09050486648525283,-0.0337475773334841,-0.0015339807878856412,-0.007669903939428206,0.0,0.0,0.0,-0.1533980787885643,0.0,-0.07669903939428206,0.0,-0.07669903939428206,0.0,-0.1227184630308513,1.3652429012182192,0.3037281960013569,-0.09081166264282996,0.006135923151542565,0.0
1750421817.4822352,0.0,0.0046019423636569235,-0.09050486648525283,-0.0337475773334841,-0.0015339807878856412,-0.007669903939428206,0.0,0.0,0.0046019423636569235,-0.09050486648525283,-0.0337475773334841,-0.0015339807878856412,-0.007669903939428206,0.0,0.0,0.07669903939428206,0.0,0.0,0.0,0.0,0.0,0.0,-1.1044661672776617,2.715145994557585,0.3037281960013569,0.001227184630308513,0.006135923151542565,0.0
1750421817.4983387,0.0,0.0030679615757712823,-0.09357282806102411,-0.0337475773334841,-0.0015339807878856412,-0.007669903939428206,0.0,0.0,0.0030679615757712823,-0.09357282806102411,-0.0337475773334841,-0.0015339807878856412,-0.007669903939428206,0.0,0.0,-0.07669903939428206,-0.1533980787885643,0.0,0.0,0.0,0.0,0.0,0.7976700097005335,1.4572817484913576,0.3037281960013569,0.001227184630308513,0.006135923151542565,0.0
1750421817.5143273,0.0,0.0030679615757712823,-0.0966407896367954,-0.0337475773334841,-0.0015339807878856412,-0.007669903939428206,0.0015339807878856412,0.0,0.0030679615757712823,-0.0966407896367954,-0.0337475773334841,-0.0015339807878856412,-0.007669903939428206,0.0015339807878856412,0.0,0.0,-0.1533980787885643,0.0,0.0,0.0,0.07669903939428206,0.0,-0.1227184630308513,1.5493205957644964,0.3037281960013569,0.001227184630308513,0.006135923151542565,0.0
1750421817.530257,0.0,0.0046019423636569235,-0.0966407896367954,-0.0337475773334841,-0.0015339807878856412,-0.007669903939428206,0.0015339807878856412,0.0,0.0046019423636569235,-0.0966407896367954,-0.0337475773334841,-0.0015339807878856412,-0.007669903939428206,0.0015339807878856412,0.0,0.07669903939428206,0.0,0.0,0.0,0.0,0.0,0.0,-1.1044661672776617,2.899223689103862,0.3037281960013569,0.001227184630308513,0.006135923151542565,0.0
1750421817.5623028,0.0,0.0046019423636569235,-0.09970875121256667,-0.0337475773334841,-0.0015339807878856412,-0.007669903939428206,0.0,0.0,0.0046019423636569235,-0.09970875121256667,-0.0337475773334841,-0.0015339807878856412,-0.007669903939428206,0.0,0.0,0.0,-0.1533980787885636,0.0,0.0,0.0,-0.07669903939428206,0.0,-0.18407769454627693,1.6413594430376404,0.3037281960013569,0.001227184630308513,0.006135923151542565,0.0
1750421817.5783808,0.0,0.0046019423636569235,-0.10124273200045232,-0.0337475773334841,-0.0015339807878856412,-0.009203884727313847,0.0,0.0,0.0046019423636569235,-0.10124273200045232,-0.0337475773334841,-0.0015339807878856412,-0.009203884727313847,0.0,0.0,0.0,-0.07669903939428249,0.0,0.0,-0.07669903939428206,0.0,0.0,-0.18407769454627693,2.3623304133438836,0.3037281960013569,0.001227184630308513,-0.0846757394912874,0.0
1750421817.5943246,0.0,0.0046019423636569235,-0.1043106935762236,-0.0337475773334841,-0.0015339807878856412,-0.009203884727313847,0.0,0.0,0.0046019423636569235,-0.1043106935762236,-0.0337475773334841,-0.0015339807878856412,-0.009203884727313847,0.0,0.0,0.0,-0.1533980787885643,0.0,0.0,0.0,0.0,0.0,-0.18407769454627693,1.7794177139473424,0.3037281960013569,0.001227184630308513,0.007363107781851078,0.0
1750421817.6262155,0.0,0.0046019423636569235,-0.10584467436410924,-0.0337475773334841,-0.0015339807878856412,-0.009203884727313847,0.0,0.0,0.0046019423636569235,-0.10584467436410924,-0.0337475773334841,-0.0015339807878856412,-0.009203884727313847,0.0,0.0,0.0,-0.0766990393942818,0.0,0.0,0.0,0.0,0.0,-0.18407769454627693,2.500388684253598,0.3037281960013569,0.001227184630308513,0.007363107781851078,0.0
1750421817.6423216,0.0,0.006135923151542565,-0.10891263593988053,-0.0337475773334841,-0.0015339807878856412,-0.009203884727313847,0.0,0.0,0.006135923151542565,-0.10891263593988053,-0.0337475773334841,-0.0015339807878856412,-0.009203884727313847,0.0,0.0,0.07669903939428206,-0.1533980787885643,0.0,0.0,0.0,0.0,0.0,-1.1658253987930873,1.9174759848570504,0.3037281960013569,0.001227184630308513,0.007363107781851078,0.0
1750421817.6582625,0.0015339807878856412,0.006135923151542565,-0.11044661672776616,-0.0337475773334841,-0.0015339807878856412,-0.009203884727313847,0.0015339807878856412,0.0015339807878856412,0.006135923151542565,-0.11044661672776616,-0.0337475773334841,-0.0015339807878856412,-0.009203884727313847,0.0015339807878856412,0.07669903939428206,0.0,-0.0766990393942818,0.0,0.0,0.0,0.07669903939428206,0.2975922728498144,-0.2454369260617026,2.638446955163305,0.3037281960013569,0.001227184630308513,0.007363107781851078,0.0
1750421817.6743295,0.0015339807878856412,0.007669903939428206,-0.11351457830353745,-0.0337475773334841,-0.0015339807878856412,-0.009203884727313847,0.0015339807878856412,0.0015339807878856412,0.007669903939428206,-0.11351457830353745,-0.0337475773334841,-0.0015339807878856412,-0.009203884727313847,0.0015339807878856412,0.0,0.07669903939428206,-0.1533980787885643,0.0,0.0,0.0,0.0,-0.009203884727313847,-1.227184630308513,2.0555342557667577,0.3037281960013569,0.001227184630308513,0.007363107781851078,0.0
1750421817.7063181,0.0015339807878856412,0.007669903939428206,-0.11658253987930872,-0.0337475773334841,-0.0015339807878856412,-0.010737865515199488,0.0,0.0015339807878856412,0.007669903939428206,-0.11658253987930872,-0.0337475773334841,-0.0015339807878856412,-0.010737865515199488,0.0,0.0,0.0,-0.1533980787885636,0.0,0.0,-0.07669903939428206,-0.07669903939428206,-0.009203884727313847,-0.30679615757712825,2.147573103039902,0.3037281960013569,0.001227184630308513,-0.08344855486097888,0.0
1750421817.722337,0.0015339807878856412,0.007669903939428206,-0.11811652066719437,-0.0337475773334841,-0.0015339807878856412,-0.010737865515199488,0.0,0.0015339807878856412,0.007669903939428206,-0.11811652066719437,-0.0337475773334841,-0.0015339807878856412,-0.010737865515199488,0.0,0.0,0.0,-0.07669903939428249,0.0,0.0,0.0,0.0,-0.009203884727313847,-0.30679615757712825,2.868544073346145,0.3037281960013569,0.001227184630308513,0.00859029241215959,0.0
1750421817.738341,0.0030679615757712823,0.007669903939428206,-0.12118448224296566,-0.0337475773334841,-0.0015339807878856412,-0.010737865515199488,0.0,0.0030679615757712823,0.007669903939428206,-0.12118448224296566,-0.0337475773334841,-0.0015339807878856412,-0.010737865515199488,0.0,0.07669903939428206,0.0,-0.1533980787885643,0.0,0.0,0.0,0.0,0.28838838812250056,-0.30679615757712825,2.285631373949604,0.3037281960013569,0.001227184630308513,0.00859029241215959,0.0
1750421817.770221,0.0030679615757712823,0.007669903939428206,6588397.193942679,-0.0337475773334841,-0.0015339807878856412,-0.010737865515199488,0.0,0.0030679615757712823,0.007669903939428206,0.5,-0.0337475773334841,-0.0015339807878856412,-0.010737865515199488,0.0,0.0,0.0,329419865.7563581,0.0,0.0,0.0,0.0,-0.018407769454627694,-0.30679615757712825,2898894803.6559515,0.3037281960013569,0.001227184630308513,0.00859029241215959,0.0
1750421817.7863626,0.0030679615757712823,0.009203884727313847,6588397.190874717,-0.0337475773334841,-0.0015339807878856412,-0.010737865515199488,0.0015339807878856412,0.0030679615757712823,0.009203884727313847,0.5,-0.0337475773334841,-0.0015339807878856412,-0.010737865515199488,0.0015339807878856412,0.0,0.07669903939428206,-0.15339809469878674,0.0,0.0,0.0,0.07669903939428206,-0.018407769454627694,-1.2885438618239387,-16.349903233349323,0.3037281960013569,0.001227184630308513,0.00859029241215959,0.0
1750421817.8023882,0.0030679615757712823,0.007669903939428206,6588397.189340737,-0.0337475773334841,-0.0015339807878856412,-0.010737865515199488,0.0,0.0030679615757712823,0.007669903939428206,0.5,-0.0337475773334841,-0.0015339807878856412,-0.010737865515199488,0.0,0.0,-0.07669903939428206,-0.076699024066329,0.0,0.0,0.0,-0.07669903939428206,-0.018407769454627694,0.6135923151542565,-15.674951411783695,0.3037281960013569,0.001227184630308513,0.00859029241215959,0.0
1750421817.818423,0.0046019423636569235,0.007669903939428206,6588397.181670832,-0.0337475773334841,-0.0015339807878856412,-0.010737865515199488,0.0015339807878856412,0.0046019423636569235,0.007669903939428206,0.5,-0.0337475773334841,-0.0015339807878856412,-0.010737865515199488,0.0015339807878856412,0.07669903939428206,0.0,-0.3834952134639025,0.0,0.0,0.0,0.07669903939428206,0.2791845033951867,-0.30679615757712825,-18.37475787848234,0.3037281960013569,0.001227184630308513,0.00859029241215959,0.0
1750421817.850385,0.0046019423636569235,0.007669903939428206,6588397.170932967,-0.0337475773334841,-0.0015339807878856412,-0.01227184630308513,0.0015339807878856412,0.0046019423636569235,0.007669903939428206,0.5,-0.0337475773334841,-0.0015339807878856412,-0.01227184630308513,0.0015339807878856412,0.0,0.0,-0.5368932615965605,0.0,0.0,-0.07669903939428206,0.0,-0.02761165418194154,-0.30679615757712825,-19.724660702049732,0.3037281960013569,0.001227184630308513,-0.08222137023067036,0.0
1750421817.866291,0.0030679615757712823,0.009203884727313847,6588397.160195101,-0.035281558121369745,0.0,-0.01227184630308513,0.0,0.0030679615757712823,0.009203884727313847,0.5,-0.035281558121369745,0.0,-0.01227184630308513,0.0,-0.07669903939428206,0.07669903939428206,-0.5368933081626892,-0.07669903939428215,0.07669903939428206,0.0,-0.07669903939428206,-0.32520392703175593,-1.2885438618239387,-19.724661111831665,0.08743690490948125,0.09203884727313846,0.009817477042468103,0.0
1750421817.8824177,0.0030679615757712823,0.009203884727313847,6588397.152525198,-0.035281558121369745,0.0,-0.01227184630308513,0.0015339807878856412,0.0030679615757712823,0.009203884727313847,0.5,-0.035281558121369745,0.0,-0.01227184630308513,0.0015339807878856412,0.0,0.0,-0.38349516689777374,0.0,0.0,0.0,0.07669903939428206,-0.018407769454627694,-0.36815538909255385,-18.37475746870041,0.3175340230923277,0.0,0.009817477042468103,0.0
1750421817.9143693,0.0046019423636569235,0.009203884727313847,6588397.143321313,-0.035281558121369745,0.0,-0.01227184630308513,0.0,0.0046019423636569235,0.009203884727313847,0.5,-0.035281558121369745,0.0,-0.01227184630308513,0.0,0.07669903939428206,0.0,-0.4601942375302315,0.0,0.0,0.0,-0.07669903939428206,0.2791845033951867,-0.36815538909255385,-19.049709290266037,0.3175340230923277,0.0,0.009817477042468103,0.0
1750421817.9302895,0.0046019423636569235,0.007669903939428206,6588397.131049466,-0.035281558121369745,-0.0015339807878856412,-0.01227184630308513,0.0,0.0046019423636569235,0.007669903939428206,0.5,-0.035281558121369745,-0.0015339807878856412,-0.01227184630308513,0.0,0.0,-0.07669903939428206,-0.6135923322290182,0.0,-0.07669903939428206,0.0,0.0,-0.02761165418194154,0.6135923151542565,-20.39961252361536,0.3175340230923277,-0.09081166264282996,0.009817477042468103,0.0
1750421817.9462984,0.0046019423636569235,0.007669903939428206,6588397.121845582,-0.03681553890925539,0.0,-0.01380582709097077,0.0,0.0046019423636569235,0.007669903939428206,0.5,-0.03681553890925539,0.0,-0.01380582709097077,0.0,0.0,0.0,-0.4601942375302315,-0.07669903939428215,0.07669903939428206,-0.07669903939428206,0.0,-0.02761165418194154,-0.30679615757712825,-19.049709290266037,0.10124273200045203,0.09203884727313846,-0.08099418560036185,0.0
1750421817.9622579,0.0046019423636569235,0.0046019423636569235,6588397.112641697,-0.03681553890925539,-0.0015339807878856412,-0.01380582709097077,0.0015339807878856412,0.0046019423636569235,0.0046019423636569235,0.5,-0.03681553890925539,-0.0015339807878856412,-0.01380582709097077,0.0015339807878856412,0.0,-0.15339807878856412,-0.4601942375302315,0.0,-0.07669903939428206,0.0,0.07669903939428206,-0.02761165418194154,1.6566992509164926,-19.049709290266037,0.3313398501832985,-0.09081166264282996,0.011044661672776616,0.0
1750421817.9943902,0.006135923151542565,0.0030679615757712823,6588397.103437812,-0.03681553890925539,0.0,-0.01380582709097077,0.0,0.006135923151542565,0.0030679615757712823,0.5,-0.03681553890925539,0.0,-0.01380582709097077,0.0,0.07669903939428206,-0.07669903939428206,-0.4601942375302315,0.0,0.07669903939428206,0.0,-0.07669903939428206,0.2699806186678728,0.7976700097005335,-19.049709290266037,0.3313398501832985,0.09203884727313846,0.011044661672776616,0.0
1750421818.0102952,0.006135923151542565,0.0015339807878856412,6588397.095767909,-0.03834951969714103,-0.0015339807878856412,-0.01380582709097077,0.0,0.006135923151542565,0.0015339807878856412,0.5,-0.03834951969714103,-0.0015339807878856412,-0.01380582709097077,0.0,0.0,-0.07669903939428206,-0.38349516689777374,-0.07669903939428215,-0.07669903939428206,0.0,0.0,-0.03681553890925539,0.8590292412159591,-18.37475746870041,0.11504855909142281,-0.09081166264282996,0.011044661672776616,0.0
1750421818.0262969,0.007669903939428206,0.0015339807878856412,6588397.086564024,-0.03834951969714103,-0.0015339807878856412,-0.01380582709097077,0.0,0.007669903939428206,0.0015339807878856412,0.5,-0.03834951969714103,-0.0015339807878856412,-0.01380582709097077,0.0,0.07669903939428206,0.0,-0.4601942375302315,0.0,0.0,0.0,0.0,0.260776733940559,-0.06135923151542565,-19.049709290266037,0.34514567727426926,0.001227184630308513,0.011044661672776616,0.0
1750421818.058263,0.006135923151542565,0.0015339807878856412,6588397.07889412,-0.03834951969714103,0.0,-0.01380582709097077,0.0,0.006135923151542565,0.0015339807878856412,0.5,-0.03834951969714103,0.0,-0.01380582709097077,0.0,-0.07669903939428206,0.0,-0.3834952134639025,0.0,0.07669903939428206,0.0,0.0,-0.3436116964863836,-0.06135923151542565,-18.37475787848234,0.34514567727426926,0.09203884727313846,0.011044661672776616,0.0
1750421818.0743015,0.006135923151542565,0.0015339807878856412,6588397.071224215,-0.03834951969714103,0.0,-0.015339807878856412,0.0,0.006135923151542565,0.0015339807878856412,0.5,-0.03834951969714103,0.0,-0.015339807878856412,0.0,0.0,0.0,-0.3834952134639025,0.0,0.0,-0.07669903939428206,0.0,-0.03681553890925539,-0.06135923151542565,-18.37475787848234,0.34514567727426926,0.0,-0.07976700097005335,0.0
1750421818.090293,0.007669903939428206,0.0015339807878856412,6588397.065088293,-0.039883500485026674,0.0,-0.015339807878856412,0.0015339807878856412,0.007669903939428206,0.0015339807878856412,0.5,-0.039883500485026674,0.0,-0.015339807878856412,0.0015339807878856412,0.07669903939428206,0.0,-0.30679614283144474,-0.07669903939428215,0.0,0.0,0.07669903939428206,0.260776733940559,-0.06135923151542565,-17.699806056916714,0.1288543861823936,0.0,0.01227184630308513,0.0
1750421818.106448,0.007669903939428206,0.0015339807878856412,6588397.057418388,-0.039883500485026674,0.0,-0.015339807878856412,0.0,0.007669903939428206,0.0015339807878856412,0.5,-0.039883500485026674,0.0,-0.015339807878856412,0.0,0.0,0.0,-0.3834952134639025,0.0,0.0,0.0,-0.07669903939428206,-0.04601942363656923,-0.06135923151542565,-18.37475787848234,0.35895150436524004,0.0,0.01227184630308513,0.0
1750421818.138309,0.009203884727313847,0.0015339807878856412,6588397.051282465,-0.04141748127291231,-0.0015339807878856412,-0.015339807878856412,0.0,0.009203884727313847,0.0015339807878856412,0.5,-0.04141748127291231,-0.0015339807878856412,-0.015339807878856412,0.0,0.07669903939428206,0.0,-0.30679614283144474,-0.0766990393942818,-0.07669903939428206,0.0,0.0,0.25157284921324513,-0.06135923151542565,-17.699806056916714,0.14266021327336542,-0.09081166264282996,0.01227184630308513,0.0
1750421818.1542618,0.009203884727313847,0.0015339807878856412,6588397.046680523,-0.04141748127291231,0.0,-0.01687378866674205,0.0,0.009203884727313847,0.0015339807878856412,0.5,-0.04141748127291231,0.0,-0.01687378866674205,0.0,0.0,0.0,-0.23009711876511574,0.0,0.07669903939428206,-0.07669903939428196,0.0,-0.05522330836388308,-0.06135923151542565,-17.02485464513302,0.3727573314562108,0.09203884727313846,-0.07853981633974472,0.0
1750421818.170314,0.009203884727313847,0.0015339807878856412,6588397.0405446,-0.04141748127291231,-0.0015339807878856412,-0.01687378866674205,0.0,0.009203884727313847,0.0015339807878856412,0.5,-0.04141748127291231,-0.0015339807878856412,-0.01687378866674205,0.0,0.0,0.0,-0.30679614283144474,0.0,-0.07669903939428206,0.0,0.0,-0.05522330836388308,-0.06135923151542565,-17.699806056916714,0.3727573314562108,-0.09081166264282996,0.013499030933393642,0.0
1750421818.202203,0.010737865515199488,0.0015339807878856412,6588397.034408676,-0.04295146206079795,-0.0015339807878856412,-0.01687378866674205,0.0,0.010737865515199488,0.0015339807878856412,0.5,-0.04295146206079795,-0.0015339807878856412,-0.01687378866674205,0.0,0.07669903939428206,0.0,-0.30679618939757347,-0.07669903939428215,0.0,0.0,0.0,0.2423689644859313,-0.06135923151542565,-17.699806466698647,0.15646604036433515,0.001227184630308513,0.013499030933393642,0.0
1750421818.218242,0.010737865515199488,0.0015339807878856412,6588397.026738773,-0.04295146206079795,0.0,-0.01687378866674205,0.0,0.010737865515199488,0.0015339807878856412,0.5,-0.04295146206079795,0.0,-0.01687378866674205,0.0,0.0,0.0,-0.38349516689777374,0.0,0.07669903939428206,0.0,0.0,-0.06442719309119693,-0.06135923151542565,-18.37475746870041,0.3865631585471816,0.09203884727313846,0.013499030933393642,0.0
1750421818.2342086,0.01227184630308513,0.0015339807878856412,6588397.020602849,-0.04295146206079795,0.0,-0.01687378866674205,0.0,0.01227184630308513,0.0015339807878856412,0.5,-0.04295146206079795,0.0,-0.01687378866674205,0.0,0.07669903939428206,0.0,-0.30679618939757347,0.0,0.0,0.0,0.0,0.23316507975861744,-0.06135923151542565,-17.699806466698647,0.3865631585471816,0.0,0.013499030933393642,0.0
1750421818.2502584,0.01227184630308513,0.0015339807878856412,6588397.014466926,-0.044485442848683596,0.0,-0.018407769454627694,0.0,0.01227184630308513,0.0015339807878856412,0.5,-0.044485442848683596,0.0,-0.018407769454627694,0.0,0.0,0.0,-0.30679614283144474,-0.07669903939428215,0.0,-0.07669903939428215,0.0,-0.07363107781851078,-0.06135923151542565,-17.699806056916714,0.17027186745530593,0.0,-0.07731263170943642,0.0
1750421818.2822464,0.01380582709097077,0.0015339807878856412,6588397.008331004,-0.044485442848683596,0.0,-0.018407769454627694,0.0,0.01380582709097077,0.0015339807878856412,0.5,-0.044485442848683596,0.0,-0.018407769454627694,0.0,0.07669903939428206,0.0,-0.30679614283144474,0.0,0.0,0.0,0.0,0.2239611950313036,-0.06135923151542565,-17.699806056916714,0.4003689856381524,0.0,0.014726215563702155,0.0
1750421818.2983813,0.01380582709097077,0.0015339807878856412,6588397.002195081,-0.044485442848683596,0.0,-0.018407769454627694,0.0,0.01380582709097077,0.0015339807878856412,0.5,-0.044485442848683596,0.0,-0.018407769454627694,0.0,0.0,0.0,-0.30679614283144474,0.0,0.0,0.0,0.0,-0.08283496254582462,-0.06135923151542565,-17.699806056916714,0.4003689856381524,0.0,0.014726215563702155,0.0
1750421818.3143203,0.01380582709097077,0.0015339807878856412,6588396.996059157,-0.04601942363656923,0.0,-0.018407769454627694,0.0,0.01380582709097077,0.0015339807878856412,0.5,-0.04601942363656923,0.0,-0.018407769454627694,0.0,0.0,0.0,-0.30679618939757347,-0.0766990393942818,0.0,0.0,0.0,-0.08283496254582462,-0.06135923151542565,-17.699806466698647,0.1840776945462777,0.0,0.014726215563702155,0.0
1750421818.3461928,0.015339807878856412,0.0015339807878856412,6588396.989923234,-0.04601942363656923,0.0,-0.018407769454627694,0.0015339807878856412,0.015339807878856412,0.0015339807878856412,0.5,-0.04601942363656923,0.0,-0.018407769454627694,0.0015339807878856412,0.07669903939428206,0.0,-0.30679614283144474,0.0,0.0,0.0,0.07669903939428206,0.21475731030398976,-0.06135923151542565,-17.699806056916714,0.4141748127291231,0.0,0.014726215563702155,0.0
1750421818.3622983,0.015339807878856412,0.0015339807878856412,6588396.983787311,-0.04601942363656923,0.0,-0.019941750242513337,0.0,0.015339807878856412,0.0015339807878856412,0.5,-0.04601942363656923,0.0,-0.019941750242513337,0.0,0.0,0.0,-0.30679614283144474,0.0,0.0,-0.07669903939428215,-0.07669903939428206,-0.09203884727313846,-0.06135923151542565,-17.699806056916714,0.4141748127291231,0.0,-0.0760854470791279,0.0
1750421818.3782487,0.01687378866674205,0.0015339807878856412,6588396.977651387,-0.047553404424454875,0.0,-0.019941750242513337,0.0,0.01687378866674205,0.0015339807878856412,0.5,-0.047553404424454875,0.0,-0.019941750242513337,0.0,0.07669903939428196,0.0,-0.30679618939757347,-0.07669903939428215,0.0,0.0,0.0,0.20555342557667555,-0.06135923151542565,-17.699806466698647,0.19788352163724748,0.0,0.01595340019401067,0.0
1750421818.394306,0.01687378866674205,0.0015339807878856412,6588396.971515465,-0.047553404424454875,0.0,-0.019941750242513337,0.0,0.01687378866674205,0.0015339807878856412,0.5,-0.047553404424454875,0.0,-0.019941750242513337,0.0,0.0,0.0,-0.30679614283144474,0.0,0.0,0.0,0.0,-0.1012427320004523,-0.06135923151542565,-17.699806056916714,0.4279806398200939,0.0,0.01595340019401067,0.0
1750421818.4262745,0.01687378866674205,0.0015339807878856412,6588396.965379542,-0.04908738521234052,0.0,-0.019941750242513337,0.0,0.01687378866674205,0.0015339807878856412,0.5,-0.04908738521234052,0.0,-0.019941750242513337,0.0,0.0,0.0,-0.30679614283144474,-0.07669903939428215,0.0,0.0,0.0,-0.1012427320004523,-0.06135923151542565,-17.699806056916714,0.21168934872821826,0.0,0.01595340019401067,0.0
1750421818.4423018,0.01687378866674205,0.0015339807878856412,6588396.960777599,-0.04908738521234052,0.0015339807878856412,-0.019941750242513337,0.0,0.01687378866674205,0.0015339807878856412,0.5,-0.04908738521234052,0.0015339807878856412,-0.019941750242513337,0.0,0.0,0.0,-0.23009711876511574,0.0,0.07669903939428206,0.0,0.0,-0.1012427320004523,-0.06135923151542565,-17.02485464513302,0.44178646691106466,0.09081166264282996,0.01595340019401067,0.0
1750421818.4583259,0.018407769454627694,0.0030679615757712823,6588396.954641676,-0.04908738521234052,0.0015339807878856412,-0.019941750242513337,0.0,0.018407769454627694,0.0030679615757712823,0.5,-0.04908738521234052,0.0015339807878856412,-0.019941750242513337,0.0,0.07669903939428215,0.07669903939428206,-0.30679618939757347,0.0,0.0,0.0,0.0,0.19634954084936246,-1.043106935762236,-17.699806466698647,0.44178646691106466,-0.001227184630308513,0.01595340019401067,0.0
1750421818.4902506,0.018407769454627694,0.0015339807878856412,6588396.950039733,-0.04908738521234052,0.0015339807878856412,-0.019941750242513337,0.0,0.018407769454627694,0.0015339807878856412,0.5,-0.04908738521234052,0.0015339807878856412,-0.019941750242513337,0.0,0.0,-0.07669903939428206,-0.23009711876511574,0.0,0.0,0.0,0.0,-0.11044661672776616,0.8590292412159591,-17.02485464513302,0.44178646691106466,-0.001227184630308513,0.01595340019401067,0.0
1750421818.5062773,0.019941750242513337,0.0030679615757712823,6588396.945437791,-0.04908738521234052,0.0015339807878856412,-0.019941750242513337,0.0015339807878856412,0.019941750242513337,0.0030679615757712823,0.5,-0.04908738521234052,0.0015339807878856412,-0.019941750242513337,0.0015339807878856412,0.07669903939428215,0.07669903939428206,-0.23009711876511574,0.0,0.0,0.0,0.07669903939428206,0.1871456561220486,-1.043106935762236,-17.02485464513302,0.44178646691106466,-0.001227184630308513,0.01595340019401067,0.0
1750421818.522309,0.019941750242513337,0.0046019423636569235,6588396.939301868,-0.04908738521234052,0.0015339807878856412,-0.019941750242513337,0.0,0.019941750242513337,0.0046019423636569235,0.5,-0.04908738521234052,0.0015339807878856412,-0.019941750242513337,0.0,0.0,0.07669903939428206,-0.30679614283144474,0.0,0.0,0.0,-0.07669903939428206,-0.11965050145508002,-1.1044661672776617,-17.699806056916714,0.44178646691106466,-0.001227184630308513,0.01595340019401067,0.0
1750421818.5383291,0.019941750242513337,0.006135923151542565,6588396.933165945,-0.05062136600022616,0.0015339807878856412,-0.019941750242513337,0.0,0.019941750242513337,0.006135923151542565,0.5,-0.05062136600022616,0.0015339807878856412,-0.019941750242513337,0.0,0.0,0.07669903939428206,-0.30679614283144474,-0.07669903939428215,0.0,0.0,0.0,-0.11965050145508002,-1.1658253987930873,-17.699806056916714,0.22549517581918904,-0.001227184630308513,0.01595340019401067,0.0
1750421818.570268,0.021475731030398976,0.006135923151542565,6588396.928564003,-0.04908738521234052,0.0030679615757712823,-0.019941750242513337,0.0015339807878856412,0.021475731030398976,0.006135923151542565,0.5,-0.04908738521234052,0.0030679615757712823,-0.019941750242513337,0.0015339807878856412,0.07669903939428196,0.0,-0.23009711876511574,0.07669903939428215,0.07669903939428206,0.0,0.07669903939428206,0.177941771394734,-0.2454369260617026,-17.02485464513302,0.6718835850939111,0.08958447801252145,0.01595340019401067,0.0
1750421818.586236,0.021475731030398976,0.007669903939428206,6588396.925496041,-0.04908738521234052,0.0030679615757712823,-0.019941750242513337,0.0,0.021475731030398976,0.007669903939428206,0.5,-0.04908738521234052,0.0030679615757712823,-0.019941750242513337,0.0,0.0,0.07669903939428206,-0.15339809469878674,0.0,0.0,0.0,-0.07669903939428206,-0.12885438618239387,-1.227184630308513,-16.349903233349323,0.44178646691106466,-0.002454369260617026,0.01595340019401067,0.0
1750421818.6022382,0.023009711818284616,0.007669903939428206,6588396.925496041,-0.04908738521234052,0.0030679615757712823,-0.019941750242513337,0.0,0.023009711818284616,0.007669903939428206,0.5,-0.04908738521234052,0.0030679615757712823,-0.019941750242513337,0.0,0.07669903939428196,0.0,0.0,0.0,0.0,0.0,0.0,0.16873788666742018,-0.30679615757712825,-15.0,0.44178646691106466,-0.002454369260617026,0.01595340019401067,0.0
1750421818.6341865,0.023009711818284616,0.009203884727313847,6588396.925496041,-0.04908738521234052,0.0030679615757712823,-0.019941750242513337,0.0,0.023009711818284616,0.009203884727313847,0.5,-0.04908738521234052,0.0030679615757712823,-0.019941750242513337,0.0,0.0,0.07669903939428206,0.0,0.0,0.0,0.0,0.0,-0.13805827090970768,-1.2885438618239387,-15.0,0.44178646691106466,-0.002454369260617026,0.01595340019401067,0.0
1750421818.650317,0.023009711818284616,0.010737865515199488,6588396.925496041,-0.05062136600022616,0.0030679615757712823,-0.019941750242513337,0.0,0.023009711818284616,0.010737865515199488,0.5,-0.05062136600022616,0.0030679615757712823,-0.019941750242513337,0.0,0.0,0.07669903939428206,0.0,-0.07669903939428215,0.0,0.0,0.0,-0.13805827090970768,-1.3499030933393643,-15.0,0.22549517581918904,-0.002454369260617026,0.01595340019401067,0.0
1750421818.6663122,0.02454369260617026,0.01227184630308513,6588396.925496041,-0.05062136600022616,0.0030679615757712823,-0.019941750242513337,0.0,0.02454369260617026,0.01227184630308513,0.5,-0.05062136600022616,0.0030679615757712823,-0.019941750242513337,0.0,0.07669903939428215,0.07669903939428206,0.0,0.0,0.0,0.0,0.0,0.15953400194010703,-1.41126232485479,-15.0,0.45559229400203544,-0.002454369260617026,0.01595340019401067,0.0
1750421818.6822536,0.02454369260617026,0.01380582709097077,6588396.925496041,-0.05062136600022616,0.0046019423636569235,-0.021475731030398976,0.0,0.02454369260617026,0.01380582709097077,0.5,-0.05062136600022616,0.0046019423636569235,-0.021475731030398976,0.0,0.0,0.07669903939428206,0.0,0.0,0.07669903939428206,-0.07669903939428196,0.0,-0.14726215563702155,-1.4726215563702156,-15.0,0.45559229400203544,0.08835729338221293,-0.07485826244881917,0.0
1750421818.714273,0.0260776733940559,0.015339807878856412,6588396.925496041,-0.05062136600022616,0.0046019423636569235,-0.019941750242513337,0.0015339807878856412,0.0260776733940559,0.015339807878856412,0.5,-0.05062136600022616,0.0046019423636569235,-0.019941750242513337,0.0015339807878856412,0.07669903939428215,0.07669903939428206,0.0,0.0,0.0,0.07669903939428196,0.07669903939428206,0.1503301172127932,-1.5339807878856413,-15.0,0.45559229400203544,-0.003681553890925539,0.10799224746714903,0.0
1750421818.7303112,0.0260776733940559,0.01687378866674205,6588396.925496041,-0.04908738521234052,0.0046019423636569235,-0.021475731030398976,0.0,0.0260776733940559,0.01687378866674205,0.5,-0.04908738521234052,0.0046019423636569235,-0.021475731030398976,0.0,0.0,0.07669903939428196,0.0,0.07669903939428215,0.0,-0.07669903939428196,-0.07669903939428206,-0.15646604036433542,-1.5953400194010656,-15.0,0.6718835850939111,-0.003681553890925539,-0.07485826244881917,0.0
1750421818.7463355,0.0260776733940559,0.01687378866674205,6588396.925496041,-0.05062136600022616,0.0046019423636569235,-0.021475731030398976,0.0,0.0260776733940559,0.01687378866674205,0.5,-0.05062136600022616,0.0046019423636569235,-0.021475731030398976,0.0,0.0,0.0,0.0,-0.07669903939428215,0.0,0.0,0.0,-0.15646604036433542,-0.674951546669682,-15.0,0.22549517581918904,-0.003681553890925539,0.01718058482431918,0.0
1750421818.7782357,0.0260776733940559,0.018407769454627694,6588396.925496041,-0.05062136600022616,0.006135923151542565,-0.021475731030398976,0.0,0.0260776733940559,0.018407769454627694,0.5,-0.05062136600022616,0.006135923151542565,-0.021475731030398976,0.0,0.0,0.07669903939428215,0.0,0.0,0.07669903939428206,0.0,0.0,-0.15646604036433542,-1.6566992509164935,-15.0,0.45559229400203544,0.08713010875190441,0.01718058482431918,0.0
1750421818.7942657,0.0260776733940559,0.018407769454627694,6588396.925496041,-0.05062136600022616,0.006135923151542565,-0.021475731030398976,0.0,0.0260776733940559,0.018407769454627694,0.5,-0.05062136600022616,0.006135923151542565,-0.021475731030398976,0.0,0.0,0.0,0.0,0.0,0.0,0.0,0.0,-0.15646604036433542,-0.7363107781851077,-15.0,0.45559229400203544,-0.004908738521234052,0.01718058482431918,0.0
1750421818.8102226,0.02761165418194154,0.018407769454627694,6588396.925496041,-0.05062136600022616,0.006135923151542565,-0.021475731030398976,0.0,0.02761165418194154,0.018407769454627694,0.5,-0.05062136600022616,0.006135923151542565,-0.021475731030398976,0.0,0.07669903939428196,0.0,0.0,0.0,0.0,0.0,0.0,0.14112623248547862,-0.7363107781851077,-15.0,0.45559229400203544,-0.004908738521234052,0.01718058482431918,0.0
1750421818.8262577,0.02761165418194154,0.01687378866674205,6588396.925496041,-0.05062136600022616,0.006135923151542565,-0.021475731030398976,0.0,0.02761165418194154,0.01687378866674205,0.5,-0.05062136600022616,0.006135923151542565,-0.021475731030398976,0.0,0.0,-0.07669903939428215,0.0,0.0,0.0,0.0,0.0,-0.16566992509164924,0.24543692606170364,-15.0,0.45559229400203544,-0.004908738521234052,0.01718058482431918,0.0
1750421818.8582516,0.02761165418194154,0.01687378866674205,6588396.925496041,-0.05062136600022616,0.006135923151542565,-0.021475731030398976,0.0015339807878856412,0.02761165418194154,0.01687378866674205,0.5,-0.05062136600022616,0.006135923151542565,-0.021475731030398976,0.0015339807878856412,0.0,0.0,0.0,0.0,0.0,0.0,0.07669903939428206,-0.16566992509164924,-0.674951546669682,-15.0,0.45559229400203544,-0.004908738521234052,0.01718058482431918,0.0
1750421818.8742657,0.02761165418194154,0.01687378866674205,6588396.925496041,-0.0521553467881118,0.006135923151542565,-0.021475731030398976,0.0,0.02761165418194154,0.01687378866674205,0.5,-0.0521553467881118,0.006135923151542565,-0.021475731030398976,0.0,0.0,0.0,0.0,-0.07669903939428215,0.0,0.0,-0.07669903939428206,-0.16566992509164924,-0.674951546669682,-15.0,0.23930100291015982,-0.004908738521234052,0.01718058482431918,0.0
1750421818.890369,0.02761165418194154,0.01687378866674205,6588396.925496041,-0.0521553467881118,0.006135923151542565,-0.021475731030398976,0.0,0.02761165418194154,0.01687378866674205,0.5,-0.0521553467881118,0.006135923151542565,-0.021475731030398976,0.0,0.0,0.0,0.0,0.0,0.0,0.0,0.0,-0.16566992509164924,-0.674951546669682,-15.0,0.4693981210930062,-0.004908738521234052,0.01718058482431918,0.0
1750421818.9222624,0.02761165418194154,0.01687378866674205,6588396.925496041,-0.0521553467881118,0.006135923151542565,-0.021475731030398976,0.0015339807878856412,0.02761165418194154,0.01687378866674205,0.5,-0.0521553467881118,0.006135923151542565,-0.021475731030398976,0.0015339807878856412,0.0,0.0,0.0,0.0,0.0,0.0,0.07669903939428206,-0.16566992509164924,-0.674951546669682,-15.0,0.4693981210930062,-0.004908738521234052,0.01718058482431918,0.0
1750421818.938248,0.02914563496982718,0.015339807878856412,6588396.925496041,-0.0521553467881118,0.007669903939428206,-0.021475731030398976,0.0,0.02914563496982718,0.015339807878856412,0.5,-0.0521553467881118,0.007669903939428206,-0.021475731030398976,0.0,0.07669903939428196,-0.07669903939428196,0.0,0.0,0.07669903939428206,0.0,-0.07669903939428206,0.1319223477581648,0.3067961575771271,-15.0,0.4693981210930062,0.0859029241215959,0.01718058482431918,0.0
1750421818.9543796,0.02914563496982718,0.01380582709097077,6588396.925496041,-0.05368932757599744,0.007669903939428206,-0.021475731030398976,0.0,0.02914563496982718,0.01380582709097077,0.5,-0.05368932757599744,0.007669903939428206,-0.021475731030398976,0.0,0.0,-0.07669903939428206,0.0,-0.0766990393942818,0.0,0.0,0.0,-0.17487380981896308,0.36815538909255396,-15.0,0.25310683000113154,-0.006135923151542565,0.01718058482431918,0.0
1750421818.9702604,0.02914563496982718,0.01227184630308513,6588396.925496041,-0.05522330836388308,0.007669903939428206,-0.021475731030398976,0.0,0.02914563496982718,0.01227184630308513,0.5,-0.05522330836388308,0.007669903939428206,-0.021475731030398976,0.0,0.0,-0.07669903939428206,0.0,-0.07669903939428215,0.0,0.0,0.0,-0.17487380981896308,0.4295146206079796,-15.0,0.26691265709210127,-0.006135923151542565,0.01718058482431918,0.0
1750421819.0022388,0.02914563496982718,0.01227184630308513,6588396.925496041,-0.05522330836388308,0.009203884727313847,-0.021475731030398976,0.0,0.02914563496982718,0.01227184630308513,0.5,-0.05522330836388308,0.009203884727313847,-0.021475731030398976,0.0,0.0,0.0,0.0,0.0,0.07669903939428206,0.0,0.0,-0.17487380981896308,-0.4908738521234052,-15.0,0.4970097752749477,0.0846757394912874,0.01718058482431918,0.0
1750421819.01832,0.02914563496982718,0.01227184630308513,6588396.927030021,-0.05522330836388308,0.009203884727313847,-0.021475731030398976,0.0,0.02914563496982718,0.01227184630308513,0.5,-0.05522330836388308,0.009203884727313847,-0.021475731030398976,0.0,0.0,0.0,0.076699024066329,0.0,0.0,0.0,0.0,-0.17487380981896308,-0.4908738521234052,-14.325048588216305,0.4970097752749477,-0.007363107781851078,0.01718058482431918,0.0
1750421819.0343742,0.02914563496982718,0.01227184630308513,6588396.925496041,-0.05522330836388308,0.009203884727313847,-0.021475731030398976,0.0,0.02914563496982718,0.01227184630308513,0.5,-0.05522330836388308,0.009203884727313847,-0.021475731030398976,0.0,0.0,0.0,-0.076699024066329,0.0,0.0,0.0,0.0,-0.17487380981896308,-0.4908738521234052,-15.674951411783695,0.4970097752749477,-0.007363107781851078,0.01718058482431918,0.0
1750421819.0662148,0.02914563496982718,0.015339807878856412,6588396.925496041,-0.05522330836388308,0.009203884727313847,-0.019941750242513337,0.0,0.02914563496982718,0.015339807878856412,0.5,-0.05522330836388308,0.009203884727313847,-0.019941750242513337,0.0,0.0,0.15339807878856412,0.0,0.0,0.0,0.07669903939428196,0.0,-0.17487380981896308,-2.454369260617026,-15.0,0.4970097752749477,-0.007363107781851078,0.10799224746714903,0.0
1750421819.0822525,0.02914563496982718,0.01687378866674205,6588396.925496041,-0.056757289151768725,0.009203884727313847,-0.018407769454627694,0.0,0.02914563496982718,0.01687378866674205,0.5,-0.056757289151768725,0.009203884727313847,-0.018407769454627694,0.0,0.0,0.07669903939428196,0.0,-0.07669903939428215,0.0,0.07669903939428215,0.0,-0.17487380981896308,-1.5953400194010656,-15.0,0.28071848418307205,-0.007363107781851078,0.10676506283684073,0.0
1750421819.0983772,0.02914563496982718,0.01687378866674205,6588396.925496041,-0.056757289151768725,0.009203884727313847,-0.015339807878856412,0.0,0.02914563496982718,0.01687378866674205,0.5,-0.056757289151768725,0.009203884727313847,-0.015339807878856412,0.0,0.0,0.0,0.0,0.0,0.0,0.15339807878856412,0.0,-0.17487380981896308,-0.674951546669682,-15.0,0.5108156023659185,-0.007363107781851078,0.19634954084936207,0.0
1750421819.1143777,0.02914563496982718,0.018407769454627694,6588396.925496041,-0.05829126993965436,0.009203884727313847,-0.015339807878856412,0.0015339807878856412,0.02914563496982718,0.018407769454627694,0.5,-0.05829126993965436,0.009203884727313847,-0.015339807878856412,0.0015339807878856412,0.0,0.07669903939428215,0.0,-0.0766990393942818,0.0,0.0,0.07669903939428206,-0.17487380981896308,-1.6566992509164935,-15.0,0.2945243112740439,-0.007363107781851078,0.01227184630308513,0.0
1750421819.146337,0.02914563496982718,0.023009711818284616,6588396.925496041,-0.05829126993965436,0.009203884727313847,-0.01380582709097077,0.0,0.02914563496982718,0.023009711818284616,0.5,-0.05829126993965436,0.009203884727313847,-0.01380582709097077,0.0,0.0,0.2300971181828461,0.0,0.0,0.0,0.07669903939428206,-0.07669903939428206,-0.17487380981896308,-3.681553890925538,-15.0,0.5246214294568893,-0.007363107781851078,0.10308350894591509,0.0
1750421819.1622486,0.02914563496982718,0.032213596545598466,6588396.925496041,-0.05829126993965436,0.009203884727313847,-0.01227184630308513,0.0,0.02914563496982718,0.032213596545598466,0.5,-0.05829126993965436,0.009203884727313847,-0.01227184630308513,0.0,0.0,0.4601942363656925,0.0,0.0,0.0,0.07669903939428206,0.0,-0.17487380981896308,-6.810874698212249,-15.0,0.5246214294568893,-0.007363107781851078,0.10185632431560657,0.0
1750421819.1783574,0.02914563496982718,0.044485442848683596,6588396.925496041,-0.059825250727540004,0.010737865515199488,-0.01227184630308513,0.0,0.02914563496982718,0.044485442848683596,0.5,-0.059825250727540004,0.010737865515199488,-0.01227184630308513,0.0,0.0,0.6135923151542565,0.0,-0.07669903939428215,0.07669903939428206,0.0,0.0,-0.17487380981896308,-9.142525495798422,-15.0,0.3083301383650136,0.08344855486097888,0.009817477042468103,0.0
1750421819.2101982,0.030679615757712823,0.059825250727540004,6588396.925496041,-0.059825250727540004,0.010737865515199488,-0.01227184630308513,0.0,0.030679615757712823,0.059825250727540004,0.5,-0.059825250727540004,0.010737865515199488,-0.01227184630308513,0.0,0.07669903939428215,0.7669903939428204,0.0,0.0,0.0,0.0,0.0,0.12271846303085165,-11.596894756415445,-15.0,0.5384272565478601,-0.00859029241215959,0.009817477042468103,0.0
1750421819.2262368,0.030679615757712823,0.07669903939428206,6588396.930097983,-0.06135923151542565,0.010737865515199488,-0.01227184630308513,0.0015339807878856412,0.030679615757712823,0.07669903939428206,0.5,-0.06135923151542565,0.010737865515199488,-0.01227184630308513,0.0015339807878856412,0.0,0.8436894333371029,0.23009711876511574,-0.07669903939428215,0.0,0.0,0.07669903939428206,-0.18407769454627693,-13.192234775816518,-12.975145354866982,0.3221359654559844,-0.00859029241215959,0.009817477042468103,0.0
1750421819.2422552,0.030679615757712823,0.09050486648525283,6588396.946971772,-0.06289321230331128,0.010737865515199488,-0.015339807878856412,0.0,0.030679615757712823,0.09050486648525283,0.5,-0.06289321230331128,0.010737865515199488,-0.015339807878856412,0.0,0.0,0.6902913545485383,0.843689450994134,-0.0766990393942818,0.0,-0.15339807878856412,-0.07669903939428206,-0.18407769454627693,-11.903690913992573,-7.575532831251621,0.3359417925469561,-0.00859029241215959,-0.1718058482431918,0.0
1750421819.2583609,0.030679615757712823,0.10584467436410924,6588396.976117407,-0.06442719309119693,0.010737865515199488,-0.01380582709097077,0.0,0.030679615757712823,0.10584467436410924,0.5,-0.06442719309119693,0.010737865515199488,-0.01380582709097077,0.0,0.0,0.7669903939428208,1.4572817366570234,-0.07669903939428249,0.0,0.07669903939428206,0.0,-0.18407769454627693,-13.43767170187822,-2.175920717418194,0.3497476196379249,-0.00859029241215959,0.10308350894591509,0.0
1750421819.2902558,0.032213596545598466,0.11658253987930872,6588397.008331004,-0.06442719309119693,0.010737865515199488,-0.010737865515199488,0.0,0.032213596545598466,0.11658253987930872,0.5,-0.06442719309119693,0.010737865515199488,-0.010737865515199488,0.0,0.07669903939428215,0.5368932757599739,1.6106798313558102,0.0,0.0,0.15339807878856412,0.0,0.11351457830353784,-11.106020904292038,-0.8260174840688705,0.5798447378207724,-0.00859029241215959,0.19266798695843654,0.0
1750421819.3062162,0.032213596545598466,0.12118448224296566,6588397.034408676,-0.0674951546669682,0.010737865515199488,-0.010737865515199488,0.0,0.032213596545598466,0.12118448224296566,0.5,-0.0674951546669682,0.010737865515199488,-0.010737865515199488,0.0,0.0,0.23009711818284678,1.3038836419582367,-0.1533980787885636,0.0,0.0,0.0,-0.1932815792735908,-7.608544707912788,-3.525823950767517,0.14726215563702305,-0.00859029241215959,0.00859029241215959,0.0
1750421819.322364,0.0337475773334841,0.12425244381873693,6588397.055884408,-0.0674951546669682,0.01227184630308513,-0.010737865515199488,0.0,0.0337475773334841,0.12425244381873693,0.5,-0.0674951546669682,0.01227184630308513,-0.010737865515199488,0.0,0.0766990393942818,0.1533980787885636,1.0737865697592497,0.0,0.07669903939428206,0.0,0.0,0.10431069357622258,-6.81087469821224,-5.550678186118603,0.6074563920027138,0.08222137023067036,0.00859029241215959,0.0
1750421819.3542078,0.0337475773334841,0.1303883669702795,6588397.085030043,-0.0674951546669682,0.010737865515199488,-0.010737865515199488,0.0015339807878856412,0.0337475773334841,0.1303883669702795,0.5,-0.0674951546669682,0.010737865515199488,-0.010737865515199488,0.0015339807878856412,0.0,0.3067961575771286,1.4572817366570234,0.0,-0.07669903939428206,0.0,0.07669903939428206,-0.2024854640009046,-8.897088569736722,-2.175920717418194,0.6074563920027138,-0.10062913968529806,0.00859029241215959,0.0
1750421819.3702395,0.035281558121369745,0.14266021327336462,6588397.127981505,-0.06902913545485385,0.01227184630308513,-0.010737865515199488,0.0015339807878856412,0.035281558121369745,0.14266021327336462,0.5,-0.06902913545485385,0.01227184630308513,-0.010737865515199488,0.0015339807878856412,0.07669903939428215,0.6135923151542557,2.1475731395184994,-0.07669903939428249,0.07669903939428206,0.0,0.0,0.0951068088489101,-13.069516312785654,3.8986436277627945,0.3911651009108372,0.08222137023067036,0.00859029241215959,0.0
1750421819.3862815,0.035281558121369745,0.15493205957644976,6588397.161729082,-0.06902913545485385,0.01227184630308513,-0.010737865515199488,0.0,0.035281558121369745,0.15493205957644976,0.5,-0.06902913545485385,0.01227184630308513,-0.010737865515199488,0.0,0.0,0.6135923151542572,1.6873788554221392,0.0,0.0,0.0,-0.07669903939428206,-0.21168934872821848,-13.560390164909077,-0.15106607228517532,0.6212622190936847,-0.009817477042468103,0.00859029241215959,0.0
1750421819.402252,0.035281558121369745,0.17027186745530618,6588397.186272775,-0.06902913545485385,0.01227184630308513,-0.010737865515199488,0.0,0.035281558121369745,0.17027186745530618,0.5,-0.06902913545485385,0.01227184630308513,-0.010737865515199488,0.0,0.0,0.7669903939428208,1.2271846178919077,0.0,0.0,0.0,0.0,-0.21168934872821848,-16.014759425526094,-4.200775362551212,0.6212622190936847,-0.009817477042468103,0.00859029241215959,0.0
1750421819.4343617,0.035281558121369745,0.18407769454627693,-0.10277671278833796,-0.07056311624273949,0.01227184630308513,-0.010737865515199488,0.0,0.035281558121369745,0.18407769454627693,-0.10277671278833796,-0.07056311624273949,0.01227184630308513,-0.010737865515199488,0.0,0.0,0.6902913545485375,-329419864.45247436,-0.0766990393942818,0.0,0.0,0.0,-0.21168934872821848,-15.646604036433526,-2898894804.098473,0.40497092800181,-0.009817477042468103,0.00859029241215959,0.0
1750421819.4502625,0.035281558121369745,0.1978835216372477,-0.07669903939428206,-0.07209709703062514,0.01227184630308513,-0.010737865515199488,0.0,0.035281558121369745,0.1978835216372477,-0.07669903939428206,-0.07209709703062514,0.01227184630308513,-0.010737865515199488,0.0,0.0,0.690291354548539,1.3038836697027947,-0.07669903939428249,0.0,0.0,0.0,-0.21168934872821848,-16.198837120072376,13.775147475213055,0.4187767550927788,-0.009817477042468103,0.00859029241215959,0.0
