ashok-ga/fk_ik/leader-zmq/impedance_log.csv
time,q0,q1,q2,q3,q4,q5,q6,q_err0,q_err1,q_err2,q_err3,q_err4,q_err5,q_err6,dq0,dq1,dq2,dq3,dq4,dq5,dq6,tau0,tau1,tau2,tau3,tau4,tau5,tau6
1750157922.3738859,0.0,0.0,-0.0015339807878856412,0.0,0.0,0.0,-0.0015339807878856412,0.0,0.0,-0.0015339807878856412,0.0,0.0,0.0,-0.0015339807878856412,0.0,0.0,-0.07669903939428206,0.0,0.0,0.0,-0.07669903939428206,0.0,0.0,-0.628932123033113,0.0,0.0,0.0,0.0
1750157922.3938365,0.0,0.0,0.0,0.0,0.0,0.0015339807878856412,-0.0015339807878856412,0.0,0.0,0.0,0.0,0.0,0.0015339807878856412,-0.0015339807878856412,0.0,0.0,0.07669903939428206,0.0,0.0,0.07669903939428206,0.0,0.0,0.0,0.6749515466696822,0.0,0.0,0.09081166264282996,0.0
1750157922.413848,0.0,0.0,-0.0015339807878856412,0.0,0.0,0.0,0.0,0.0,0.0,-0.0015339807878856412,0.0,0.0,0.0,0.0,0.0,0.0,-0.07669903939428206,0.0,0.0,-0.07669903939428206,0.07669903939428206,0.0,0.0,-0.628932123033113,0.0,0.0,-0.09203884727313846,0.0
1750157922.4337766,0.0015339807878856412,0.0,0.0,0.0,0.0,0.0,0.0,0.0015339807878856412,0.0,0.0,0.0,0.0,0.0,0.0,0.07669903939428206,0.0,0.07669903939428206,0.0,0.0,0.0,0.0,0.2975922728498144,0.0,0.6749515466696822,0.0,0.0,0.0,0.0
1750157922.453893,0.0015339807878856412,0.0015339807878856412,-0.0015339807878856412,0.0,0.0,0.0,-0.0015339807878856412,0.0015339807878856412,0.0015339807878856412,-0.0015339807878856412,0.0,0.0,0.0,-0.0015339807878856412,0.0,0.07669903939428206,-0.07669903939428206,0.0,0.0,0.0,-0.07669903939428206,-0.009203884727313847,-0.9817477042468103,-0.628932123033113,0.0,0.0,0.0,0.0
1750157922.4737933,0.0015339807878856412,0.0015339807878856412,0.0,0.0,0.0,0.0,0.0,0.0015339807878856412,0.0015339807878856412,0.0,0.0,0.0,0.0,0.0,0.0,0.0,0.07669903939428206,0.0,0.0,0.0,0.07669903939428206,-0.009203884727313847,-0.06135923151542565,0.6749515466696822,0.0,0.0,0.0,0.0
1750157922.4948182,0.0,0.0015339807878856412,0.0,0.0,0.0,0.0,-0.0015339807878856412,0.0,0.0015339807878856412,0.0,0.0,0.0,0.0,-0.0015339807878856412,-0.07669903939428206,0.0,0.0,0.0,0.0,0.0,-0.07669903939428206,-0.3067961575771282,-0.06135923151542565,0.0,0.0,0.0,0.0,0.0
1750157922.5147865,0.0,0.0,0.0,0.0,0.0,0.0,-0.0015339807878856412,0.0,0.0,0.0,0.0,0.0,0.0,-0.0015339807878856412,0.0,-0.07669903939428206,0.0,0.0,0.0,0.0,0.0,0.0,0.9203884727313848,0.0,0.0,0.0,0.0,0.0
1750157922.5347686,0.0015339807878856412,0.0,0.0,0.0,0.0,0.0,-0.0015339807878856412,0.0015339807878856412,0.0,0.0,0.0,0.0,0.0,-0.0015339807878856412,0.07669903939428206,0.0,0.0,0.0,0.0,0.0,0.0,0.2975922728498144,0.0,0.0,0.0,0.0,0.0,0.0
1750157922.554772,0.0,0.0,0.0,0.0,0.0,0.0,-0.0015339807878856412,0.0,0.0,0.0,0.0,0.0,0.0,-0.0015339807878856412,-0.07669903939428206,0.0,0.0,0.0,0.0,0.0,0.0,-0.3067961575771282,0.0,0.0,0.0,0.0,0.0,0.0
1750157922.5747693,0.0,0.0,0.0,0.0,0.0,0.0,-0.0015339807878856412,0.0,0.0,0.0,0.0,0.0,0.0,-0.0015339807878856412,0.0,0.0,0.0,0.0,0.0,0.0,0.0,0.0,0.0,0.0,0.0,0.0,0.0,0.0
1750157922.5948164,0.0,0.0,0.0,0.0,-0.0015339807878856412,0.0,0.0,0.0,0.0,0.0,0.0,-0.0015339807878856412,0.0,0.0,0.0,0.0,0.0,0.0,-0.07669903939428206,0.0,0.07669903939428206,0.0,0.0,0.0,0.0,-0.09081166264282996,0.0,0.0
1750157922.6147664,0.0015339807878856412,0.0,-0.0015339807878856412,0.0,0.0,0.0,-0.0015339807878856412,0.0015339807878856412,0.0,-0.0015339807878856412,0.0,0.0,0.0,-0.0015339807878856412,0.07669903939428206,0.0,-0.07669903939428206,0.0,0.07669903939428206,0.0,-0.07669903939428206,0.2975922728498144,0.0,-0.628932123033113,0.0,0.09203884727313846,0.0,0.0
1750157922.634766,0.0,0.0,0.0,0.0,0.0,0.0,0.0,0.0,0.0,0.0,0.0,0.0,0.0,0.0,-0.07669903939428206,0.0,0.07669903939428206,0.0,0.0,0.0,0.07669903939428206,-0.3067961575771282,0.0,0.6749515466696822,0.0,0.0,0.0,0.0
1750157922.6547325,0.0,0.0,0.0,0.0,0.0,0.0,0.0,0.0,0.0,0.0,0.0,0.0,0.0,0.0,0.0,0.0,0.0,0.0,0.0,0.0,0.0,0.0,0.0,0.0,0.0,0.0,0.0,0.0
1750157922.6757693,0.0,0.0,-0.0015339807878856412,0.0,0.0,0.0,0.0,0.0,0.0,-0.0015339807878856412,0.0,0.0,0.0,0.0,0.0,0.0,-0.07669903939428206,0.0,0.0,0.0,0.0,0.0,0.0,-0.628932123033113,0.0,0.0,0.0,0.0
1750157922.6958039,0.0,0.0,-0.0015339807878856412,0.0,0.0,0.0,0.0,0.0,0.0,-0.0015339807878856412,0.0,0.0,0.0,0.0,0.0,0.0,0.0,0.0,0.0,0.0,0.0,0.0,0.0,0.04601942363656923,0.0,0.0,0.0,0.0
1750157922.715808,0.0,0.0,0.0,0.0,0.0,0.0,0.0,0.0,0.0,0.0,0.0,0.0,0.0,0.0,0.0,0.0,0.07669903939428206,0.0,0.0,0.0,0.0,0.0,0.0,0.6749515466696822,0.0,0.0,0.0,0.0
1750157922.7357655,0.0,0.0,0.0,0.0,0.0,0.0,-0.0015339807878856412,0.0,0.0,0.0,0.0,0.0,0.0,-0.0015339807878856412,0.0,0.0,0.0,0.0,0.0,0.0,-0.07669903939428206,0.0,0.0,0.0,0.0,0.0,0.0,0.0
1750157922.755753,0.0,0.0015339807878856412,-0.0015339807878856412,0.0,0.0,0.0,0.0,0.0,0.0015339807878856412,-0.0015339807878856412,0.0,0.0,0.0,0.0,0.0,0.07669903939428206,-0.07669903939428206,0.0,0.0,0.0,0.07669903939428206,0.0,-0.9817477042468103,-0.628932123033113,0.0,0.0,0.0,0.0
1750157922.775767,0.0,0.0015339807878856412,0.0,0.0,0.0,0.0,0.0,0.0,0.0015339807878856412,0.0,0.0,0.0,0.0,0.0,0.0,0.0,0.07669903939428206,0.0,0.0,0.0,0.0,0.0,-0.06135923151542565,0.6749515466696822,0.0,0.0,0.0,0.0
1750157922.7957852,0.0,0.0,0.0,0.0,0.0,0.0,0.0,0.0,0.0,0.0,0.0,0.0,0.0,0.0,0.0,-0.07669903939428206,0.0,0.0,0.0,0.0,0.0,0.0,0.9203884727313848,0.0,0.0,0.0,0.0,0.0
1750157922.8157542,0.0,0.0,-0.0015339807878856412,0.0,0.0,0.0,-0.0015339807878856412,0.0,0.0,-0.0015339807878856412,0.0,0.0,0.0,-0.0015339807878856412,0.0,0.0,-0.07669903939428206,0.0,0.0,0.0,-0.07669903939428206,0.0,0.0,-0.628932123033113,0.0,0.0,0.0,0.0
1750157922.8357954,0.0015339807878856412,0.0015339807878856412,0.0,0.0,0.0,0.0,0.0,0.0015339807878856412,0.0015339807878856412,0.0,0.0,0.0,0.0,0.0,0.07669903939428206,0.07669903939428206,0.07669903939428206,0.0,0.0,0.0,0.07669903939428206,0.2975922728498144,-0.9817477042468103,0.6749515466696822,0.0,0.0,0.0,0.0
1750157922.8567884,0.0,0.0015339807878856412,-0.0015339807878856412,0.0,0.0,0.0,0.0,0.0,0.0015339807878856412,-0.0015339807878856412,0.0,0.0,0.0,0.0,-0.07669903939428206,0.0,-0.07669903939428206,0.0,0.0,0.0,0.0,-0.3067961575771282,-0.06135923151542565,-0.628932123033113,0.0,0.0,0.0,0.0
1750157922.8767967,0.0,0.0015339807878856412,-0.0015339807878856412,0.0,0.0,0.0,0.0,0.0,0.0015339807878856412,-0.0015339807878856412,0.0,0.0,0.0,0.0,0.0,0.0,0.0,0.0,0.0,0.0,0.0,0.0,-0.06135923151542565,0.04601942363656923,0.0,0.0,0.0,0.0
1750157922.8967805,0.0,0.0,0.0,0.0,0.0,0.0,0.0,0.0,0.0,0.0,0.0,0.0,0.0,0.0,0.0,-0.07669903939428206,0.07669903939428206,0.0,0.0,0.0,0.0,0.0,0.9203884727313848,0.6749515466696822,0.0,0.0,0.0,0.0
1750157922.9167993,0.0,0.0,-0.0015339807878856412,0.0,0.0,0.0,-0.0015339807878856412,0.0,0.0,-0.0015339807878856412,0.0,0.0,0.0,-0.0015339807878856412,0.0,0.0,-0.07669903939428206,0.0,0.0,0.0,-0.07669903939428206,0.0,0.0,-0.628932123033113,0.0,0.0,0.0,0.0
1750157922.9367838,0.0,0.0,-0.0015339807878856412,0.0,0.0,0.0,-0.0015339807878856412,0.0,0.0,-0.0015339807878856412,0.0,0.0,0.0,-0.0015339807878856412,0.0,0.0,0.0,0.0,0.0,0.0,0.0,0.0,0.0,0.04601942363656923,0.0,0.0,0.0,0.0
1750157922.9567993,0.0,0.0,-0.0015339807878856412,0.0,0.0,0.0015339807878856412,0.0,0.0,0.0,-0.0015339807878856412,0.0,0.0,0.0015339807878856412,0.0,0.0,0.0,0.0,0.0,0.0,0.07669903939428206,0.07669903939428206,0.0,0.0,0.04601942363656923,0.0,0.0,0.09081166264282996,0.0
1750157922.9768455,0.0,0.0,-0.0015339807878856412,0.0,0.0,0.0,-0.0015339807878856412,0.0,0.0,-0.0015339807878856412,0.0,0.0,0.0,-0.0015339807878856412,0.0,0.0,0.0,0.0,0.0,-0.07669903939428206,-0.07669903939428206,0.0,0.0,0.04601942363656923,0.0,0.0,-0.09203884727313846,0.0
1750157922.997831,0.0,0.0015339807878856412,0.0,0.0,0.0,0.0,-0.0015339807878856412,0.0,0.0015339807878856412,0.0,0.0,0.0,0.0,-0.0015339807878856412,0.0,0.07669903939428206,0.07669903939428206,0.0,0.0,0.0,0.0,0.0,-0.9817477042468103,0.6749515466696822,0.0,0.0,0.0,0.0
1750157923.0178354,0.0,0.0,0.0,0.0,0.0,0.0,0.0,0.0,0.0,0.0,0.0,0.0,0.0,0.0,0.0,-0.07669903939428206,0.0,0.0,0.0,0.0,0.07669903939428206,0.0,0.9203884727313848,0.0,0.0,0.0,0.0,0.0
1750157923.0378382,0.0,0.0,0.0,0.0,0.0,0.0,0.0,0.0,0.0,0.0,0.0,0.0,0.0,0.0,0.0,0.0,0.0,0.0,0.0,0.0,0.0,0.0,0.0,0.0,0.0,0.0,0.0,0.0
1750157923.0578177,0.0,0.0,-0.0015339807878856412,-0.0015339807878856412,0.0,0.0,-0.0015339807878856412,0.0,0.0,-0.0015339807878856412,-0.0015339807878856412,0.0,0.0,-0.0015339807878856412,0.0,0.0,-0.07669903939428206,-0.07669903939428206,0.0,0.0,-0.07669903939428206,0.0,0.0,-0.628932123033113,-0.21629129109187542,0.0,0.0,0.0
1750157923.0778277,0.0,0.0,-0.0015339807878856412,0.0,0.0,0.0,-0.0015339807878856412,0.0,0.0,-0.0015339807878856412,0.0,0.0,0.0,-0.0015339807878856412,0.0,0.0,0.0,0.07669903939428206,0.0,0.0,0.0,0.0,0.0,0.04601942363656923,0.23009711818284617,0.0,0.0,0.0
1750157923.097829,0.0,0.0,-0.0015339807878856412,0.0,0.0,0.0,-0.0015339807878856412,0.0,0.0,-0.0015339807878856412,0.0,0.0,0.0,-0.0015339807878856412,0.0,0.0,0.0,0.0,0.0,0.0,0.0,0.0,0.0,0.04601942363656923,0.0,0.0,0.0,0.0
1750157923.117812,0.0,0.0,-0.0015339807878856412,0.0,0.0,0.0,-0.0015339807878856412,0.0,0.0,-0.0015339807878856412,0.0,0.0,0.0,-0.0015339807878856412,0.0,0.0,0.0,0.0,0.0,0.0,0.0,0.0,0.0,0.04601942363656923,0.0,0.0,0.0,0.0
1750157923.1387625,0.0,0.0,-0.0015339807878856412,0.0,0.0,0.0,0.0,0.0,0.0,-0.0015339807878856412,0.0,0.0,0.0,0.0,0.0,0.0,0.0,0.0,0.0,0.0,0.07669903939428206,0.0,0.0,0.04601942363656923,0.0,0.0,0.0,0.0
1750157923.1587574,0.0,0.0,-0.0015339807878856412,0.0,0.0,0.0,0.0,0.0,0.0,-0.0015339807878856412,0.0,0.0,0.0,0.0,0.0,0.0,0.0,0.0,0.0,0.0,0.0,0.0,0.0,0.04601942363656923,0.0,0.0,0.0,0.0
1750157923.1787884,0.0,0.0015339807878856412,-0.0015339807878856412,0.0,0.0,0.0,-0.0015339807878856412,0.0,0.0015339807878856412,-0.0015339807878856412,0.0,0.0,0.0,-0.0015339807878856412,0.0,0.07669903939428206,0.0,0.0,0.0,0.0,-0.07669903939428206,0.0,-0.9817477042468103,0.04601942363656923,0.0,0.0,0.0,0.0
1750157923.1987653,0.0,0.0,0.0,0.0,0.0,0.0,0.0,0.0,0.0,0.0,0.0,0.0,0.0,0.0,0.0,-0.07669903939428206,0.07669903939428206,0.0,0.0,0.0,0.07669903939428206,0.0,0.9203884727313848,0.6749515466696822,0.0,0.0,0.0,0.0
1750157923.2187634,0.0,0.0,0.0,0.0,0.0,0.0,0.0,0.0,0.0,0.0,0.0,0.0,0.0,0.0,0.0,0.0,0.0,0.0,0.0,0.0,0.0,0.0,0.0,0.0,0.0,0.0,0.0,0.0
1750157923.239764,0.0015339807878856412,0.0,0.0,0.0,0.0,0.0,0.0,0.0015339807878856412,0.0,0.0,0.0,0.0,0.0,0.0,0.07669903939428206,0.0,0.0,0.0,0.0,0.0,0.0,0.2975922728498144,0.0,0.0,0.0,0.0,0.0,0.0
1750157923.2596912,0.0,0.0,-0.0015339807878856412,0.0,0.0,0.0,0.0,0.0,0.0,-0.0015339807878856412,0.0,0.0,0.0,0.0,-0.07669903939428206,0.0,-0.07669903939428206,0.0,0.0,0.0,0.0,-0.3067961575771282,0.0,-0.628932123033113,0.0,0.0,0.0,0.0
1750157923.279765,0.0,0.0,0.0,0.0,0.0,0.0,0.0,0.0,0.0,0.0,0.0,0.0,0.0,0.0,0.0,0.0,0.07669903939428206,0.0,0.0,0.0,0.0,0.0,0.0,0.6749515466696822,0.0,0.0,0.0,0.0
1750157923.299759,0.0,0.0,0.0,0.0,0.0,0.0,0.0,0.0,0.0,0.0,0.0,0.0,0.0,0.0,0.0,0.0,0.0,0.0,0.0,0.0,0.0,0.0,0.0,0.0,0.0,0.0,0.0,0.0
1750157923.3197634,0.0015339807878856412,0.0,-0.0015339807878856412,0.0,0.0,0.0,0.0,0.0015339807878856412,0.0,-0.0015339807878856412,0.0,0.0,0.0,0.0,0.07669903939428206,0.0,-0.07669903939428206,0.0,0.0,0.0,0.0,0.2975922728498144,0.0,-0.628932123033113,0.0,0.0,0.0,0.0
1750157923.3397617,0.0,0.0,-0.0015339807878856412,0.0,0.0,0.0,0.0,0.0,0.0,-0.0015339807878856412,0.0,0.0,0.0,0.0,-0.07669903939428206,0.0,0.0,0.0,0.0,0.0,0.0,-0.3067961575771282,0.0,0.04601942363656923,0.0,0.0,0.0,0.0
1750157923.3597748,0.0,0.0015339807878856412,-0.0015339807878856412,0.0,0.0,0.0,0.0,0.0,0.0015339807878856412,-0.0015339807878856412,0.0,0.0,0.0,0.0,0.0,0.07669903939428206,0.0,0.0,0.0,0.0,0.0,0.0,-0.9817477042468103,0.04601942363656923,0.0,0.0,0.0,0.0
1750157923.379818,0.0,0.0015339807878856412,0.0,0.0,0.0,0.0,-0.0015339807878856412,0.0,0.0015339807878856412,0.0,0.0,0.0,0.0,-0.0015339807878856412,0.0,0.0,0.07669903939428206,0.0,0.0,0.0,-0.07669903939428206,0.0,-0.06135923151542565,0.6749515466696822,0.0,0.0,0.0,0.0
1750157923.4007351,0.0,0.0015339807878856412,0.0,0.0,0.0,0.0,-0.0015339807878856412,0.0,0.0015339807878856412,0.0,0.0,0.0,0.0,-0.0015339807878856412,0.0,0.0,0.0,0.0,0.0,0.0,0.0,0.0,-0.06135923151542565,0.0,0.0,0.0,0.0,0.0
1750157923.420894,0.0,0.0,-0.0015339807878856412,0.0,0.0,0.0,0.0,0.0,0.0,-0.0015339807878856412,0.0,0.0,0.0,0.0,0.0,-0.07669903939428206,-0.07669903939428206,0.0,0.0,0.0,0.07669903939428206,0.0,0.9203884727313848,-0.628932123033113,0.0,0.0,0.0,0.0
1750157923.4407544,0.0,0.0015339807878856412,-0.0015339807878856412,0.0,0.0,0.0,-0.0015339807878856412,0.0,0.0015339807878856412,-0.0015339807878856412,0.0,0.0,0.0,-0.0015339807878856412,0.0,0.07669903939428206,0.0,0.0,0.0,0.0,-0.07669903939428206,0.0,-0.9817477042468103,0.04601942363656923,0.0,0.0,0.0,0.0
1750157923.4607008,0.0,0.0,0.0,0.0,0.0,0.0,0.0,0.0,0.0,0.0,0.0,0.0,0.0,0.0,0.0,-0.07669903939428206,0.07669903939428206,0.0,0.0,0.0,0.07669903939428206,0.0,0.9203884727313848,0.6749515466696822,0.0,0.0,0.0,0.0
1750157923.4807396,0.0,0.0,0.0,0.0,0.0,0.0,0.0,0.0,0.0,0.0,0.0,0.0,0.0,0.0,0.0,0.0,0.0,0.0,0.0,0.0,0.0,0.0,0.0,0.0,0.0,0.0,0.0,0.0
1750157923.5007367,0.0,0.0015339807878856412,0.0,0.0,0.0,0.0,-0.0015339807878856412,0.0,0.0015339807878856412,0.0,0.0,0.0,0.0,-0.0015339807878856412,0.0,0.07669903939428206,0.0,0.0,0.0,0.0,-0.07669903939428206,0.0,-0.9817477042468103,0.0,0.0,0.0,0.0,0.0
1750157923.5208516,0.0,0.0,-0.0015339807878856412,0.0,0.0,0.0,-0.0015339807878856412,0.0,0.0,-0.0015339807878856412,0.0,0.0,0.0,-0.0015339807878856412,0.0,-0.07669903939428206,-0.07669903939428206,0.0,0.0,0.0,0.0,0.0,0.9203884727313848,-0.628932123033113,0.0,0.0,0.0,0.0
1750157923.5417364,0.0,0.0,0.0,0.0,0.0,0.0,-0.0015339807878856412,0.0,0.0,0.0,0.0,0.0,0.0,-0.0015339807878856412,0.0,0.0,0.07669903939428206,0.0,0.0,0.0,0.0,0.0,0.0,0.6749515466696822,0.0,0.0,0.0,0.0
1750157923.5617414,0.0,0.0,0.0,-0.0015339807878856412,-0.0015339807878856412,0.0,-0.0015339807878856412,0.0,0.0,0.0,-0.0015339807878856412,-0.0015339807878856412,0.0,-0.0015339807878856412,0.0,0.0,0.0,-0.07669903939428206,-0.07669903939428206,0.0,0.0,0.0,0.0,0.0,-0.21629129109187542,-0.09081166264282996,0.0,0.0
1750157923.5817778,0.0,0.0,0.0,0.0,0.0,0.0,-0.0015339807878856412,0.0,0.0,0.0,0.0,0.0,0.0,-0.0015339807878856412,0.0,0.0,0.0,0.07669903939428206,0.07669903939428206,0.0,0.0,0.0,0.0,0.0,0.23009711818284617,0.09203884727313846,0.0,0.0
1750157923.6017807,0.0,0.0,0.0,0.0,0.0,0.0,0.0,0.0,0.0,0.0,0.0,0.0,0.0,0.0,0.0,0.0,0.0,0.0,0.0,0.0,0.07669903939428206,0.0,0.0,0.0,0.0,0.0,0.0,0.0
1750157923.6217887,0.0,0.0,0.0,0.0,0.0,0.0,0.0,0.0,0.0,0.0,0.0,0.0,0.0,0.0,0.0,0.0,0.0,0.0,0.0,0.0,0.0,0.0,0.0,0.0,0.0,0.0,0.0,0.0
1750157923.6417906,0.0,0.0,0.0,0.0,0.0,0.0015339807878856412,0.0,0.0,0.0,0.0,0.0,0.0,0.0015339807878856412,0.0,0.0,0.0,0.0,0.0,0.0,0.07669903939428206,0.0,0.0,0.0,0.0,0.0,0.0,0.09081166264282996,0.0
1750157923.6626744,0.0,0.0015339807878856412,0.0,0.0,0.0,0.0,0.0,0.0,0.0015339807878856412,0.0,0.0,0.0,0.0,0.0,0.0,0.07669903939428206,0.0,0.0,0.0,-0.07669903939428206,0.0,0.0,-0.9817477042468103,0.0,0.0,0.0,-0.09203884727313846,0.0
1750157923.6827953,0.0,0.0,-0.0015339807878856412,0.0,0.0,0.0,0.0,0.0,0.0,-0.0015339807878856412,0.0,0.0,0.0,0.0,0.0,-0.07669903939428206,-0.07669903939428206,0.0,0.0,0.0,0.0,0.0,0.9203884727313848,-0.628932123033113,0.0,0.0,0.0,0.0
1750157923.702771,0.0,0.0015339807878856412,-0.0015339807878856412,0.0,0.0,0.0,0.0,0.0,0.0015339807878856412,-0.0015339807878856412,0.0,0.0,0.0,0.0,0.0,0.07669903939428206,0.0,0.0,0.0,0.0,0.0,0.0,-0.9817477042468103,0.04601942363656923,0.0,0.0,0.0,0.0
1750157923.7227623,0.0,0.0,0.0,0.0,0.0,0.0,-0.0015339807878856412,0.0,0.0,0.0,0.0,0.0,0.0,-0.0015339807878856412,0.0,-0.07669903939428206,0.07669903939428206,0.0,0.0,0.0,-0.07669903939428206,0.0,0.9203884727313848,0.6749515466696822,0.0,0.0,0.0,0.0
1750157923.7427313,0.0,0.0,0.0,0.0,0.0,0.0,0.0,0.0,0.0,0.0,0.0,0.0,0.0,0.0,0.0,0.0,0.0,0.0,0.0,0.0,0.07669903939428206,0.0,0.0,0.0,0.0,0.0,0.0,0.0
1750157923.7626903,0.0,0.0,0.0,0.0,0.0,0.0,-0.0015339807878856412,0.0,0.0,0.0,0.0,0.0,0.0,-0.0015339807878856412,0.0,0.0,0.0,0.0,0.0,0.0,-0.07669903939428206,0.0,0.0,0.0,0.0,0.0,0.0,0.0
1750157923.783765,0.0,0.0,-0.0015339807878856412,-0.0015339807878856412,0.0,0.0015339807878856412,0.0,0.0,0.0,-0.0015339807878856412,-0.0015339807878856412,0.0,0.0015339807878856412,0.0,0.0,0.0,-0.07669903939428206,-0.07669903939428206,0.0,0.07669903939428206,0.07669903939428206,0.0,0.0,-0.628932123033113,-0.21629129109187542,0.0,0.09081166264282996,0.0
1750157923.8037398,0.0,0.0,0.0,0.0,0.0,0.0,-0.0015339807878856412,0.0,0.0,0.0,0.0,0.0,0.0,-0.0015339807878856412,0.0,0.0,0.07669903939428206,0.07669903939428206,0.0,-0.07669903939428206,-0.07669903939428206,0.0,0.0,0.6749515466696822,0.23009711818284617,0.0,-0.09203884727313846,0.0
1750157923.8237586,0.0,0.0015339807878856412,0.0,0.0,0.0,0.0,0.0,0.0,0.0015339807878856412,0.0,0.0,0.0,0.0,0.0,0.0,0.07669903939428206,0.0,0.0,0.0,0.0,0.07669903939428206,0.0,-0.9817477042468103,0.0,0.0,0.0,0.0,0.0
1750157923.8437731,0.0,0.0015339807878856412,-0.0015339807878856412,0.0,-0.0015339807878856412,0.0,0.0,0.0,0.0015339807878856412,-0.0015339807878856412,0.0,-0.0015339807878856412,0.0,0.0,0.0,0.0,-0.07669903939428206,0.0,-0.07669903939428206,0.0,0.0,0.0,-0.06135923151542565,-0.628932123033113,0.0,-0.09081166264282996,0.0,0.0
1750157923.863752,0.0,0.0,0.0,0.0,0.0,0.0,0.0,0.0,0.0,0.0,0.0,0.0,0.0,0.0,0.0,-0.07669903939428206,0.07669903939428206,0.0,0.07669903939428206,0.0,0.0,0.0,0.9203884727313848,0.6749515466696822,0.0,0.09203884727313846,0.0,0.0
1750157923.8836908,0.0,0.0,-0.0015339807878856412,0.0,0.0,0.0,0.0,0.0,0.0,-0.0015339807878856412,0.0,0.0,0.0,0.0,0.0,0.0,-0.07669903939428206,0.0,0.0,0.0,0.0,0.0,0.0,-0.628932123033113,0.0,0.0,0.0,0.0
1750157923.9037335,0.0,0.0015339807878856412,0.0,0.0,0.0,0.0,0.0,0.0,0.0015339807878856412,0.0,0.0,0.0,0.0,0.0,0.0,0.07669903939428206,0.07669903939428206,0.0,0.0,0.0,0.0,0.0,-0.9817477042468103,0.6749515466696822,0.0,0.0,0.0,0.0
1750157923.924685,0.0,0.0015339807878856412,0.0,0.0,0.0,0.0,-0.0015339807878856412,0.0,0.0015339807878856412,0.0,0.0,0.0,0.0,-0.0015339807878856412,0.0,0.0,0.0,0.0,0.0,0.0,-0.07669903939428206,0.0,-0.06135923151542565,0.0,0.0,0.0,0.0,0.0
1750157923.9447181,0.0,0.0,-0.0015339807878856412,0.0,0.0,0.0,0.0,0.0,0.0,-0.0015339807878856412,0.0,0.0,0.0,0.0,0.0,-0.07669903939428206,-0.07669903939428206,0.0,0.0,0.0,0.07669903939428206,0.0,0.9203884727313848,-0.628932123033113,0.0,0.0,0.0,0.0
1750157923.9646885,0.0,0.0015339807878856412,0.0,0.0,0.0,0.0,0.0,0.0,0.0015339807878856412,0.0,0.0,0.0,0.0,0.0,0.0,0.07669903939428206,0.07669903939428206,0.0,0.0,0.0,0.0,0.0,-0.9817477042468103,0.6749515466696822,0.0,0.0,0.0,0.0
1750157923.9846826,0.0,0.0,-0.0015339807878856412,0.0,0.0,0.0,0.0,0.0,0.0,-0.0015339807878856412,0.0,0.0,0.0,0.0,0.0,-0.07669903939428206,-0.07669903939428206,0.0,0.0,0.0,0.0,0.0,0.9203884727313848,-0.628932123033113,0.0,0.0,0.0,0.0
1750157924.0046937,0.0,0.0,-0.0015339807878856412,0.0,0.0,0.0,-0.0015339807878856412,0.0,0.0,-0.0015339807878856412,0.0,0.0,0.0,-0.0015339807878856412,0.0,0.0,0.0,0.0,0.0,0.0,-0.07669903939428206,0.0,0.0,0.04601942363656923,0.0,0.0,0.0,0.0
1750157924.0246904,0.0015339807878856412,0.0,0.0,0.0,0.0,0.0015339807878856412,0.0,0.0015339807878856412,0.0,0.0,0.0,0.0,0.0015339807878856412,0.0,0.07669903939428206,0.0,0.07669903939428206,0.0,0.0,0.07669903939428206,0.07669903939428206,0.2975922728498144,0.0,0.6749515466696822,0.0,0.0,0.09081166264282996,0.0
1750157924.044661,0.0,0.0,-0.0015339807878856412,0.0,0.0,0.0,0.0,0.0,0.0,-0.0015339807878856412,0.0,0.0,0.0,0.0,-0.07669903939428206,0.0,-0.07669903939428206,0.0,0.0,-0.07669903939428206,0.0,-0.3067961575771282,0.0,-0.628932123033113,0.0,0.0,-0.09203884727313846,0.0
1750157924.0657237,0.0,0.0,-0.0015339807878856412,0.0,0.0,0.0,0.0,0.0,0.0,-0.0015339807878856412,0.0,0.0,0.0,0.0,0.0,0.0,0.0,0.0,0.0,0.0,0.0,0.0,0.0,0.04601942363656923,0.0,0.0,0.0,0.0
1750157924.0857277,0.0,0.0,0.0,0.0,0.0,0.0,0.0,0.0,0.0,0.0,0.0,0.0,0.0,0.0,0.0,0.0,0.07669903939428206,0.0,0.0,0.0,0.0,0.0,0.0,0.6749515466696822,0.0,0.0,0.0,0.0
1750157924.1057174,0.0,0.0,-0.0015339807878856412,0.0,0.0,0.0,0.0,0.0,0.0,-0.0015339807878856412,0.0,0.0,0.0,0.0,0.0,0.0,-0.07669903939428206,0.0,0.0,0.0,0.0,0.0,0.0,-0.628932123033113,0.0,0.0,0.0,0.0
1750157924.1257396,0.0,0.0,-0.0015339807878856412,0.0,0.0,0.0,-0.0015339807878856412,0.0,0.0,-0.0015339807878856412,0.0,0.0,0.0,-0.0015339807878856412,0.0,0.0,0.0,0.0,0.0,0.0,-0.07669903939428206,0.0,0.0,0.04601942363656923,0.0,0.0,0.0,0.0
1750157924.145732,0.0,0.0,0.0,0.0,0.0,0.0,-0.0015339807878856412,0.0,0.0,0.0,0.0,0.0,0.0,-0.0015339807878856412,0.0,0.0,0.07669903939428206,0.0,0.0,0.0,0.0,0.0,0.0,0.6749515466696822,0.0,0.0,0.0,0.0
1750157924.1657555,0.0,0.0,-0.0015339807878856412,0.0,0.0,0.0,-0.0015339807878856412,0.0,0.0,-0.0015339807878856412,0.0,0.0,0.0,-0.0015339807878856412,0.0,0.0,-0.07669903939428206,0.0,0.0,0.0,0.0,0.0,0.0,-0.628932123033113,0.0,0.0,0.0,0.0
1750157924.1867006,0.0,0.0,0.0,0.0,0.0,0.0,0.0,0.0,0.0,0.0,0.0,0.0,0.0,0.0,0.0,0.0,0.07669903939428206,0.0,0.0,0.0,0.07669903939428206,0.0,0.0,0.6749515466696822,0.0,0.0,0.0,0.0
1750157924.206738,0.0,0.0,-0.0015339807878856412,0.0,-0.0015339807878856412,0.0,0.0,0.0,0.0,-0.0015339807878856412,0.0,-0.0015339807878856412,0.0,0.0,0.0,0.0,-0.07669903939428206,0.0,-0.07669903939428206,0.0,0.0,0.0,0.0,-0.628932123033113,0.0,-0.09081166264282996,0.0,0.0
1750157924.2267442,0.0,0.0,-0.0015339807878856412,0.0,0.0,0.0,0.0,0.0,0.0,-0.0015339807878856412,0.0,0.0,0.0,0.0,0.0,0.0,0.0,0.0,0.07669903939428206,0.0,0.0,0.0,0.0,0.04601942363656923,0.0,0.09203884727313846,0.0,0.0
1750157924.246747,0.0,0.0,0.0,0.0,0.0,0.0,-0.0015339807878856412,0.0,0.0,0.0,0.0,0.0,0.0,-0.0015339807878856412,0.0,0.0,0.07669903939428206,0.0,0.0,0.0,-0.07669903939428206,0.0,0.0,0.6749515466696822,0.0,0.0,0.0,0.0
1750157924.2666712,0.0,0.0,0.0,0.0,0.0,0.0,-0.0015339807878856412,0.0,0.0,0.0,0.0,0.0,0.0,-0.0015339807878856412,0.0,0.0,0.0,0.0,0.0,0.0,0.0,0.0,0.0,0.0,0.0,0.0,0.0,0.0
1750157924.2866964,0.0,0.0,0.0,0.0,0.0,0.0,-0.0015339807878856412,0.0,0.0,0.0,0.0,0.0,0.0,-0.0015339807878856412,0.0,0.0,0.0,0.0,0.0,0.0,0.0,0.0,0.0,0.0,0.0,0.0,0.0,0.0
1750157924.3067408,0.0,0.0,-0.0015339807878856412,0.0,0.0,0.0,0.0,0.0,0.0,-0.0015339807878856412,0.0,0.0,0.0,0.0,0.0,0.0,-0.07669903939428206,0.0,0.0,0.0,0.07669903939428206,0.0,0.0,-0.628932123033113,0.0,0.0,0.0,0.0
1750157924.3277447,0.0,-0.0015339807878856412,-0.0015339807878856412,0.0,0.0,0.0,0.0,0.0,-0.0015339807878856412,-0.0015339807878856412,0.0,0.0,0.0,0.0,0.0,-0.07669903939428206,0.0,0.0,0.0,0.0,0.0,0.0,0.9817477042468103,0.04601942363656923,0.0,0.0,0.0,0.0
1750157924.3477201,0.0,-0.0030679615757712823,-0.0015339807878856412,0.0,0.0,0.0,0.0,0.0,-0.0030679615757712823,-0.0015339807878856412,0.0,0.0,0.0,0.0,0.0,-0.07669903939428206,0.0,0.0,0.0,0.0,0.0,0.0,1.043106935762236,0.04601942363656923,0.0,0.0,0.0,0.0
1750157924.367713,0.0,-0.0030679615757712823,0.0,0.0,0.0,0.0,-0.0015339807878856412,0.0,-0.0030679615757712823,0.0,0.0,0.0,0.0,-0.0015339807878856412,0.0,0.0,0.07669903939428206,0.0,0.0,0.0,-0.07669903939428206,0.0,0.1227184630308513,0.6749515466696822,0.0,0.0,0.0,0.0
1750157924.38766,-0.0015339807878856412,-0.0030679615757712823,0.0,0.0,0.0030679615757712823,0.0,0.0,-0.0015339807878856412,-0.0030679615757712823,0.0,0.0,0.0030679615757712823,0.0,0.0,-0.07669903939428206,0.0,0.0,0.0,0.15339807878856412,0.0,0.07669903939428206,-0.2975922728498144,0.1227184630308513,0.0,0.0,0.18162332528565991,0.0,0.0
1750157924.4076715,-0.0030679615757712823,-0.0030679615757712823,-0.0015339807878856412,0.0,0.0030679615757712823,0.0,-0.0015339807878856412,-0.0030679615757712823,-0.0030679615757712823,-0.0015339807878856412,0.0,0.0030679615757712823,0.0,-0.0015339807878856412,-0.07669903939428206,0.0,-0.07669903939428206,0.0,0.0,0.0,-0.07669903939428206,-0.28838838812250056,0.1227184630308513,-0.628932123033113,0.0,-0.002454369260617026,0.0,0.0
1750157924.4276748,-0.0030679615757712823,-0.0046019423636569235,-0.0015339807878856412,0.0,0.0030679615757712823,0.0,-0.0015339807878856412,-0.0030679615757712823,-0.0046019423636569235,-0.0015339807878856412,0.0,0.0030679615757712823,0.0,-0.0015339807878856412,0.0,-0.07669903939428206,0.0,0.0,0.0,0.0,0.0,0.018407769454627694,1.1044661672776617,0.04601942363656923,0.0,-0.002454369260617026,0.0,0.0
1750157924.4487274,-0.0046019423636569235,-0.0046019423636569235,0.0,0.0,0.0046019423636569235,0.0,-0.0015339807878856412,-0.0046019423636569235,-0.0046019423636569235,0.0,0.0,0.0046019423636569235,0.0,-0.0015339807878856412,-0.07669903939428206,0.0,0.07669903939428206,0.0,0.07669903939428206,0.0,0.0,-0.2791845033951867,0.18407769454627693,0.6749515466696822,0.0,0.08835729338221293,0.0,0.0
1750157924.4686375,-0.0046019423636569235,-0.0046019423636569235,-0.0015339807878856412,0.0015339807878856412,0.007669903939428206,0.0,0.0,-0.0046019423636569235,-0.0046019423636569235,-0.0015339807878856412,0.0015339807878856412,0.007669903939428206,0.0,0.0,0.0,0.0,-0.07669903939428206,0.07669903939428206,0.15339807878856412,0.0,0.07669903939428206,0.02761165418194154,0.18407769454627693,-0.628932123033113,0.21629129109187542,0.17794177139473438,0.0,0.0
1750157924.488719,-0.0046019423636569235,-0.0046019423636569235,-0.0015339807878856412,0.0015339807878856412,0.007669903939428206,0.0,0.0,-0.0046019423636569235,-0.0046019423636569235,-0.0015339807878856412,0.0015339807878856412,0.007669903939428206,0.0,0.0,0.0,0.0,0.0,0.0,0.0,0.0,0.0,0.02761165418194154,0.18407769454627693,0.04601942363656923,-0.01380582709097077,-0.006135923151542565,0.0,0.0
1750157924.5087204,-0.0046019423636569235,-0.0046019423636569235,0.0,0.0015339807878856412,0.007669903939428206,0.0015339807878856412,-0.0015339807878856412,-0.0046019423636569235,-0.0046019423636569235,0.0,0.0015339807878856412,0.007669903939428206,0.0015339807878856412,-0.0015339807878856412,0.0,0.0,0.07669903939428206,0.0,0.0,0.07669903939428206,-0.07669903939428206,0.02761165418194154,0.18407769454627693,0.6749515466696822,-0.01380582709097077,-0.006135923151542565,0.09081166264282996,0.0
1750157924.5287266,-0.0030679615757712823,-0.006135923151542565,0.0,0.0030679615757712823,0.009203884727313847,0.0015339807878856412,-0.0015339807878856412,-0.0030679615757712823,-0.006135923151542565,0.0,0.0030679615757712823,0.009203884727313847,0.0015339807878856412,-0.0015339807878856412,0.07669903939428206,-0.07669903939428206,0.0,0.07669903939428206,0.07669903939428206,0.0,0.0,0.32520392703175593,1.1658253987930873,0.0,0.20248546400090464,0.0846757394912874,-0.001227184630308513,0.0
1750157924.5487292,-0.0015339807878856412,-0.0046019423636569235,0.0,0.0046019423636569235,0.009203884727313847,0.0030679615757712823,0.0,-0.0015339807878856412,-0.0046019423636569235,0.0,0.0046019423636569235,0.009203884727313847,0.0030679615757712823,0.0,0.07669903939428206,0.07669903939428206,0.0,0.07669903939428206,0.0,0.07669903939428206,0.07669903939428206,0.31600004230444206,-0.7363107781851078,0.0,0.1886796369099339,-0.007363107781851078,0.08958447801252145,0.0
1750157924.5686479,-0.0015339807878856412,-0.0046019423636569235,0.0,0.006135923151542565,0.009203884727313847,0.0030679615757712823,-0.0015339807878856412,-0.0015339807878856412,-0.0046019423636569235,0.0,0.006135923151542565,0.009203884727313847,0.0030679615757712823,-0.0015339807878856412,0.0,0.0,0.0,0.07669903939428206,0.0,0.0,-0.07669903939428206,0.009203884727313847,0.18407769454627693,0.0,0.1748738098189631,-0.007363107781851078,-0.002454369260617026,0.0
1750157924.5897264,0.0,-0.0015339807878856412,-0.0015339807878856412,0.006135923151542565,0.009203884727313847,0.0030679615757712823,-0.0015339807878856412,0.0,-0.0015339807878856412,-0.0015339807878856412,0.006135923151542565,0.009203884727313847,0.0030679615757712823,-0.0015339807878856412,0.07669903939428206,0.15339807878856412,-0.07669903939428206,0.0,0.0,0.0,0.0,0.3067961575771282,-1.779417713947344,-0.628932123033113,-0.05522330836388308,-0.007363107781851078,-0.002454369260617026,0.0
1750157924.6097279,0.0,0.0,-0.0030679615757712823,0.007669903939428206,0.01227184630308513,0.0030679615757712823,-0.0015339807878856412,0.0,0.0,-0.0030679615757712823,0.007669903939428206,0.01227184630308513,0.0030679615757712823,-0.0015339807878856412,0.0,0.07669903939428206,-0.07669903939428206,0.07669903939428206,0.15339807878856412,0.0,0.0,0.0,-0.9203884727313848,-0.5829126993965437,0.16106798272799233,0.17426021750380882,-0.002454369260617026,0.0
1750157924.6297271,-0.0015339807878856412,-0.0030679615757712823,-0.0030679615757712823,0.007669903939428206,0.01380582709097077,0.0046019423636569235,0.0,-0.0015339807878856412,-0.0030679615757712823,-0.0030679615757712823,0.007669903939428206,0.01380582709097077,0.0046019423636569235,0.0,-0.07669903939428206,-0.15339807878856412,0.0,0.0,0.07669903939428206,0.07669903939428206,0.07669903939428206,-0.2975922728498144,1.9634954084936207,0.09203884727313846,-0.06902913545485385,0.08099418560036185,0.08835729338221293,0.0
1750157924.6497107,-0.0015339807878856412,-0.0046019423636569235,-0.0030679615757712823,0.009203884727313847,0.015339807878856412,0.0046019423636569235,0.0,-0.0015339807878856412,-0.0046019423636569235,-0.0030679615757712823,0.009203884727313847,0.015339807878856412,0.0046019423636569235,0.0,0.0,-0.07669903939428206,0.0,0.07669903939428206,0.07669903939428206,0.0,0.0,0.009203884727313847,1.1044661672776617,0.09203884727313846,0.14726215563702155,0.07976700097005335,-0.003681553890925539,0.0
1750157924.669585,-0.0015339807878856412,-0.0046019423636569235,-0.0030679615757712823,0.010737865515199488,0.018407769454627694,0.006135923151542565,0.0,-0.0015339807878856412,-0.0046019423636569235,-0.0030679615757712823,0.010737865515199488,0.018407769454627694,0.006135923151542565,0.0,0.0,0.0,0.0,0.07669903939428206,0.15339807878856412,0.07669903939428206,0.0,0.009203884727313847,0.18407769454627693,0.09203884727313846,0.13345632854605077,0.1693514789825748,0.08713010875190441,0.0
1750157924.689691,-0.0030679615757712823,-0.0046019423636569235,-0.0030679615757712823,0.010737865515199488,0.018407769454627694,0.006135923151542565,-0.0015339807878856412,-0.0030679615757712823,-0.0046019423636569235,-0.0030679615757712823,0.010737865515199488,0.018407769454627694,0.006135923151542565,-0.0015339807878856412,-0.07669903939428206,0.0,0.0,0.0,0.0,0.0,-0.07669903939428206,-0.28838838812250056,0.18407769454627693,0.09203884727313846,-0.0966407896367954,-0.014726215563702155,-0.004908738521234052,0.0
1750157924.7106848,-0.0046019423636569235,-0.0046019423636569235,-0.0015339807878856412,0.010737865515199488,0.019941750242513337,0.007669903939428206,0.0,-0.0046019423636569235,-0.0046019423636569235,-0.0015339807878856412,0.010737865515199488,0.019941750242513337,0.007669903939428206,0.0,-0.07669903939428206,0.0,0.07669903939428206,0.0,0.07669903939428215,0.07669903939428206,0.07669903939428206,-0.2791845033951867,0.18407769454627693,0.7209709703062515,-0.0966407896367954,0.0760854470791279,0.0859029241215959,0.0
1750157924.7307005,-0.0046019423636569235,-0.0046019423636569235,0.0,0.010737865515199488,0.021475731030398976,0.007669903939428206,-0.0015339807878856412,-0.0046019423636569235,-0.0046019423636569235,0.0,0.010737865515199488,0.021475731030398976,0.007669903939428206,-0.0015339807878856412,0.0,0.0,0.07669903939428206,0.0,0.07669903939428196,0.0,-0.07669903939428206,0.02761165418194154,0.18407769454627693,0.6749515466696822,-0.0966407896367954,0.07485826244881917,-0.006135923151542565,0.0
1750157924.7506886,-0.0046019423636569235,-0.0046019423636569235,0.0,0.01380582709097077,0.023009711818284616,0.009203884727313847,0.0,-0.0046019423636569235,-0.0046019423636569235,0.0,0.01380582709097077,0.023009711818284616,0.009203884727313847,0.0,0.0,0.0,0.0,0.15339807878856412,0.07669903939428196,0.07669903939428206,0.07669903939428206,0.02761165418194154,0.18407769454627693,0.0,0.33594179254695544,0.07363107781851067,0.0846757394912874,0.0
1750157924.7705874,-0.0030679615757712823,-0.0046019423636569235,0.0015339807878856412,0.015339807878856412,0.023009711818284616,0.01227184630308513,0.0,-0.0030679615757712823,-0.0046019423636569235,0.0015339807878856412,0.015339807878856412,0.023009711818284616,0.01227184630308513,0.0,0.07669903939428206,0.0,0.07669903939428206,0.07669903939428206,0.0,0.15339807878856412,0.0,0.32520392703175593,0.18407769454627693,0.628932123033113,0.09203884727313849,-0.018407769454627694,0.17426021750380882,0.0
1750157924.7907152,-0.0015339807878856412,-0.0046019423636569235,0.0030679615757712823,0.015339807878856412,0.023009711818284616,0.01380582709097077,-0.0015339807878856412,-0.0015339807878856412,-0.0046019423636569235,0.0030679615757712823,0.015339807878856412,0.023009711818284616,0.01380582709097077,-0.0015339807878856412,0.07669903939428206,0.0,0.07669903939428206,0.0,0.0,0.07669903939428206,-0.07669903939428206,0.31600004230444206,0.18407769454627693,0.5829126993965437,-0.1380582709097077,-0.018407769454627694,0.08099418560036185,0.0
1750157924.8106992,-0.0015339807878856412,-0.006135923151542565,0.007669903939428206,0.01687378866674205,0.02454369260617026,0.015339807878856412,0.0,-0.0015339807878856412,-0.006135923151542565,0.007669903939428206,0.01687378866674205,0.02454369260617026,0.015339807878856412,0.0,0.0,-0.07669903939428206,0.23009711818284617,0.07669903939428196,0.07669903939428215,0.07669903939428206,0.07669903939428206,0.009203884727313847,1.1658253987930873,1.7947575218262002,0.07823302018216743,0.07240389318820237,0.07976700097005335,0.0
1750157924.8317058,-0.0015339807878856412,-0.006135923151542565,0.015339807878856412,0.018407769454627694,0.023009711818284616,0.02454369260617026,0.0,-0.0015339807878856412,-0.006135923151542565,0.015339807878856412,0.018407769454627694,0.023009711818284616,0.02454369260617026,0.0,0.0,0.0,0.38349519697141027,0.07669903939428215,-0.07669903939428215,0.46019423636569234,0.0,0.009203884727313847,0.2454369260617026,2.914563496982718,0.06442719309119721,-0.11044661672776626,0.5325981295538946,0.0
1750157924.8516989,-0.0015339807878856412,-0.006135923151542565,0.02454369260617026,0.018407769454627694,0.02454369260617026,0.0337475773334841,0.0,-0.0015339807878856412,-0.006135923151542565,0.02454369260617026,0.018407769454627694,0.02454369260617026,0.0337475773334841,0.0,0.0,0.0,0.46019423636569234,0.0,0.07669903939428215,0.4601942363656922,0.0,0.009203884727313847,0.2454369260617026,3.313398501832985,-0.16566992509164924,0.07240389318820237,0.5252350217720434,0.0
1750157924.871661,0.0,-0.006135923151542565,0.030679615757712823,0.019941750242513337,0.02454369260617026,0.04601942363656923,-0.0015339807878856412,0.0,-0.006135923151542565,0.030679615757712823,0.019941750242513337,0.02454369260617026,0.04601942363656923,-0.0015339807878856412,0.07669903939428206,0.0,0.30679615757712825,0.07669903939428215,0.0,0.6135923151542565,-0.07669903939428206,0.3067961575771282,0.2454369260617026,1.779417713947344,0.05062136600022643,-0.019634954084936207,0.6994952392758523,0.0
1750157924.891777,-0.0015339807878856412,-0.007669903939428206,0.03834951969714103,0.021475731030398976,0.02454369260617026,0.056757289151768725,0.0,-0.0015339807878856412,-0.007669903939428206,0.03834951969714103,0.021475731030398976,0.02454369260617026,0.056757289151768725,0.0,-0.07669903939428206,-0.07669903939428206,0.3834951969714104,0.07669903939428196,0.0,0.5368932757599747,0.07669903939428206,-0.2975922728498144,1.227184630308513,2.2242721424341805,0.0368155389092551,-0.019634954084936207,0.5988660995905546,0.0
1750157924.9116592,-0.0015339807878856412,-0.007669903939428206,0.047553404424454875,0.021475731030398976,0.02454369260617026,0.06902913545485385,-0.0015339807878856412,-0.0015339807878856412,-0.007669903939428206,0.047553404424454875,0.021475731030398976,0.02454369260617026,0.06902913545485385,-0.0015339807878856412,0.0,0.0,0.4601942363656922,0.0,0.0,0.6135923151542565,-0.07669903939428206,0.009203884727313847,0.30679615757712825,2.6231071472844447,-0.1932815792735908,-0.019634954084936207,0.6810874698212247,0.0
1750157924.9316661,-0.0015339807878856412,-0.007669903939428206,0.05522330836388308,0.023009711818284616,0.023009711818284616,0.0782330201821677,-0.0015339807878856412,-0.0015339807878856412,-0.007669903939428206,0.05522330836388308,0.023009711818284616,0.023009711818284616,0.0782330201821677,-0.0015339807878856412,0.0,0.0,0.3834951969714104,0.07669903939428196,-0.07669903939428215,0.4601942363656922,0.0,0.009203884727313847,0.30679615757712825,1.718058482431919,0.023009711818284373,-0.11044661672776626,0.48964666749309643,0.0
1750157924.95167,0.0,-0.007669903939428206,0.06596117387908257,0.023009711818284616,0.023009711818284616,0.0859029241215959,0.0,0.0,-0.007669903939428206,0.06596117387908257,0.023009711818284616,0.023009711818284616,0.0859029241215959,0.0,0.07669903939428206,0.0,0.5368932757599744,0.0,0.0,0.3834951969714104,0.07669903939428206,0.3067961575771282,0.30679615757712825,2.745825610315298,-0.20708740636456155,-0.018407769454627694,0.39147189706841573,0.0
1750157924.9727247,0.0,-0.007669903939428206,0.07669903939428206,0.023009711818284616,0.023009711818284616,0.09203884727313846,0.0,0.0,-0.007669903939428206,0.07669903939428206,0.023009711818284616,0.023009711818284616,0.09203884727313846,0.0,0.0,0.0,0.5368932757599747,0.0,0.0,0.30679615757712786,0.0,0.0,0.30679615757712825,2.423689644859316,-0.20708740636456155,-0.018407769454627694,0.29452431127404266,0.0
1750157924.9926867,0.0,-0.009203884727313847,0.08897088569736719,0.02454369260617026,0.021475731030398976,0.0966407896367954,0.0,0.0,-0.009203884727313847,0.08897088569736719,0.02454369260617026,0.021475731030398976,0.0966407896367954,0.0,0.0,-0.07669903939428206,0.6135923151542565,0.07669903939428215,-0.07669903939428196,0.23009711818284678,0.0,0.0,1.2885438618239387,2.7304858024364416,0.009203884727314093,-0.10921943209745753,0.19880391010997983,0.0
1750157925.0126288,0.0,-0.009203884727313847,0.09970875121256667,0.02454369260617026,0.019941750242513337,0.10124273200045232,0.0,0.0,-0.009203884727313847,0.09970875121256667,0.02454369260617026,0.019941750242513337,0.10124273200045232,0.0,0.0,0.0,0.5368932757599739,0.0,-0.07669903939428196,0.2300971181828461,0.0,0.0,0.36815538909255385,1.7333982903107708,-0.22089323345553233,-0.10799224746714903,0.19512235621905344,0.0
1750157925.032629,0.0,-0.010737865515199488,0.1119805975156518,0.02454369260617026,0.019941750242513337,0.1043106935762236,0.0,0.0,-0.010737865515199488,0.1119805975156518,0.02454369260617026,0.019941750242513337,0.1043106935762236,0.0,0.0,-0.07669903939428206,0.6135923151542565,0.0,0.0,0.1533980787885643,0.0,0.0,1.3499030933393643,2.0401944478879033,-0.22089323345553233,-0.01595340019401067,0.10062913968529824,0.0
1750157925.0526304,0.0,-0.010737865515199488,0.12578642460662257,0.0260776733940559,0.018407769454627694,0.10584467436410924,-0.0015339807878856412,0.0,-0.010737865515199488,0.12578642460662257,0.0260776733940559,0.018407769454627694,0.10584467436410924,-0.0015339807878856412,0.0,0.0,0.6902913545485383,0.07669903939428215,-0.07669903939428215,0.0766990393942818,-0.07669903939428206,0.0,0.4295146206079795,2.3009711818284595,-0.004601942363656686,-0.10676506283684073,0.007363107781850758,0.0
1750157925.0726311,0.0,-0.010737865515199488,0.13959225169759334,0.0260776733940559,0.018407769454627694,0.10584467436410924,0.0,0.0,-0.010737865515199488,0.13959225169759334,0.0260776733940559,0.018407769454627694,0.10584467436410924,0.0,0.0,0.0,0.690291354548539,0.0,0.0,0.0,0.07669903939428206,0.0,0.4295146206079795,1.8867963690993435,-0.2346990605465031,-0.014726215563702155,-0.0846757394912874,0.0
1750157925.0937014,0.0,-0.010737865515199488,0.1518640980006785,0.0260776733940559,0.018407769454627694,0.10584467436410924,0.0,0.0,-0.010737865515199488,0.1518640980006785,0.0260776733940559,0.018407769454627694,0.10584467436410924,0.0,0.0,0.0,0.6135923151542572,0.0,0.0,0.0,0.0,0.0,0.4295146206079795,0.8436894333371079,-0.2346990605465031,-0.014726215563702155,-0.0846757394912874,0.0
1750157925.113625,0.0,-0.01227184630308513,0.16720390587953488,0.02761165418194154,0.01687378866674205,0.10584467436410924,0.0,0.0,-0.01227184630308513,0.16720390587953488,0.02761165418194154,0.01687378866674205,0.10584467436410924,0.0,0.0,-0.07669903939428206,0.7669903939428193,0.07669903939428196,-0.07669903939428215,0.0,0.0,0.0,1.41126232485479,1.733398290310764,-0.018407769454627965,-0.10553787820653221,-0.0846757394912874,0.0
1750157925.1336234,0.0,-0.010737865515199488,0.17947575218262002,0.02761165418194154,0.01687378866674205,0.10584467436410924,0.0,0.0,-0.010737865515199488,0.17947575218262002,0.02761165418194154,0.01687378866674205,0.10584467436410924,0.0,0.0,0.07669903939428206,0.6135923151542572,0.0,0.0,0.0,0.0,0.0,-0.4908738521234053,0.015339807878862466,-0.24850488763747386,-0.013499030933393642,-0.0846757394912874,0.0
1750157925.1536424,0.0,-0.006135923151542565,0.1902136176978195,0.02761165418194154,0.01687378866674205,0.10584467436410924,0.0,0.0,-0.006135923151542565,0.1902136176978195,0.02761165418194154,0.01687378866674205,0.10584467436410924,0.0,0.0,0.23009711818284617,0.5368932757599739,0.0,0.0,0.0,0.0,0.0,-2.5157284921324514,-0.9817477042468141,-0.24850488763747386,-0.013499030933393642,-0.0846757394912874,0.0
1750157925.1736424,0.0,-0.0046019423636569235,0.200951483213019,0.02761165418194154,0.01687378866674205,0.10584467436410924,-0.0015339807878856412,0.0,-0.0046019423636569235,0.200951483213019,0.02761165418194154,0.01687378866674205,0.10584467436410924,-0.0015339807878856412,0.0,0.07669903939428206,0.5368932757599754,0.0,0.0,0.0,-0.07669903939428206,0.0,-0.7363107781851078,-1.3038836697027874,-0.24850488763747386,-0.013499030933393642,-0.0846757394912874,0.0
1750157925.1936307,0.0015339807878856412,-0.0046019423636569235,0.21475731030398976,0.02914563496982718,0.018407769454627694,0.10584467436410924,0.0,0.0015339807878856412,-0.0046019423636569235,0.21475731030398976,0.02914563496982718,0.018407769454627694,0.10584467436410924,0.0,0.07669903939428206,0.0,0.6902913545485375,0.07669903939428196,0.07669903939428215,0.0,0.07669903939428206,0.2975922728498144,0.18407769454627693,-0.3681553890925633,-0.032213596545598744,0.07731263170943642,-0.0846757394912874,0.0
1750157925.2147233,0.0,-0.0046019423636569235,0.23009711818284617,0.02914563496982718,0.018407769454627694,0.10584467436410924,-0.0015339807878856412,0.0,-0.0046019423636569235,0.23009711818284617,0.02914563496982718,0.018407769454627694,0.10584467436410924,-0.0015339807878856412,-0.07669903939428206,0.0,0.7669903939428208,0.0,0.0,0.0,-0.07669903939428206,-0.3067961575771282,0.18407769454627693,-0.1533980787885616,-0.26231071472844464,-0.014726215563702155,-0.0846757394912874,0.0
1750157925.2346833,0.0,-0.0046019423636569235,0.24390294527381695,0.02914563496982718,0.018407769454627694,0.10584467436410924,-0.0015339807878856412,0.0,-0.0046019423636569235,0.24390294527381695,0.02914563496982718,0.018407769454627694,0.10584467436410924,-0.0015339807878856412,0.0,0.0,0.690291354548539,0.0,0.0,0.0,0.0,0.0,0.18407769454627693,-1.242524438187365,-0.26231071472844464,-0.014726215563702155,-0.0846757394912874,0.0
1750157925.2546573,0.0,-0.0046019423636569235,0.2561747915769021,0.02914563496982718,0.018407769454627694,0.10584467436410924,-0.0015339807878856412,0.0,-0.0046019423636569235,0.2561747915769021,0.02914563496982718,0.018407769454627694,0.10584467436410924,-0.0015339807878856412,0.0,0.0,0.6135923151542572,0.0,0.0,0.0,0.0,0.0,0.18407769454627693,-2.2856313739495997,-0.26231071472844464,-0.014726215563702155,-0.0846757394912874,0.0
1750157925.2746823,0.0,-0.0015339807878856412,0.2684466378799872,0.02914563496982718,0.018407769454627694,0.1043106935762236,0.0,0.0,-0.0015339807878856412,0.2684466378799872,0.02914563496982718,0.018407769454627694,0.1043106935762236,0.0,0.0,0.15339807878856412,0.6135923151542544,0.0,0.0,-0.0766990393942818,0.07669903939428206,0.0,-1.779417713947344,-2.653786763042177,-0.26231071472844464,-0.014726215563702155,-0.17548740213411707,0.0
1750157925.2946768,0.0,0.0015339807878856412,0.2807184841830723,0.02914563496982718,0.018407769454627694,0.10584467436410924,0.0,0.0,0.0015339807878856412,0.2807184841830723,0.02914563496982718,0.018407769454627694,0.10584467436410924,0.0,0.0,0.15339807878856412,0.6135923151542572,0.0,0.0,0.0766990393942818,0.0,0.0,-1.9021361769781953,-3.0219421521347067,-0.26231071472844464,-0.014726215563702155,0.007363107781850758,0.0
1750157925.3146853,0.0015339807878856412,0.0046019423636569235,0.29299033048615747,0.030679615757712823,0.019941750242513337,0.1043106935762236,0.0,0.0015339807878856412,0.0046019423636569235,0.29299033048615747,0.030679615757712823,0.019941750242513337,0.1043106935762236,0.0,0.07669903939428206,0.15339807878856412,0.6135923151542572,0.07669903939428215,0.07669903939428215,-0.0766990393942818,0.0,0.2975922728498144,-2.0248546400090466,-3.390097541227262,-0.04601942363656897,0.0760854470791279,-0.17548740213411707,0.0
1750157925.3346593,0.0015339807878856412,0.01227184630308513,0.3021942152134713,0.030679615757712823,0.021475731030398976,0.10584467436410924,0.0,0.0015339807878856412,0.01227184630308513,0.3021942152134713,0.030679615757712823,0.021475731030398976,0.10584467436410924,0.0,0.0,0.38349519697141027,0.4601942363656908,0.0,0.07669903939428196,0.0766990393942818,0.0,-0.009203884727313847,-5.092816215780328,-5.016117176386059,-0.2761165418194154,0.07485826244881917,0.007363107781850758,0.0
1750157925.3556645,0.0015339807878856412,0.023009711818284616,0.31139809994078516,0.02914563496982718,0.021475731030398976,0.1043106935762236,0.0,0.0015339807878856412,0.023009711818284616,0.31139809994078516,0.02914563496982718,0.021475731030398976,0.1043106935762236,0.0,0.0,0.5368932757599744,0.46019423636569357,-0.07669903939428215,0.0,-0.0766990393942818,0.0,-0.009203884727313847,-7.3631077818510775,-5.292233718205451,-0.4924078329112911,-0.01718058482431918,-0.17548740213411707,0.0
1750157925.3756623,0.0,0.0337475773334841,0.32213596545598466,0.02914563496982718,0.023009711818284616,0.10584467436410924,-0.0015339807878856412,0.0,0.0337475773334841,0.32213596545598466,0.02914563496982718,0.023009711818284616,0.10584467436410924,-0.0015339807878856412,-0.07669903939428206,0.5368932757599744,0.5368932757599754,0.0,0.07669903939428196,0.0766990393942818,-0.07669903939428206,-0.3067961575771282,-7.792622402459057,-4.939418136991756,-0.26231071472844464,0.07363107781851067,0.007363107781850758,0.0
1750157925.3956795,0.0,0.04141748127291231,0.3328738309711841,0.02761165418194154,0.021475731030398976,0.10584467436410924,0.0,0.0,0.04141748127291231,0.3328738309711841,0.02761165418194154,0.021475731030398976,0.10584467436410924,0.0,0.0,0.3834951969714104,0.5368932757599726,-0.07669903939428196,-0.07669903939428196,0.0,0.07669903939428206,0.0,-6.258641614573417,-5.261554102447764,-0.47860200582031975,-0.10921943209745753,-0.0846757394912874,0.0
1750157925.4156797,0.0,0.04908738521234052,0.342077715698498,0.0260776733940559,0.023009711818284616,0.10584467436410924,-0.0015339807878856412,0.0,0.04908738521234052,0.342077715698498,0.0260776733940559,0.023009711818284616,0.10584467436410924,-0.0015339807878856412,0.0,0.3834951969714104,0.46019423636569357,-0.07669903939428196,0.07669903939428196,0.0,-0.07669903939428206,0.0,-6.5654377721505455,-6.212622190936837,-0.464796178729349,0.07363107781851067,-0.0846757394912874,0.0
1750157925.4356563,0.0,0.059825250727540004,0.3528155812136975,0.0260776733940559,0.021475731030398976,0.10584467436410924,-0.0015339807878856412,0.0,0.059825250727540004,0.3528155812136975,0.0260776733940559,0.021475731030398976,0.10584467436410924,-0.0015339807878856412,0.0,0.5368932757599744,0.5368932757599754,0.0,-0.07669903939428196,0.0,0.0,0.0,-8.835729338221292,-5.859806609723141,-0.2346990605465031,-0.10921943209745753,-0.0846757394912874,0.0
1750157925.4556644,0.0,0.07209709703062514,0.3620194659410113,0.02454369260617026,0.023009711818284616,0.10584467436410924,-0.0015339807878856412,0.0,0.07209709703062514,0.3620194659410113,0.02454369260617026,0.023009711818284616,0.10584467436410924,-0.0015339807878856412,0.0,0.6135923151542568,0.4601942363656908,-0.07669903939428215,0.07669903939428196,0.0,0.0,0.0,-10.246991663076088,-6.81087469821226,-0.45099035163837875,0.07363107781851067,-0.0846757394912874,0.0
1750157925.475685,0.0,0.08283496254582462,0.3712233506683252,0.02454369260617026,0.023009711818284616,0.1043106935762236,-0.0015339807878856412,0.0,0.08283496254582462,0.3712233506683252,0.02454369260617026,0.023009711818284616,0.1043106935762236,-0.0015339807878856412,0.0,0.5368932757599739,0.46019423636569357,0.0,0.0,-0.0766990393942818,0.0,0.0,-9.756117810952672,-7.086991240031652,-0.22089323345553233,-0.018407769454627694,-0.17548740213411707,0.0
1750157925.4966817,0.0015339807878856412,0.09510680884890975,0.38196121618352463,0.023009711818284616,0.023009711818284616,0.1043106935762236,0.0,0.0015339807878856412,0.09510680884890975,0.38196121618352463,0.023009711818284616,0.023009711818284616,0.1043106935762236,0.0,0.07669903939428206,0.6135923151542565,0.5368932757599726,-0.07669903939428215,0.0,0.0,0.07669903939428206,0.2975922728498144,-11.167380135807468,-6.73417565881798,-0.43718452454740797,-0.018407769454627694,-0.0834485548609789,0.0
1750157925.5166636,0.0,0.10737865515199488,0.3911651009108385,0.021475731030398976,0.023009711818284616,0.1043106935762236,0.0,0.0,0.10737865515199488,0.3911651009108385,0.021475731030398976,0.023009711818284616,0.1043106935762236,0.0,-0.07669903939428206,0.6135923151542565,0.46019423636569357,-0.07669903939428196,0.0,0.0,0.0,-0.3067961575771282,-11.658253987930873,-7.685243747307051,-0.4233786974564367,-0.018407769454627694,-0.0834485548609789,0.0
1750157925.5366588,0.0,0.12118448224296566,0.4003689856381523,0.021475731030398976,0.02454369260617026,0.10584467436410924,-0.0015339807878856412,0.0,0.12118448224296566,0.4003689856381523,0.021475731030398976,0.02454369260617026,0.10584467436410924,-0.0015339807878856412,0.0,0.690291354548539,0.4601942363656908,0.0,0.07669903939428215,0.0766990393942818,-0.07669903939428206,0.0,-13.130875544301094,-7.961360289126489,-0.1932815792735908,0.07240389318820237,0.007363107781850758,0.0
1750157925.5566776,0.0,0.1349903093339364,0.4095728703654662,0.021475731030398976,0.0260776733940559,0.10584467436410924,0.0,0.0,0.1349903093339364,0.4095728703654662,0.021475731030398976,0.0260776733940559,0.10584467436410924,0.0,0.0,0.6902913545485375,0.46019423636569357,0.0,0.07669903939428215,0.0,0.07669903939428206,0.0,-13.683108627939905,-8.237476830945884,-0.1932815792735908,0.07117670855789385,-0.0846757394912874,0.0
1750157925.5766826,0.0015339807878856412,0.14726215563702155,0.41877675509278006,0.021475731030398976,0.0260776733940559,0.1043106935762236,-0.0015339807878856412,0.0015339807878856412,0.14726215563702155,0.41877675509278006,0.021475731030398976,0.0260776733940559,0.1043106935762236,-0.0015339807878856412,0.07669903939428206,0.6135923151542572,0.46019423636569357,0.0,0.0,-0.0766990393942818,-0.07669903939428206,0.2975922728498144,-13.253594007331948,-8.5135933727653,-0.1932815792735908,-0.020862138715244723,-0.17548740213411707,0.0
1750157925.5966809,0.0,0.1595340019401067,0.42644665903220824,0.019941750242513337,0.0260776733940559,0.10584467436410924,0.0,0.0,0.1595340019401067,0.42644665903220824,0.019941750242513337,0.0260776733940559,0.10584467436410924,0.0,-0.07669903939428206,0.6135923151542572,0.383495196971409,-0.07669903939428196,0.0,0.0766990393942818,0.07669903939428206,-0.3067961575771282,-13.744467859455353,-9.418642037617847,-0.4095728703654659,-0.020862138715244723,0.007363107781850758,0.0
1750157925.6176844,0.0,0.17333982903107745,0.4356505437595221,0.019941750242513337,0.02761165418194154,0.10584467436410924,-0.0015339807878856412,0.0,0.17333982903107745,0.4356505437595221,0.019941750242513337,0.02761165418194154,0.10584467436410924,-0.0015339807878856412,0.0,0.6902913545485375,0.46019423636569357,0.0,0.07669903939428196,0.0,-0.07669903939428206,0.0,-15.217089415825548,-9.01980703276756,-0.17947575218262002,0.06994952392758512,-0.0846757394912874,0.0
1750157925.6376536,0.0015339807878856412,0.18714565612204823,0.44485442848683593,0.019941750242513337,0.02914563496982718,0.1043106935762236,0.0,0.0015339807878856412,0.18714565612204823,0.44485442848683593,0.019941750242513337,0.02914563496982718,0.1043106935762236,0.0,0.07669903939428206,0.690291354548539,0.4601942363656908,0.0,0.07669903939428196,-0.0766990393942818,0.07669903939428206,0.2975922728498144,-15.769322499464398,-9.295923574586999,-0.17947575218262002,0.06872233929727661,-0.17548740213411707,0.0
1750157925.6576402,0.0,0.20248546400090464,0.45252433242626416,0.019941750242513337,0.02914563496982718,0.10584467436410924,0.0,0.0,0.20248546400090464,0.45252433242626416,0.019941750242513337,0.02914563496982718,0.10584467436410924,0.0,-0.07669903939428206,0.7669903939428208,0.38349519697141177,0.0,0.0,0.0766990393942818,0.0,-0.3067961575771282,-17.303303287350033,-10.200972239439503,-0.17947575218262002,-0.023316507975861746,0.007363107781850758,0.0
1750157925.6776125,0.0015339807878856412,0.21322332951610412,0.461728217153578,0.019941750242513337,0.030679615757712823,0.1043106935762236,-0.0015339807878856412,0.0015339807878856412,0.21322332951610412,0.461728217153578,0.019941750242513337,0.030679615757712823,0.1043106935762236,-0.0015339807878856412,0.07669903939428206,0.5368932757599739,0.4601942363656908,0.0,0.07669903939428215,-0.0766990393942818,-0.07669903939428206,0.2975922728498144,-14.971652489763851,-9.80213723458926,-0.17947575218262002,0.06749515466696832,-0.17548740213411707,0.0
1750157925.69764,0.0,0.22856313739496054,0.47093210188089185,0.018407769454627694,0.032213596545598466,0.10584467436410924,0.0,0.0,0.22856313739496054,0.47093210188089185,0.018407769454627694,0.032213596545598466,0.10584467436410924,0.0,-0.07669903939428206,0.7669903939428208,0.46019423636569357,-0.07669903939428215,0.07669903939428215,0.0766990393942818,0.07669903939428206,-0.3067961575771282,-18.346410223112272,-10.078253776408651,-0.3957670432744957,0.0662679700366598,0.007363107781850758,0.0
1750157925.7176292,0.0015339807878856412,0.24236896448593132,0.48013598660820567,0.019941750242513337,0.0337475773334841,0.1043106935762236,-0.0015339807878856412,0.0015339807878856412,0.24236896448593132,0.48013598660820567,0.019941750242513337,0.0337475773334841,0.1043106935762236,-0.0015339807878856412,0.07669903939428206,0.690291354548539,0.4601942363656908,0.07669903939428215,0.0766990393942818,-0.0766990393942818,-0.07669903939428206,0.2975922728498144,-17.978254834019722,-10.35437031822809,0.05062136600022643,0.06504078540635087,-0.17548740213411707,0.0
1750157925.7386208,0.0015339807878856412,0.2561747915769021,0.48933987133551954,0.018407769454627694,0.035281558121369745,0.1043106935762236,0.0,0.0015339807878856412,0.2561747915769021,0.48933987133551954,0.018407769454627694,0.035281558121369745,0.1043106935762236,0.0,0.0,0.690291354548539,0.46019423636569357,-0.07669903939428215,0.07669903939428215,0.0,0.07669903939428206,-0.009203884727313847,-18.530487917658554,-10.630486860047483,-0.3957670432744957,0.06381360077604278,-0.0834485548609789,0.0
1750157925.758628,0.0,0.2715145994557585,0.49854375606283335,0.018407769454627694,0.03681553890925539,0.10584467436410924,-0.0015339807878856412,0.0,0.2715145994557585,0.49854375606283335,0.018407769454627694,0.03681553890925539,0.10584467436410924,-0.0015339807878856412,-0.07669903939428206,0.7669903939428208,0.4601942363656908,0.0,0.07669903939428215,0.0766990393942818,-0.07669903939428206,-0.3067961575771282,-20.06446870554419,-10.90660340186692,-0.16566992509164924,0.06258641614573426,0.007363107781850758,0.0
1750157925.778625,0.0015339807878856412,0.28532042654672923,0.5077476407901472,0.018407769454627694,0.03834951969714103,0.1043106935762236,0.0,0.0015339807878856412,0.28532042654672923,0.5,0.018407769454627694,0.03834951969714103,0.1043106935762236,0.0,0.07669903939428206,0.6902913545485362,0.46019423636569357,0.0,0.07669903939428215,-0.0766990393942818,0.07669903939428206,0.2975922728498144,-19.696313316451604,-10.950290719981897,-0.16566992509164924,0.061359231515425744,-0.17548740213411707,0.0
1750157925.7986217,0.0015339807878856412,0.30066023442558565,0.5154175447295755,0.01687378866674205,0.03834951969714103,0.1043106935762236,0.0,0.0015339807878856412,0.30066023442558565,0.5,0.01687378866674205,0.03834951969714103,0.1043106935762236,0.0,0.0,0.7669903939428208,0.38349519697141177,-0.07669903939428215,0.0,0.0,0.0,-0.009203884727313847,-21.230294104337275,-11.625242266651577,-0.3819612161835249,-0.030679615757712827,-0.0834485548609789,0.0
1750157925.818642,0.0015339807878856412,0.31600004230444206,0.5246214294568893,0.018407769454627694,0.039883500485026674,0.1043106935762236,-0.0015339807878856412,0.0015339807878856412,0.31600004230444206,0.5,0.018407769454627694,0.039883500485026674,0.1043106935762236,-0.0015339807878856412,0.0,0.7669903939428208,0.4601942363656908,0.07669903939428215,0.07669903939428215,0.0,-0.07669903939428206,-0.009203884727313847,-21.843886419491533,-10.95029071998192,0.06442719309119721,0.060132046885117224,-0.0834485548609789,0.0
1750157925.8386352,0.0,0.3313398501832985,0.5353592949720888,0.01687378866674205,0.04141748127291231,0.1043106935762236,0.0,0.0,0.3313398501832985,0.5,0.01687378866674205,0.04141748127291231,0.1043106935762236,0.0,-0.07669903939428206,0.7669903939428208,0.5368932757599754,-0.07669903939428215,0.0766990393942818,0.0,0.07669903939428206,-0.3067961575771282,-22.45747873464579,-10.275339173312215,-0.3819612161835249,0.058904862254808316,-0.0834485548609789,0.0
1750157925.859625,0.0,0.3466796580621549,0.5460971604872883,0.01687378866674205,0.04295146206079795,0.1043106935762236,0.0,0.0,0.3466796580621549,0.5,0.01687378866674205,0.04295146206079795,0.1043106935762236,0.0,0.0,0.7669903939428208,0.5368932757599754,0.0,0.07669903939428215,0.0,0.0,0.0,-23.071071049800047,-10.275339173312215,-0.15186409800067846,0.05767767762450021,-0.0834485548609789,0.0
1750157925.8796206,0.0,0.3620194659410113,0.5553010452146021,0.01687378866674205,0.044485442848683596,0.1043106935762236,0.0,0.0,0.3620194659410113,0.5,0.01687378866674205,0.044485442848683596,0.1043106935762236,0.0,0.0,0.7669903939428208,0.4601942363656908,0.0,0.07669903939428215,0.0,0.0,0.0,-23.684663364954304,-10.95029071998192,-0.15186409800067846,0.05645049299419169,-0.0834485548609789,0.0
1750157925.8996398,0.0015339807878856412,0.37889325460775336,0.5645049299419159,0.015339807878856412,0.044485442848683596,0.1043106935762236,0.0,0.0015339807878856412,0.37889325460775336,0.5,0.015339807878856412,0.044485442848683596,0.1043106935762236,0.0,0.07669903939428206,0.8436894333371026,0.4601942363656908,-0.07669903939428196,0.0,0.0,0.0,0.2975922728498144,-25.280003384355364,-10.95029071998192,-0.36815538909255363,-0.035588354278946875,-0.0834485548609789,0.0
1750157925.9196255,0.0015339807878856412,0.3957670432744954,0.5752427954571154,0.01380582709097077,0.04601942363656923,0.1043106935762236,-0.0015339807878856412,0.0015339807878856412,0.3957670432744954,0.5,0.01380582709097077,0.04601942363656923,0.1043106935762236,-0.0015339807878856412,0.0,0.8436894333371026,0.5368932757599754,-0.07669903939428206,0.0766990393942818,0.0,-0.07669903939428206,-0.009203884727313847,-25.954954931025046,-10.275339173312215,-0.35434956200158313,0.05522330836388277,-0.0834485548609789,0.0
1750157925.9396396,0.0,0.4141748127291231,0.5844466801844292,0.01380582709097077,0.047553404424454875,0.1043106935762236,0.0,0.0,0.4141748127291231,0.5,0.01380582709097077,0.047553404424454875,0.1043106935762236,0.0,-0.07669903939428206,0.9203884727313844,0.4601942363656908,0.0,0.07669903939428215,0.0,0.07669903939428206,-0.3067961575771282,-27.61165418194153,-10.95029071998192,-0.12425244381873693,0.05399612373357468,-0.0834485548609789,0.0
1750157925.9596252,0.0015339807878856412,0.43104860139586515,0.5936505649117432,0.01380582709097077,0.04908738521234052,0.1043106935762236,-0.0015339807878856412,0.0015339807878856412,0.43104860139586515,0.5,0.01380582709097077,0.04908738521234052,0.1043106935762236,-0.0015339807878856412,0.07669903939428206,0.8436894333371026,0.46019423636569634,0.0,0.07669903939428215,0.0,-0.07669903939428206,0.2975922728498144,-27.366217255879835,-10.950290719981872,-0.12425244381873693,0.05276893910326616,-0.0834485548609789,0.0
1750157925.979608,0.0015339807878856412,0.4479223900626072,0.6013204688511713,0.01380582709097077,0.05062136600022616,0.1043106935762236,-0.0015339807878856412,0.0015339807878856412,0.4479223900626072,0.5,0.01380582709097077,0.05062136600022616,0.1043106935762236,-0.0015339807878856412,0.0,0.8436894333371026,0.3834951969714062,0.0,0.07669903939428215,0.0,0.0,-0.009203884727313847,-28.041168802549517,-11.625242266651625,-0.12425244381873693,0.05154175447295764,-0.0834485548609789,0.0
1750157925.9996088,0.0,0.46479617872934925,0.6120583343663708,0.01227184630308513,0.0521553467881118,0.1043106935762236,-0.0015339807878856412,0.0,0.46479617872934925,0.5,0.01227184630308513,0.0521553467881118,0.1043106935762236,-0.0015339807878856412,-0.07669903939428206,0.8436894333371026,0.5368932757599754,-0.07669903939428206,0.07669903939428215,0.0,0.0,-0.3067961575771282,-28.7161203492192,-10.275339173312215,-0.34054373491061235,0.05031456984264912,-0.0834485548609789,0.0
1750157926.0205758,0.0,0.48013598660820567,0.619728238305799,0.01227184630308513,0.05368932757599744,0.10277671278833796,-0.0015339807878856412,0.0,0.48013598660820567,0.5,0.01227184630308513,0.05368932757599744,0.10277671278833796,-0.0015339807878856412,0.0,0.7669903939428208,0.38349519697141177,0.0,0.0766990393942818,-0.07669903939428249,0.0,0.0,-28.409324191642078,-11.625242266651577,-0.11044661672776616,0.04908738521234021,-0.17426021750380938,0.0
1750157926.0406222,0.0,0.4970097752749477,0.6273981422452273,0.010737865515199488,0.056757289151768725,0.10277671278833796,0.0,0.0,0.4970097752749477,0.5,0.010737865515199488,0.056757289151768725,0.10277671278833796,0.0,0.0,0.8436894333371026,0.38349519697141177,-0.07669903939428206,0.1533980787885643,0.0,0.07669903939428206,0.0,-30.00466421104314,-11.625242266651577,-0.32673790781964157,0.13867186322486216,-0.08222137023067037,0.0
1750157926.0605412,0.0,0.516951525517461,0.6350680461846554,0.010737865515199488,0.05829126993965436,0.10277671278833796,-0.0015339807878856412,0.0,0.5,0.5,0.010737865515199488,0.05829126993965436,0.10277671278833796,-0.0015339807878856412,0.0,0.9970875121256662,0.3834951969714062,0.0,0.0766990393942818,0.0,-0.07669903939428206,0.0,-31.965050145507995,-11.625242266651625,-0.0966407896367954,0.045405831321414666,-0.08222137023067037,0.0
1750157926.080602,0.0,0.5338253141842031,0.6427379501240836,0.010737865515199488,0.059825250727540004,0.10277671278833796,0.0,0.0,0.5,0.5,0.010737865515199488,0.059825250727540004,0.10277671278833796,0.0,0.0,0.8436894333371026,0.38349519697141177,0.0,0.07669903939428215,0.0,0.07669903939428206,0.0,-30.12427320004523,-11.625242266651577,-0.0966407896367954,0.04417864669110658,-0.08222137023067037,0.0
1750157926.1006067,0.0,0.5491651220630596,0.6519418348513975,0.010737865515199488,0.06135923151542565,0.10124273200045232,0.0,0.0,0.5,0.5,0.010737865515199488,0.06135923151542565,0.10124273200045232,0.0,0.0,0.7669903939428235,0.4601942363656908,0.0,0.07669903939428215,-0.0766990393942818,0.0,0.0,-29.20388472731388,-10.95029071998192,-0.0966407896367954,0.04295146206079806,-0.17303303287350003,0.0
1750157926.1206026,-0.0015339807878856412,0.5675728915176872,0.6596117387908257,0.009203884727313847,0.06289321230331128,0.10124273200045232,0.0,-0.0015339807878856412,0.5,0.5,0.009203884727313847,0.06289321230331128,0.10124273200045232,0.0,-0.07669903939428206,0.9203884727313816,0.38349519697141177,-0.07669903939428206,0.0766990393942818,0.0,0.0,-0.2975922728498144,-31.04466167277658,-11.625242266651577,-0.3129320807286708,0.04172427743048912,-0.08099418560036187,0.0
1750157926.1416059,-0.0030679615757712823,0.5859806609723149,0.6688156235181395,0.009203884727313847,0.06442719309119693,0.10124273200045232,0.0,-0.0030679615757712823,0.5,0.5,0.009203884727313847,0.06442719309119693,0.10124273200045232,0.0,-0.07669903939428206,0.9203884727313871,0.4601942363656908,0.0,0.07669903939428249,0.0,0.0,-0.28838838812250056,-31.04466167277665,-10.95029071998192,-0.08283496254582462,0.04049709280018143,-0.08099418560036187,0.0
1750157926.161571,-0.0046019423636569235,0.6043884304269426,0.6749515466696822,0.009203884727313847,0.06596117387908257,0.10124273200045232,-0.0015339807878856412,-0.0046019423636569235,0.5,0.5,0.009203884727313847,0.06596117387908257,0.10124273200045232,-0.0015339807878856412,-0.07669903939428206,0.9203884727313816,0.30679615757713274,0.0,0.0766990393942818,0.0,-0.07669903939428206,-0.2791845033951867,-31.04466167277658,-12.300193813321231,-0.08283496254582462,0.03926990816987211,-0.08099418560036187,0.0
1750157926.181616,-0.0046019423636569235,0.6212622190936846,0.684155431396996,0.009203884727313847,0.0674951546669682,0.10124273200045232,-0.0015339807878856412,-0.0046019423636569235,0.5,0.5,0.009203884727313847,0.0674951546669682,0.10124273200045232,-0.0015339807878856412,0.0,0.8436894333371026,0.4601942363656908,0.0,0.0766990393942818,0.0,0.0,0.02761165418194154,-30.12427320004523,-10.95029071998192,-0.08283496254582462,0.03804272353956359,-0.08099418560036187,0.0
1750157926.2016094,-0.0046019423636569235,0.6381360077604268,0.6933593161243098,0.009203884727313847,0.06902913545485385,0.09970875121256667,-0.0015339807878856412,-0.0046019423636569235,0.5,0.5,0.009203884727313847,0.06902913545485385,0.09970875121256667,-0.0015339807878856412,0.0,0.8436894333371081,0.4601942363656908,0.0,0.07669903939428249,-0.07669903939428249,0.0,0.02761165418194154,-30.124273200045295,-10.95029071998192,-0.08283496254582462,0.0368155389092559,-0.17180584824319234,0.0
1750157926.2216153,-0.0046019423636569235,0.6534758156392831,0.701029220063738,0.007669903939428206,0.07056311624273949,0.09970875121256667,-0.0015339807878856412,-0.0046019423636569235,0.5,0.5,0.007669903939428206,0.07056311624273949,0.09970875121256667,-0.0015339807878856412,0.0,0.766990393942818,0.38349519697141177,-0.07669903939428206,0.0766990393942818,0.0,0.0,0.02761165418194154,-29.203884727313813,-11.625242266651577,-0.29912625363770007,0.03558835427894656,-0.07976700097005335,0.0
1750157926.2416148,-0.0046019423636569235,0.6703496043060252,0.7071651432152806,0.007669903939428206,0.07209709703062514,0.09970875121256667,-0.0015339807878856412,-0.0046019423636569235,0.5,0.5,0.007669903939428206,0.07209709703062514,0.09970875121256667,-0.0015339807878856412,0.0,0.8436894333371026,0.3067961575771272,0.0,0.07669903939428249,0.0,0.0,0.02761165418194154,-30.12427320004523,-12.300193813321282,-0.06902913545485385,0.034361169648638876,-0.07976700097005335,0.0
1750157926.2626002,-0.0046019423636569235,0.6856894121848816,0.7133010663668231,0.007669903939428206,0.07363107781851078,0.09970875121256667,-0.0015339807878856412,-0.0046019423636569235,0.5,0.5,0.007669903939428206,0.07363107781851078,0.09970875121256667,-0.0015339807878856412,0.0,0.766990393942818,0.3067961575771272,0.0,0.0766990393942818,0.0,0.0,0.02761165418194154,-29.203884727313813,-12.300193813321282,-0.06902913545485385,0.03313398501832954,-0.07976700097005335,0.0
1750157926.282608,-0.0046019423636569235,0.7040971816395093,0.7209709703062513,0.007669903939428206,0.07516505860639641,0.09970875121256667,0.0,-0.0046019423636569235,0.5,0.5,0.007669903939428206,0.07516505860639641,0.09970875121256667,0.0,0.0,0.9203884727313871,0.38349519697141177,0.0,0.0766990393942818,0.0,0.07669903939428206,0.02761165418194154,-31.04466167277665,-11.625242266651577,-0.06902913545485385,0.03190680038802102,-0.07976700097005335,0.0
1750157926.3025892,-0.0046019423636569235,0.7194369895183657,0.7286408742456796,0.006135923151542565,0.07669903939428206,0.09970875121256667,-0.0015339807878856412,-0.0046019423636569235,0.5,0.5,0.006135923151542565,0.07669903939428206,0.09970875121256667,-0.0015339807878856412,0.0,0.766990393942818,0.38349519697141177,-0.07669903939428206,0.07669903939428249,0.0,-0.07669903939428206,0.02761165418194154,-29.203884727313813,-11.625242266651577,-0.2853204265467293,0.03067961575771333,-0.07976700097005335,0.0
1750157926.3225951,-0.0046019423636569235,0.7363107781851077,0.7363107781851077,0.0046019423636569235,0.0782330201821677,0.09970875121256667,0.0,-0.0046019423636569235,0.5,0.5,0.0046019423636569235,0.0782330201821677,0.09970875121256667,0.0,0.0,0.8436894333371026,0.3834951969714062,-0.07669903939428206,0.0766990393942818,0.0,0.07669903939428206,0.02761165418194154,-30.12427320004523,-11.625242266651625,-0.2715145994557585,0.02945243112740399,-0.07976700097005335,0.0
1750157926.3425853,-0.0046019423636569235,0.7516505860639642,0.7439806821245359,0.0046019423636569235,0.07976700097005335,0.09970875121256667,0.0,-0.0046019423636569235,0.5,0.5,0.0046019423636569235,0.07976700097005335,0.09970875121256667,0.0,0.0,0.7669903939428235,0.38349519697141177,0.0,0.07669903939428249,0.0,0.0,0.02761165418194154,-29.20388472731388,-11.625242266651577,-0.04141748127291231,0.02822524649709629,-0.07976700097005335,0.0
1750157926.3625932,-0.0046019423636569235,0.7685243747307062,0.7516505860639642,0.0046019423636569235,0.08283496254582462,0.09970875121256667,0.0,-0.0046019423636569235,0.5,0.5,0.0046019423636569235,0.08283496254582462,0.09970875121256667,0.0,0.0,0.8436894333371026,0.38349519697141177,0.0,0.1533980787885636,0.0,0.0,0.02761165418194154,-30.12427320004523,-11.625242266651577,-0.04141748127291231,0.11780972450961663,-0.07976700097005335,0.0
1750157926.3825974,-0.0046019423636569235,0.7884661249732196,0.7593204900033924,0.0046019423636569235,0.08283496254582462,0.09970875121256667,-0.0015339807878856412,-0.0046019423636569235,0.5,0.5,0.0046019423636569235,0.08283496254582462,0.09970875121256667,-0.0015339807878856412,0.0,0.9970875121256662,0.38349519697141177,0.0,0.0,0.0,-0.07669903939428206,0.02761165418194154,-31.965050145507995,-11.625242266651577,-0.04141748127291231,-0.0662679700366597,-0.07976700097005335,0.0
1750157926.4025962,-0.0046019423636569235,0.8068738944278473,0.765456413154935,0.0046019423636569235,0.08436894333371027,0.09970875121256667,0.0,-0.0046019423636569235,0.5,0.5,0.0046019423636569235,0.08436894333371027,0.09970875121256667,0.0,0.0,0.9203884727313871,0.3067961575771272,0.0,0.07669903939428249,0.0,0.07669903939428206,0.02761165418194154,-31.04466167277665,-12.300193813321282,-0.04141748127291231,0.024543692606170786,-0.07976700097005335,0.0
1750157926.42359,-0.0046019423636569235,0.8252816638824749,0.7746602978822488,0.0046019423636569235,0.08743690490948154,0.09970875121256667,0.0,-0.0046019423636569235,0.5,0.5,0.0046019423636569235,0.08743690490948154,0.09970875121256667,0.0,0.0,0.9203884727313816,0.4601942363656908,0.0,0.1533980787885636,0.0,0.0,0.02761165418194154,-31.04466167277658,-10.95029071998192,-0.04141748127291231,0.11412817061869107,-0.07976700097005335,0.0
1750157926.4435802,-0.0046019423636569235,0.8436894333371027,0.782330201821677,0.0030679615757712823,0.08897088569736719,0.09970875121256667,-0.0015339807878856412,-0.0046019423636569235,0.5,0.5,0.0030679615757712823,0.08897088569736719,0.09970875121256667,-0.0015339807878856412,0.0,0.9203884727313871,0.38349519697141177,-0.07669903939428206,0.07669903939428249,0.0,-0.07669903939428206,0.02761165418194154,-31.04466167277665,-11.625242266651577,-0.25770877236478773,0.020862138715245226,-0.07976700097005335,0.0
1750157926.4634972,-0.0046019423636569235,0.8620972027917303,0.7915340865489908,0.0046019423636569235,0.09050486648525283,0.09970875121256667,0.0,-0.0046019423636569235,0.5,0.5,0.0046019423636569235,0.09050486648525283,0.09970875121256667,0.0,0.0,0.9203884727313816,0.4601942363656908,0.07669903939428206,0.0766990393942818,0.0,0.07669903939428206,0.02761165418194154,-31.04466167277658,-10.95029071998192,0.1886796369099339,0.019634954084935874,-0.07976700097005335,0.0
1750157926.4835775,-0.0046019423636569235,0.8820389530342436,0.8007379712763046,0.0030679615757712823,0.09203884727313846,0.09970875121256667,0.0,-0.0046019423636569235,0.5,0.5,0.0030679615757712823,0.09203884727313846,0.09970875121256667,0.0,0.0,0.9970875121256662,0.4601942363656908,-0.07669903939428206,0.0766990393942818,0.0,0.0,0.02761165418194154,-31.965050145507995,-10.95029071998192,-0.25770877236478773,0.018407769454627382,-0.07976700097005335,0.0
1750157926.5035813,-0.0046019423636569235,0.9035146840646426,0.8099418560036186,0.0030679615757712823,0.09357282806102411,0.09970875121256667,-0.0015339807878856412,-0.0046019423636569235,0.5,0.5,0.0030679615757712823,0.09357282806102411,0.09970875121256667,-0.0015339807878856412,0.0,1.0737865515199507,0.46019423636569634,0.0,0.07669903939428249,0.0,-0.07669903939428206,0.02761165418194154,-32.88543861823941,-10.950290719981872,-0.02761165418194154,0.017180584824319695,-0.07976700097005335,0.0
1750157926.5235963,-0.0046019423636569235,0.9219224535192704,0.8191457407309324,0.0046019423636569235,0.09357282806102411,0.09970875121256667,-0.0015339807878856412,-0.0046019423636569235,0.5,0.5,0.0046019423636569235,0.09357282806102411,0.09970875121256667,-0.0015339807878856412,0.0,0.9203884727313871,0.4601942363656908,0.07669903939428206,0.0,0.0,0.0,0.02761165418194154,-31.04466167277665,-10.95029071998192,0.1886796369099339,-0.0748582624488193,-0.07976700097005335,0.0
1750157926.5445943,-0.0046019423636569235,0.940330222973898,0.8298836062461319,0.0030679615757712823,0.09510680884890975,0.09970875121256667,0.0,-0.0046019423636569235,0.5,0.5,0.0030679615757712823,0.09510680884890975,0.09970875121256667,0.0,0.0,0.9203884727313816,0.5368932757599754,-0.07669903939428206,0.0766990393942818,0.0,0.07669903939428206,0.02761165418194154,-31.04466167277658,-10.275339173312215,-0.25770877236478773,0.01595340019401037,-0.07976700097005335,0.0
1750157926.5645604,-0.0046019423636569235,0.9587379924285258,0.8390874909734457,0.0030679615757712823,0.09510680884890975,0.09970875121256667,-0.0015339807878856412,-0.0046019423636569235,0.5,0.5,0.0030679615757712823,0.09510680884890975,0.09970875121256667,-0.0015339807878856412,0.0,0.9203884727313871,0.4601942363656908,0.0,0.0,0.0,-0.07669903939428206,0.02761165418194154,-31.04466167277665,-10.95029071998192,-0.02761165418194154,-0.0760854470791278,-0.07976700097005335,0.0
1750157926.584579,-0.0046019423636569235,0.9771457618831534,0.8467573949128739,0.0046019423636569235,0.0966407896367954,0.09970875121256667,-0.0015339807878856412,-0.0046019423636569235,0.5,0.5,0.0046019423636569235,0.0966407896367954,0.09970875121256667,-0.0015339807878856412,0.0,0.9203884727313816,0.38349519697141177,0.07669903939428206,0.07669903939428249,0.0,0.0,0.02761165418194154,-31.04466167277658,-11.625242266651577,0.1886796369099339,0.014726215563702683,-0.07976700097005335,0.0
1750157926.604581,-0.0046019423636569235,0.9940195505498954,0.8544272988523022,0.0046019423636569235,0.09817477042468103,0.09970875121256667,0.0,-0.0046019423636569235,0.5,0.5,0.0046019423636569235,0.09817477042468103,0.09970875121256667,0.0,0.0,0.8436894333371026,0.38349519697141177,0.0,0.0766990393942818,0.0,0.07669903939428206,0.02761165418194154,-30.12427320004523,-11.625242266651577,-0.04141748127291231,0.01349903093339333,-0.07976700097005335,0.0
1750157926.6245623,-0.0046019423636569235,1.012427320004523,0.8620972027917303,0.0046019423636569235,0.09970875121256667,0.09970875121256667,0.0,-0.0046019423636569235,0.5,0.5,0.0046019423636569235,0.09970875121256667,0.09970875121256667,0.0,0.0,0.9203884727313816,0.3834951969714062,0.0,0.0766990393942818,0.0,0.0,0.02761165418194154,-31.04466167277658,-11.625242266651625,-0.04141748127291231,0.01227184630308481,-0.07976700097005335,0.0
1750157926.6455593,-0.0046019423636569235,1.0293011086712651,0.8697671067311585,0.0046019423636569235,0.10124273200045232,0.09970875121256667,0.0,-0.0046019423636569235,0.5,0.5,0.0046019423636569235,0.10124273200045232,0.09970875121256667,0.0,0.0,0.8436894333371026,0.38349519697141177,0.0,0.07669903939428249,0.0,0.0,0.02761165418194154,-30.12427320004523,-11.625242266651577,-0.04141748127291231,0.011044661672777123,-0.07976700097005335,0.0
1750157926.6655555,-0.0046019423636569235,1.0446409165501216,0.8774370106705868,0.0046019423636569235,0.10277671278833796,0.09970875121256667,0.0,-0.0046019423636569235,0.5,0.5,0.0046019423636569235,0.10277671278833796,0.09970875121256667,0.0,0.0,0.7669903939428235,0.38349519697141177,0.0,0.0766990393942818,0.0,0.0,0.02761165418194154,-29.20388472731388,-11.625242266651577,-0.04141748127291231,0.00981747704246777,-0.07976700097005335,0.0
1750157926.685573,-0.0046019423636569235,1.059980724428978,0.8820389530342436,0.0046019423636569235,0.1043106935762236,0.09970875121256667,0.0,-0.0046019423636569235,0.5,0.5,0.0046019423636569235,0.1043106935762236,0.09970875121256667,0.0,0.0,0.7669903939428235,0.23009711818284262,0.0,0.07669903939428249,0.0,0.0,0.02761165418194154,-29.20388472731388,-12.975145359990984,-0.04141748127291231,0.008590292412160083,-0.07976700097005335,0.0
1750157926.7055585,-0.0046019423636569235,1.0768545130957201,0.8866408953979006,0.0046019423636569235,0.1043106935762236,0.09970875121256667,0.0,-0.0046019423636569235,0.5,0.5,0.0046019423636569235,0.1043106935762236,0.09970875121256667,0.0,0.0,0.8436894333371026,0.23009711818284817,0.0,0.0,0.0,0.0,0.02761165418194154,-30.12427320004523,-12.975145359990936,-0.04141748127291231,-0.0834485548609789,-0.07976700097005335,0.0
1750157926.7255607,-0.0046019423636569235,1.0906603401866908,0.8897088569736719,0.0046019423636569235,0.10584467436410924,0.09970875121256667,0.0,-0.0046019423636569235,0.5,0.5,0.0046019423636569235,0.10584467436410924,0.09970875121256667,0.0,0.0,0.6902913545485334,0.1533980787885636,0.0,0.0766990393942818,0.0,0.0,0.02761165418194154,-28.2834962545824,-13.650096906660641,-0.04141748127291231,0.007363107781850758,-0.07976700097005335,0.0
1750157926.7455635,-0.0046019423636569235,1.1060001480655473,0.8927768185494431,0.0046019423636569235,0.10737865515199488,0.09970875121256667,-0.0015339807878856412,-0.0046019423636569235,0.5,0.5,0.0046019423636569235,0.10737865515199488,0.09970875121256667,-0.0015339807878856412,0.0,0.7669903939428235,0.1533980787885636,0.0,0.0766990393942818,0.0,-0.07669903939428206,0.02761165418194154,-29.20388472731388,-13.650096906660641,-0.04141748127291231,0.006135923151542266,-0.07976700097005335,0.0
1750157926.7665572,-0.0046019423636569235,1.1228739367322893,0.8973787609131001,0.0046019423636569235,0.10891263593988053,0.09970875121256667,-0.0015339807878856412,-0.0046019423636569235,0.5,0.5,0.0046019423636569235,0.10891263593988053,0.09970875121256667,-0.0015339807878856412,0.0,0.8436894333371026,0.23009711818284817,0.0,0.07669903939428249,0.0,0.0,0.02761165418194154,-30.12427320004523,-12.975145359990936,-0.04141748127291231,0.004908738521234579,-0.07976700097005335,0.0
1750157926.7865596,-0.0046019423636569235,1.1351457830353744,0.9004467224888714,0.0030679615757712823,0.11044661672776616,0.09970875121256667,-0.0015339807878856412,-0.0046019423636569235,0.5,0.5,0.0030679615757712823,0.11044661672776616,0.09970875121256667,-0.0015339807878856412,0.0,0.6135923151542544,0.1533980787885636,-0.07669903939428206,0.0766990393942818,0.0,0.0,0.02761165418194154,-27.36310778185105,-13.650096906660641,-0.25770877236478773,0.0036815538909252266,-0.07976700097005335,0.0
1750157926.8065565,-0.0046019423636569235,1.1489516101263453,0.9019807032767571,0.0030679615757712823,0.11044661672776616,0.09970875121256667,-0.0015339807878856412,-0.0046019423636569235,0.5,0.5,0.0030679615757712823,0.11044661672776616,0.09970875121256667,-0.0015339807878856412,0.0,0.6902913545485445,0.07669903939428457,0.0,0.0,0.0,0.0,0.02761165418194154,-28.283496254582538,-14.325048453330295,-0.02761165418194154,-0.08835729338221293,-0.07976700097005335,0.0
1750157926.8265588,-0.0046019423636569235,1.162757437217316,0.9035146840646426,0.0030679615757712823,0.1119805975156518,0.09970875121256667,0.0,-0.0046019423636569235,0.5,0.5,0.0030679615757712823,0.1119805975156518,0.09970875121256667,0.0,0.0,0.6902913545485334,0.07669903939427902,0.0,0.0766990393942818,0.0,0.07669903939428206,0.02761165418194154,-28.2834962545824,-14.325048453330343,-0.02761165418194154,0.0024543692606167067,-0.07976700097005335,0.0
1750157926.8465734,-0.0046019423636569235,1.1765632643082868,0.9035146840646426,0.0046019423636569235,0.11351457830353745,0.09970875121256667,0.0,-0.0046019423636569235,0.5,0.5,0.0046019423636569235,0.11351457830353745,0.09970875121256667,0.0,0.0,0.6902913545485445,0.0,0.07669903939428206,0.07669903939428249,0.0,0.0,0.02761165418194154,-28.283496254582538,-15.0,0.1886796369099339,0.0012271846303090195,-0.07976700097005335,0.0
1750157926.8665552,-0.006135923151542565,1.1873011298234863,0.9035146840646426,0.0030679615757712823,0.11504855909142309,0.09970875121256667,0.0,-0.006135923151542565,0.5,0.5,0.0030679615757712823,0.11504855909142309,0.09970875121256667,0.0,-0.07669903939428206,0.5368932757599754,0.0,-0.07669903939428206,0.0766990393942818,0.0,0.0,-0.2699806186678728,-26.442719309119706,-15.0,-0.25770877236478773,-3.3306690738754696e-16,-0.07976700097005335,0.0
1750157926.887608,-0.006135923151542565,1.1965050145508,0.9035146840646426,0.0030679615757712823,0.11504855909142309,0.09970875121256667,-0.0015339807878856412,-0.006135923151542565,0.5,0.5,0.0030679615757712823,0.11504855909142309,0.09970875121256667,-0.0015339807878856412,0.0,0.46019423636568524,0.0,0.0,0.0,0.0,-0.07669903939428206,0.03681553890925539,-25.522330836388225,-15.0,-0.02761165418194154,-0.09203884727313848,-0.07976700097005335,0.0
1750157926.9075766,-0.006135923151542565,1.205708899278114,0.9035146840646426,0.0030679615757712823,0.11658253987930872,0.09970875121256667,-0.0015339807878856412,-0.006135923151542565,0.5,0.5,0.0030679615757712823,0.11658253987930872,0.09970875121256667,-0.0015339807878856412,0.0,0.46019423636569634,0.0,0.0,0.0766990393942818,0.0,0.0,0.03681553890925539,-25.522330836388356,-15.0,-0.02761165418194154,-0.0012271846303088252,-0.07976700097005335,0.0
1750157926.9275773,-0.007669903939428206,1.213378803217542,0.9035146840646426,0.0030679615757712823,0.11658253987930872,0.09970875121256667,0.0,-0.007669903939428206,0.5,0.5,0.0030679615757712823,0.11658253987930872,0.09970875121256667,0.0,-0.07669903939428206,0.3834951969714062,0.0,0.0,0.0,0.0,0.07669903939428206,-0.260776733940559,-24.601942363656875,-15.0,-0.02761165418194154,-0.09326603190344698,-0.07976700097005335,0.0
1750157926.947582,-0.007669903939428206,1.2241166687327416,0.9035146840646426,0.0046019423636569235,0.11811652066719437,0.09970875121256667,0.0,-0.007669903939428206,0.5,0.5,0.0046019423636569235,0.11811652066719437,0.09970875121256667,0.0,0.0,0.5368932757599754,0.0,0.07669903939428206,0.07669903939428249,0.0,0.0,0.04601942363656923,-26.442719309119706,-15.0,0.1886796369099339,-0.0024543692606165124,-0.07976700097005335,0.0
1750157926.9675527,-0.009203884727313847,1.23178657267217,0.9035146840646426,0.0030679615757712823,0.11965050145508001,0.09970875121256667,0.0,-0.009203884727313847,0.5,0.5,0.0030679615757712823,0.11965050145508001,0.09970875121256667,0.0,-0.07669903939428206,0.3834951969714173,0.0,-0.07669903939428206,0.0766990393942818,0.0,0.0,-0.25157284921324513,-24.601942363657006,-15.0,-0.25770877236478773,-0.003681553890925837,-0.07976700097005335,0.0
1750157926.9875436,-0.009203884727313847,1.2379224958237125,0.9035146840646426,0.0030679615757712823,0.11965050145508001,0.09970875121256667,0.0,-0.009203884727313847,0.5,0.5,0.0030679615757712823,0.11965050145508001,0.09970875121256667,0.0,0.0,0.3067961575771272,0.0,0.0,0.0,0.0,0.0,0.05522330836388308,-23.681553890925525,-15.0,-0.02761165418194154,-0.09572040116406401,-0.07976700097005335,0.0
1750157927.0085514,-0.009203884727313847,1.2425244381873692,0.9035146840646426,0.0030679615757712823,0.12118448224296566,0.09970875121256667,0.0,-0.009203884727313847,0.5,0.5,0.0030679615757712823,0.12118448224296566,0.09970875121256667,0.0,0.0,0.23009711818283707,0.0,0.0,0.07669903939428249,0.0,0.0,0.05522330836388308,-22.761165418194043,-15.0,-0.02761165418194154,-0.004908738521233524,-0.07976700097005335,0.0
1750157927.0285015,-0.010737865515199488,1.248660361338912,0.9035146840646426,0.0030679615757712823,0.1227184630308513,0.09970875121256667,-0.0015339807878856412,-0.010737865515199488,0.5,0.5,0.0030679615757712823,0.1227184630308513,0.09970875121256667,-0.0015339807878856412,-0.07669903939428206,0.3067961575771383,0.0,0.0,0.0766990393942818,0.0,-0.07669903939428206,-0.2423689644859313,-23.681553890925663,-15.0,-0.02761165418194154,-0.006135923151542877,-0.07976700097005335,0.0
1750157927.0485048,-0.01227184630308513,1.2517283229146832,0.9035146840646426,0.0015339807878856412,0.1227184630308513,0.09970875121256667,0.0,-0.01227184630308513,0.5,0.5,0.0015339807878856412,0.1227184630308513,0.09970875121256667,0.0,-0.07669903939428206,0.15339807878855805,0.0,-0.07669903939428206,0.0,0.0,0.07669903939428206,-0.23316507975861744,-21.8407769454627,-15.0,-0.24390294527381695,-0.09817477042468103,-0.07976700097005335,0.0
1750157927.0685182,-0.01227184630308513,1.2547962844904545,0.9035146840646426,0.0015339807878856412,0.12425244381873693,0.09970875121256667,0.0,-0.01227184630308513,0.5,0.5,0.0015339807878856412,0.12425244381873693,0.09970875121256667,0.0,0.0,0.15339807878856915,0.0,0.0,0.0766990393942818,0.0,0.0,0.07363107781851078,-21.84077694546283,-15.0,-0.01380582709097077,-0.007363107781851397,-0.07976700097005335,0.0
1750157927.0885022,-0.01380582709097077,1.2547962844904545,0.9035146840646426,0.0015339807878856412,0.12578642460662257,0.09970875121256667,-0.0015339807878856412,-0.01380582709097077,0.5,0.5,0.0015339807878856412,0.12578642460662257,0.09970875121256667,-0.0015339807878856412,-0.07669903939428206,0.0,0.0,0.0,0.0766990393942818,0.0,-0.07669903939428206,-0.2239611950313036,-20.0,-15.0,-0.01380582709097077,-0.008590292412159917,-0.07976700097005335,0.0
1750157927.1085045,-0.01380582709097077,1.2547962844904545,0.9035146840646426,0.0015339807878856412,0.12578642460662257,0.09970875121256667,0.0,-0.01380582709097077,0.5,0.5,0.0015339807878856412,0.12578642460662257,0.09970875121256667,0.0,0.0,0.0,0.0,0.0,0.0,0.0,0.07669903939428206,0.08283496254582462,-20.0,-15.0,-0.01380582709097077,-0.10062913968529806,-0.07976700097005335,0.0
1750157927.1285052,-0.01380582709097077,1.2547962844904545,0.9035146840646426,0.0015339807878856412,0.12578642460662257,0.09970875121256667,0.0,-0.01380582709097077,0.5,0.5,0.0015339807878856412,0.12578642460662257,0.09970875121256667,0.0,0.0,0.0,0.0,0.0,0.0,0.0,0.0,0.08283496254582462,-20.0,-15.0,-0.01380582709097077,-0.10062913968529806,-0.07976700097005335,0.0
1750157927.148525,-0.015339807878856412,1.2547962844904545,0.9019807032767571,0.0015339807878856412,0.12732040539450823,0.09970875121256667,0.0,-0.015339807878856412,0.5,0.5,0.0015339807878856412,0.12732040539450823,0.09970875121256667,0.0,-0.07669903939428206,0.0,-0.07669903939427902,0.0,0.07669903939428319,0.0,0.0,-0.21475731030398976,-20.0,-15.674951546669657,-0.01380582709097077,-0.009817477042466771,-0.07976700097005335,0.0
1750157927.1695023,-0.015339807878856412,1.2547962844904545,0.9019807032767571,0.0015339807878856412,0.12732040539450823,0.09970875121256667,0.0,-0.015339807878856412,0.5,0.5,0.0015339807878856412,0.12732040539450823,0.09970875121256667,0.0,0.0,0.0,0.0,0.0,0.0,0.0,0.0,0.09203884727313846,-20.0,-15.0,-0.01380582709097077,-0.1018563243156066,-0.07976700097005335,0.0
1750157927.189497,-0.015339807878856412,1.2547962844904545,0.9035146840646426,0.0,0.12732040539450823,0.09970875121256667,-0.0015339807878856412,-0.015339807878856412,0.5,0.5,0.0,0.12732040539450823,0.09970875121256667,-0.0015339807878856412,0.0,0.0,0.07669903939427902,-0.07669903939428206,0.0,0.0,-0.07669903939428206,0.09203884727313846,-20.0,-14.325048453330343,-0.23009711818284617,-0.1018563243156066,-0.07976700097005335,0.0
1750157927.209432,-0.01687378866674205,1.2547962844904545,0.9019807032767571,0.0,0.12732040539450823,0.09970875121256667,-0.0015339807878856412,-0.01687378866674205,0.5,0.5,0.0,0.12732040539450823,0.09970875121256667,-0.0015339807878856412,-0.07669903939428196,0.0,-0.07669903939427902,0.0,0.0,0.0,0.0,-0.20555342557667555,-20.0,-15.674951546669657,0.0,-0.1018563243156066,-0.07976700097005335,0.0
1750157927.229516,-0.01687378866674205,1.2547962844904545,0.9019807032767571,0.0,0.12885438618239387,0.09970875121256667,-0.0015339807878856412,-0.01687378866674205,0.5,0.5,0.0,0.12885438618239387,0.09970875121256667,-0.0015339807878856412,0.0,0.0,0.0,0.0,0.0766990393942818,0.0,0.0,0.1012427320004523,-20.0,-15.0,0.0,-0.011044661672776956,-0.07976700097005335,0.0
1750157927.2494977,-0.01687378866674205,1.2547962844904545,0.9019807032767571,0.0,0.12885438618239387,0.09970875121256667,0.0,-0.01687378866674205,0.5,0.5,0.0,0.12885438618239387,0.09970875121256667,0.0,0.0,0.0,0.0,0.0,0.0,0.0,0.07669903939428206,0.1012427320004523,-20.0,-15.0,0.0,-0.1030835089459151,-0.07976700097005335,0.0
1750157927.2694943,-0.01687378866674205,1.2547962844904545,0.9004467224888714,0.0,0.12885438618239387,0.09970875121256667,0.0,-0.01687378866674205,0.5,0.5,0.0,0.12885438618239387,0.09970875121256667,0.0,0.0,0.0,-0.07669903939428457,0.0,0.0,0.0,0.0,0.1012427320004523,-20.0,-15.674951546669705,0.0,-0.1030835089459151,-0.07976700097005335,0.0
1750157927.2895014,-0.01687378866674205,1.2547962844904545,0.8989127417009857,0.0,0.12885438618239387,0.09970875121256667,0.0,-0.01687378866674205,0.5,0.5,0.0,0.12885438618239387,0.09970875121256667,0.0,0.0,0.0,-0.07669903939428457,0.0,0.0,0.0,0.0,0.1012427320004523,-20.0,-15.674951546669705,0.0,-0.1030835089459151,-0.07976700097005335,0.0
1750157927.3094926,-0.01687378866674205,1.2547962844904545,0.8943107993373288,0.0,0.12885438618239387,0.09970875121256667,0.0,-0.01687378866674205,0.5,0.5,0.0,0.12885438618239387,0.09970875121256667,0.0,0.0,0.0,-0.23009711818284262,0.0,0.0,0.0,0.0,0.1012427320004523,-20.0,-17.024854640009014,0.0,-0.1030835089459151,-0.07976700097005335,0.0
1750157927.3294964,-0.01687378866674205,1.2547962844904545,0.8912428377615575,0.0,0.12885438618239387,0.09970875121256667,0.0,-0.01687378866674205,0.5,0.5,0.0,0.12885438618239387,0.09970875121256667,0.0,0.0,0.0,-0.1533980787885636,0.0,0.0,0.0,0.0,0.1012427320004523,-20.0,-16.34990309333936,0.0,-0.1030835089459151,-0.07976700097005335,0.0
1750157927.3505387,-0.018407769454627694,1.2547962844904545,0.8881748761857863,0.0,0.12885438618239387,0.09970875121256667,-0.0015339807878856412,-0.018407769454627694,0.5,0.5,0.0,0.12885438618239387,0.09970875121256667,-0.0015339807878856412,-0.07669903939428215,0.0,-0.1533980787885636,0.0,0.0,0.0,-0.07669903939428206,-0.19634954084936246,-20.0,-16.34990309333936,0.0,-0.1030835089459151,-0.07976700097005335,0.0
1750157927.3704162,-0.018407769454627694,1.2547962844904545,0.8820389530342436,0.0,0.1303883669702795,0.09970875121256667,0.0,-0.018407769454627694,0.5,0.5,0.0,0.1303883669702795,0.09970875121256667,0.0,0.0,0.0,-0.30679615757713274,0.0,0.0766990393942818,0.0,0.07669903939428206,0.11044661672776616,-20.0,-17.699806186678767,0.0,-0.012271846303085449,-0.07976700097005335,0.0
1750157927.3904219,-0.018407769454627694,1.2532623037025687,0.8789709914584724,0.0,0.1303883669702795,0.09970875121256667,0.0,-0.018407769454627694,0.5,0.5,0.0,0.1303883669702795,0.09970875121256667,0.0,0.0,-0.07669903939429012,-0.1533980787885636,0.0,0.0,0.0,0.0,0.11044661672776616,-19.07961152726852,-16.34990309333936,0.0,-0.1043106935762236,-0.07976700097005335,0.0
1750157927.4105468,-0.019941750242513337,1.2547962844904545,0.8759030298827011,0.0,0.1303883669702795,0.09970875121256667,-0.0015339807878856412,-0.019941750242513337,0.5,0.5,0.0,0.1303883669702795,0.09970875121256667,-0.0015339807878856412,-0.07669903939428215,0.07669903939429012,-0.1533980787885636,0.0,0.0,0.0,-0.07669903939428206,-0.1871456561220486,-20.92038847273148,-16.34990309333936,0.0,-0.1043106935762236,-0.07976700097005335,0.0
1750157927.430494,-0.018407769454627694,1.2547962844904545,0.8713010875190442,0.0,0.1303883669702795,0.09970875121256667,0.0,-0.018407769454627694,0.5,0.5,0.0,0.1303883669702795,0.09970875121256667,0.0,0.07669903939428215,0.0,-0.23009711818284262,0.0,0.0,0.0,0.07669903939428206,0.41724277430489476,-20.0,-17.024854640009014,0.0,-0.1043106935762236,-0.07976700097005335,0.0
1750157927.4506133,-0.019941750242513337,1.2547962844904545,0.8666991451553873,-0.0015339807878856412,0.13192234775816514,0.09970875121256667,0.0,-0.019941750242513337,0.5,0.5,-0.0015339807878856412,0.13192234775816514,0.09970875121256667,0.0,-0.07669903939428215,0.0,-0.23009711818284817,-0.07669903939428206,0.0766990393942818,0.0,0.0,-0.1871456561220486,-20.0,-17.024854640009064,-0.21629129109187542,-0.01349903093339394,-0.07976700097005335,0.0
1750157927.4704175,-0.019941750242513337,1.2547962844904545,0.8605632220038447,-0.0015339807878856412,0.13192234775816514,0.09970875121256667,0.0,-0.019941750242513337,0.5,0.5,-0.0015339807878856412,0.13192234775816514,0.09970875121256667,0.0,0.0,0.0,-0.3067961575771272,0.0,0.0,0.0,0.0,0.11965050145508002,-20.0,-17.699806186678718,0.01380582709097077,-0.10553787820653211,-0.07976700097005335,0.0
1750157927.4914074,-0.019941750242513337,1.2547962844904545,0.8559612796401878,-0.0015339807878856412,0.13192234775816514,0.09970875121256667,0.0,-0.019941750242513337,0.5,0.5,-0.0015339807878856412,0.13192234775816514,0.09970875121256667,0.0,0.0,0.0,-0.23009711818284817,0.0,0.0,0.0,0.0,0.11965050145508002,-20.0,-17.024854640009064,0.01380582709097077,-0.10553787820653211,-0.07976700097005335,0.0
1750157927.5115175,-0.019941750242513337,1.2547962844904545,0.8513593372765309,-0.0015339807878856412,0.13192234775816514,0.09970875121256667,-0.0015339807878856412,-0.019941750242513337,0.5,0.5,-0.0015339807878856412,0.13192234775816514,0.09970875121256667,-0.0015339807878856412,0.0,0.0,-0.23009711818284262,0.0,0.0,0.0,-0.07669903939428206,0.11965050145508002,-20.0,-17.024854640009014,0.01380582709097077,-0.10553787820653211,-0.07976700097005335,0.0
1750157927.5314903,-0.021475731030398976,1.2547962844904545,0.8467573949128739,-0.0015339807878856412,0.13345632854605077,0.09970875121256667,0.0,-0.021475731030398976,0.5,0.5,-0.0015339807878856412,0.13345632854605077,0.09970875121256667,0.0,-0.07669903939428196,0.0,-0.23009711818284817,0.0,0.0766990393942818,0.0,0.07669903939428206,-0.177941771394734,-20.0,-17.024854640009064,0.01380582709097077,-0.01472621556370246,-0.07976700097005335,0.0
1750157927.551479,-0.021475731030398976,1.2547962844904545,0.842155452549217,-0.0030679615757712823,0.13345632854605077,0.09970875121256667,0.0,-0.021475731030398976,0.5,0.5,-0.0030679615757712823,0.13345632854605077,0.09970875121256667,0.0,0.0,0.0,-0.23009711818284817,-0.07669903939428206,0.0,0.0,0.0,0.12885438618239387,-20.0,-17.024854640009064,-0.20248546400090464,-0.10676506283684062,-0.07976700097005335,0.0
1750157927.5714216,-0.021475731030398976,1.2547962844904545,0.8390874909734457,-0.0030679615757712823,0.13345632854605077,0.09970875121256667,-0.0015339807878856412,-0.021475731030398976,0.5,0.5,-0.0030679615757712823,0.13345632854605077,0.09970875121256667,-0.0015339807878856412,0.0,0.0,-0.1533980787885636,0.0,0.0,0.0,-0.07669903939428206,0.12885438618239387,-20.0,-16.34990309333936,0.02761165418194154,-0.10676506283684062,-0.07976700097005335,0.0
1750157927.5914147,-0.023009711818284616,1.2517283229146832,0.8360195293976744,-0.0015339807878856412,0.13345632854605077,0.09970875121256667,0.0,-0.023009711818284616,0.5,0.5,-0.0015339807878856412,0.13345632854605077,0.09970875121256667,0.0,-0.07669903939428196,-0.15339807878856915,-0.1533980787885636,0.07669903939428206,0.0,0.0,0.07669903939428206,-0.16873788666742018,-18.15922305453717,-16.34990309333936,0.24390294527381695,-0.10676506283684062,-0.07976700097005335,0.0
1750157927.6114578,-0.023009711818284616,1.2517283229146832,0.8314175870340175,-0.0030679615757712823,0.1349903093339364,0.09970875121256667,0.0,-0.023009711818284616,0.5,0.5,-0.0030679615757712823,0.1349903093339364,0.09970875121256667,0.0,0.0,0.0,-0.23009711818284817,-0.07669903939428206,0.0766990393942818,0.0,0.0,0.13805827090970768,-20.0,-17.024854640009064,-0.20248546400090464,-0.01595340019401098,-0.07976700097005335,0.0
1750157927.6314723,-0.02454369260617026,1.2501943421267976,0.8268156446703606,-0.0030679615757712823,0.1349903093339364,0.09970875121256667,-0.0015339807878856412,-0.02454369260617026,0.5,0.5,-0.0030679615757712823,0.1349903093339364,0.09970875121256667,-0.0015339807878856412,-0.07669903939428215,-0.07669903939427902,-0.23009711818284262,0.0,0.0,0.0,-0.07669903939428206,-0.15953400194010703,-19.07961152726865,-17.024854640009014,0.02761165418194154,-0.10799224746714914,-0.07976700097005335,0.0
1750157927.6524546,-0.02454369260617026,1.2471263805510262,0.8222137023067037,-0.0030679615757712823,0.1349903093339364,0.09970875121256667,0.0,-0.02454369260617026,0.5,0.5,-0.0030679615757712823,0.1349903093339364,0.09970875121256667,0.0,0.0,-0.15339807878856915,-0.23009711818284817,0.0,0.0,0.0,0.07669903939428206,0.14726215563702155,-18.15922305453717,-17.024854640009064,0.02761165418194154,-0.10799224746714914,-0.07976700097005335,0.0
1750157927.672441,-0.0260776733940559,1.2455923997631406,0.8191457407309324,-0.0030679615757712823,0.1349903093339364,0.09970875121256667,0.0,-0.0260776733940559,0.5,0.5,-0.0030679615757712823,0.1349903093339364,0.09970875121256667,0.0,-0.07669903939428215,-0.07669903939427902,-0.1533980787885636,0.0,0.0,0.0,0.0,-0.1503301172127932,-19.07961152726865,-16.34990309333936,0.02761165418194154,-0.10799224746714914,-0.07976700097005335,0.0
1750157927.6924598,-0.02761165418194154,1.244058418975255,0.8160777791551611,-0.0030679615757712823,0.13652429012182207,0.09970875121256667,0.0,-0.02761165418194154,0.5,0.5,-0.0030679615757712823,0.13652429012182207,0.09970875121256667,0.0,-0.07669903939428196,-0.07669903939427902,-0.1533980787885636,0.0,0.07669903939428319,0.0,0.0,-0.14112623248547862,-19.07961152726865,-16.34990309333936,0.02761165418194154,-0.017180584824317835,-0.07976700097005335,0.0
1750157927.7126231,-0.02761165418194154,1.2425244381873692,0.8145437983672754,-0.0030679615757712823,0.13652429012182207,0.10124273200045232,0.0,-0.02761165418194154,0.5,0.5,-0.0030679615757712823,0.13652429012182207,0.10124273200045232,0.0,0.0,-0.07669903939429012,-0.07669903939428457,0.0,0.0,0.07669903939428249,0.0,0.16566992509164924,-19.07961152726852,-15.674951546669705,0.02761165418194154,-0.10921943209745766,0.011044661672777123,0.0
1750157927.732514,-0.02761165418194154,1.2409904573994837,0.8145437983672754,-0.0030679615757712823,0.13652429012182207,0.10124273200045232,-0.0015339807878856412,-0.02761165418194154,0.5,0.5,-0.0030679615757712823,0.13652429012182207,0.10124273200045232,-0.0015339807878856412,0.0,-0.07669903939427902,0.0,0.0,0.0,0.0,-0.07669903939428206,0.16566992509164924,-19.07961152726865,-15.0,0.02761165418194154,-0.10921943209745766,-0.08099418560036187,0.0
1750157927.752501,-0.02914563496982718,1.239456476611598,0.8130098175793898,0.0015339807878856412,0.13652429012182207,0.10277671278833796,-0.0015339807878856412,-0.02914563496982718,0.5,0.5,0.0015339807878856412,0.13652429012182207,0.10277671278833796,-0.0015339807878856412,-0.07669903939428196,-0.07669903939427902,-0.07669903939427902,0.23009711818284617,0.0,0.0766990393942818,0.0,-0.1319223477581648,-19.07961152726865,-15.674951546669657,0.6764855274575677,-0.10921943209745766,0.00981747704246777,0.0
