ashok-ga/fk_ik/fk/gravity_hold_log.csv
time,q0,q1,q2,q3,q4,q5,q6,tau_g0,tau_g1,tau_g2,tau_g3,tau_g4,tau_g5,tau_g6
1750422923.309406,0.0,0.0,0.0,0.0015339807878856412,0.0,-0.0030679615757712823,0.0,4.094359467893445e-19,1.3253365556538923,-13.171342097103292,0.6288471107426825,2.8859592886172533e-05,-0.019621293232286806,3.05647326361595e-05
1750422923.3252618,0.0,0.0,0.0,0.0015339807878856412,0.0,-0.0030679615757712823,0.0,4.094359467893445e-19,1.3253365556538923,-13.171342097103292,0.6288471107426825,2.8859592886172533e-05,-0.019621293232286806,3.05647326361595e-05
1750422923.3413234,0.0,0.0,0.0,0.0015339807878856412,0.0,-0.0046019423636569235,0.0015339807878856412,-1.3844226711788784e-18,1.3259040454376616,-13.170774607319522,0.6288644318027913,2.9729978748182882e-05,-0.020188782812149045,3.7237827173980505e-05
1750422923.3733158,0.0,0.0,0.0,0.0015339807878856412,0.0,-0.006135923151542565,0.0015339807878856412,-1.5568077794615622e-18,1.3264648714668943,-13.17021378129029,0.628864398663023,3.059014374322917e-05,-0.020749608180655264,4.3867777415944125e-05
1750422923.3893754,0.0,0.0,0.0,0.0030679615757712823,0.0,-0.006135923151542565,0.0015339807878856412,2.3061410539620368e-18,1.326448048299493,-13.170230604457693,0.627763028531674,6.115419625339308e-05,-0.0207495574806189,6.121557850996467e-05
1750422923.4053545,0.0,0.0,0.0,0.0046019423636569235,0.0,-0.007669903939428206,0.0,4.5149389428674176e-18,1.3269854166926147,-13.169693236064571,0.6266427249649202,9.424190681249331e-05,-0.021303627761981293,8.509056889652005e-05
1750422923.421321,0.0,0.0,0.0,0.0046019423636569235,0.0,-0.007669903939428206,0.0,4.5149389428674176e-18,1.3269854166926147,-13.169693236064571,0.6266427249649202,9.424190681249331e-05,-0.021303627761981293,8.509056889652005e-05
1750422923.45336,0.0015339807878856412,0.0,0.0,0.0046019423636569235,0.0,-0.009203884727313847,0.0015339807878856412,3.900953735552868e-18,1.3275527589100355,-13.16912589384715,0.6266599704908467,9.685237934008555e-05,-0.021870965357109137,9.182298592577784e-05
1750422923.4693599,0.0,0.0,0.0,0.0046019423636569235,0.0,-0.009203884727313847,0.0015339807878856412,3.900953735552868e-18,1.3275527589100355,-13.16912589384715,0.6266599704908467,9.685237934008555e-05,-0.021870965357109137,9.182298592577784e-05
1750422923.4853284,0.0,0.0,0.0,0.006135923151542565,0.0,-0.010737865515199488,0.0,-3.576977632141617e-18,1.3280900559032704,-13.168588596853915,0.625538077237321,0.00013248324417331254,-0.02242488660638817,0.0001156545379893934
1750422923.5172136,0.0,-0.0015339807878856412,0.0,0.006135923151542565,0.0,-0.01227184630308513,0.0015339807878856412,-3.9196770829086345e-18,1.3339143711915318,-13.166189529738208,0.6255712895564682,0.0011080329546306646,-0.022431492274717444,0.00011580195463698875
1750422923.533268,0.0,-0.0030679615757712823,0.0,0.006135923151542565,0.0,-0.01380582709097077,0.0,3.4032499041103393e-18,1.3397223710983934,-13.163772657858768,0.6255683184351831,0.002083445477065014,-0.022424865467753376,0.00011565768070588916
1750422923.5494456,0.0,-0.0046019423636569235,0.0,0.006135923151542565,0.0,-0.015339807878856412,0.0015339807878856412,7.349676423018537e-19,1.3455405009381547,-13.161311527921644,0.625598576808002,0.0030590405713153204,-0.022431471138085215,0.00011580476777748352
1750422923.5652611,0.0,-0.006135923151542565,0.0,0.006135923151542565,0.0,-0.01687378866674205,0.0,-4.336808689942018e-19,1.3513422873855965,-13.158832605352707,0.6255926503950494,0.004034387347176533,-0.02242484433333643,0.00011566016985323967
1750422923.5974486,0.0,-0.007669903939428206,0.0,0.006135923151542565,0.0,-0.018407769454627694,0.0015339807878856412,9.408585022185889e-18,1.3571541770763775,-13.156309435697281,0.6256199545400388,0.005010018544973634,-0.022431450006071035,0.0001158069277218744
1750422923.6132789,0.0,-0.007669903939428206,0.0,0.006135923151542565,0.0,-0.018407769454627694,0.0,4.204414594255468e-18,1.3571475617554891,-13.15631605101817,0.6256026003391095,0.005009844846995305,-0.02242483376795831,0.0001156611693331172
1750422923.629325,0.0,-0.009203884727313847,0.0,0.006135923151542565,0.0,-0.018407769454627694,0.0,1.6023293802902573e-18,1.3623890196948425,-13.154329161532345,0.6256112529380543,0.0059818522368211445,-0.021864158069247252,0.00010905902721185602
1750422923.6613681,0.0,-0.009203884727313847,0.0,0.006135923151542565,0.0,-0.018407769454627694,0.0015339807878856412,5.0717763322438715e-18,1.3623956352802784,-13.15432254594691,0.6256286073790065,0.005982052557256079,-0.021870774408560535,0.0001091781635197027
1750422923.6772578,0.0,-0.009203884727313847,0.0,0.0046019423636569235,0.0,-0.019941750242513337,0.0,1.867117571663357e-18,1.3629576189228514,-13.153760562304338,0.6267158829788368,0.00594704650011787,-0.02242498305174944,9.830246773309665e-05
1750422923.6934268,0.0,-0.010737865515199488,0.0,0.0046019423636569235,0.0,-0.019941750242513337,0.0015339807878856412,6.8064998082206786e-18,1.3682010649727854,-13.151737525467794,0.6267404308785566,0.006919256210739836,-0.021870923749391716,9.182924824773718e-05
1750422923.7093718,0.0015339807878856412,-0.010737865515199488,0.0,0.0030679615757712823,0.0,-0.019941750242513337,0.0015339807878856412,-2.6020852139652106e-18,1.3682075266217648,-13.151731063818815,0.6278437790304865,0.006880975536663175,-0.021871037966906086,7.447951346947635e-05
1750422923.7413266,0.0,-0.01380582709097077,0.0,0.0030679615757712823,0.0,-0.019941750242513337,0.0,-7.349676423018537e-19,1.3786619478608069,-13.147614953054793,0.6278364037694031,0.008824702976303965,-0.02074291711663065,6.113416101089906e-05
1750422923.757262,0.0,-0.015339807878856412,0.0,0.0015339807878856412,0.0,-0.018407769454627694,0.0015339807878856412,6.203926261605375e-18,1.3833353864567242,-13.14605940080585,0.628958470952813,0.009757759326798563,-0.01962790333285585,3.061035581306106e-05
1750422923.7732527,0.0,-0.01687378866674205,0.0,0.0015339807878856412,0.0,-0.018407769454627694,0.0015339807878856412,-3.469446951953614e-18,1.3885562639014992,-13.143922220638633,0.6289597696693833,0.010729699853373593,-0.019066983611422204,2.3980355592723423e-05
1750422923.7893524,0.0,-0.018407769454627694,0.0,0.0015339807878856412,0.0,-0.019941750242513337,0.0,2.6478819137309964e-19,1.3943282217653503,-13.141199763726679,0.6289421880114034,0.0117021450769382,-0.019060366222906966,2.396386995685243e-05
1750422923.8212428,0.0,-0.021475731030398976,0.0,0.0,0.0015339807878856412,-0.019941750242513337,0.0015339807878856412,9.878764473114643e-18,1.4037845368676938,-13.137739832928576,0.6300927484841656,0.01360869424851043,-0.017945042301748305,-6.257360483043649e-06
1750422923.837333,0.0,-0.02454369260617026,0.0,0.0,0.0015339807878856412,-0.018407769454627694,0.0,-3.2046587605805146e-18,1.413626155129713,-13.133757728605318,0.6300637819292288,0.01555198018017429,-0.016255154520780378,-2.598738853381922e-05
1750422923.8532248,0.0,-0.02761165418194154,0.0,0.0015339807878856412,0.0015339807878856412,-0.019941750242513337,0.0,6.938893903907228e-18,1.4245931229447493,-13.128513349211595,0.6289475845516507,0.01753236549853146,-0.015694823412730062,-1.5167743862814074e-05
1750422923.8852715,0.0,-0.030679615757712823,0.0,0.0015339807878856412,0.0015339807878856412,-0.019941750242513337,0.0,1.4699352846037075e-18,1.4349787043564262,-13.123713376840595,0.6289250217237174,0.019475733056001202,-0.014572377136269132,-2.8321411106650413e-05
1750422923.9013183,0.0,-0.035281558121369745,0.0,0.0015339807878856412,0.0015339807878856412,-0.018407769454627694,0.0015339807878856412,3.469446951953614e-18,1.449976940633726,-13.116836603132926,0.6288966264877316,0.022390167893999054,-0.012333699579943451,-5.4957241840181435e-05
1750422923.917272,0.0,-0.03681553890925539,0.0,0.0015339807878856412,0.0,-0.018407769454627694,0.0,-0.0,1.4561192592644536,-13.113332892866303,0.6288246242311119,0.023361147782867565,-0.011764809347865002,-6.187949920751529e-05
1750422923.9332635,0.0,-0.04141748127291231,0.0,0.0,0.0,-0.018407769454627694,0.0015339807878856412,9.878764473114643e-18,1.4716144661238806,-13.105547786697354,0.6298793319212818,0.026238296023382342,-0.010087086235718155,-9.944203829475543e-05
1750422923.9653156,-0.0015339807878856412,-0.04295146206079795,0.0,0.0015339807878856412,0.0,-0.019941750242513337,0.0,3.469446951953614e-18,1.4773561597751121,-13.102307531650542,0.6287380236593855,0.027247063816725155,-0.010080448414262162,-8.168792517430811e-05
1750422923.9813168,-0.0015339807878856412,-0.04601942363656923,0.0,0.0,0.0,-0.019941750242513337,0.0015339807878856412,3.469446951953614e-18,1.4876521341206566,-13.09691150663743,0.6298031836951767,0.029151706924106374,-0.008964058082725518,-0.00011269814789458191
1750422923.9975026,-0.0015339807878856412,-0.047553404424454875,0.0,0.0,0.0,-0.018407769454627694,0.0015339807878856412,3.469446951953614e-18,1.4922423125915696,-13.094719827364468,0.6297748368945615,0.03012270974420153,-0.007840945556604258,-0.00012595319673651965
1750422924.0292015,-0.0030679615757712823,-0.04908738521234052,0.0,0.0,0.0,-0.018407769454627694,0.0015339807878856412,-0.0,1.4973905260492826,-13.09193578857375,0.6297450081729211,0.03109364168265092,-0.007279360957080485,-0.00013258028438486815
1750422924.045252,-0.0030679615757712823,-0.0521553467881118,0.0,0.0,0.0,-0.018407769454627694,0.0015339807878856412,-2.37565522809291e-17,1.5076763703450937,-13.0862752978473,0.6296809052508111,0.03303528377599799,-0.0061561416924175785,-0.00014583350816547408
1750422924.0613348,-0.0030679615757712823,-0.056757289151768725,0.0,0.0,0.0,-0.018407769454627694,0.0,6.938893903907228e-18,1.5230718868963455,-13.077560241215291,0.6295562963350297,0.035946173675471614,-0.0044645955753274446,-0.0001650453231501223
1750422924.0772417,-0.0030679615757712823,-0.05829126993965436,0.0,0.0,0.0,-0.019941750242513337,0.0,1.6817658377021872e-17,1.5287604454548043,-13.074029796140126,0.6295175787497918,0.03691660577282409,-0.004464595575327443,-0.00016504532315012233
1750422924.10928,-0.0046019423636569235,-0.06289321230331128,0.0,0.0,0.0,-0.018407769454627694,0.0015339807878856412,9.878764473114643e-18,1.5435644385039065,-13.065493952976121,0.6294098759639624,0.03982846253898897,-0.0022244873419909866,-0.00019220816333820809
1750422924.1252012,-0.0046019423636569235,-0.0674951546669682,0.0,0.0,0.0015339807878856412,-0.018407769454627694,0.0015339807878856412,2.0816681711721685e-17,1.5579209162611027,-13.057096236859206,0.6293081984682019,0.04274094273689914,-0.0005394166574317306,-0.00021090602711554935
1750422924.141291,-0.0046019423636569235,-0.07056311624273949,0.0,0.0,0.0,-0.018407769454627694,0.0015339807878856412,2.0816681711721685e-17,1.5690900497127838,-13.049727666221889,0.6291718500140516,0.04467796715484101,0.0005840206600465107,-0.00022531966031469607
1750422924.1572363,-0.0046019423636569235,-0.07516505860639641,0.0,0.0015339807878856412,0.0,-0.018407769454627694,0.0015339807878856412,1.4936940573306855e-17,1.5844169050882848,-13.03984364821842,0.6279127289200104,0.04762383851788908,0.0022691416913150665,-0.00022785890019583188
1750422924.1892085,-0.0046019423636569235,-0.07976700097005335,0.0,0.0,0.0,-0.018407769454627694,0.0,-7.998046669399627e-18,1.5995922044102775,-13.029801476074748,0.6288200422071479,0.05049249535380158,0.003960774665361981,-0.0002639715431301251
1750422924.2052646,-0.0046019423636569235,-0.0859029241215959,0.0,0.0015339807878856412,0.0,-0.015339807878856412,0.0015339807878856412,-1.2818635042322058e-17,1.6188056916175904,-13.016950200079801,0.6274870693008169,0.054404477632978926,0.007324005940197484,-0.0002874197743094145
1750422924.221239,-0.0046019423636569235,-0.09050486648525283,0.0,0.0,0.0,-0.01380582709097077,0.0,1.3877787807814457e-17,1.6333296885040727,-13.00683626183842,0.6283624967005541,0.057272098600096986,0.009576798524871276,-0.00032984794625688267
1750422924.2532556,-0.0046019423636569235,-0.0966407896367954,0.0,0.0,0.0,-0.01380582709097077,0.0015339807878856412,2.7755575615628914e-17,1.6534933895816346,-12.992070328368868,0.6280858105648104,0.06114491749384125,0.011816057029307079,-0.00035761363295039875
1750422924.2692704,-0.006135923151542565,-0.10124273200045232,0.0,0.0,0.0,-0.01227184630308513,0.0015339807878856412,-1.3877787807814457e-17,1.6680090988425293,-12.981241100737224,0.6278497950996172,0.06404685244389673,0.014061467957234383,-0.0003840360181665101
1750422924.2852683,-0.006135923151542565,-0.10584467436410924,0.0,0.0,0.0,-0.010737865515199488,0.0015339807878856412,-2.5637270084644116e-17,1.6824897148949032,-12.970136726893754,0.6276004831343411,0.06694743102020564,0.01630634947884068,-0.0004104439446435957
1750422924.3012018,-0.006135923151542565,-0.1119805975156518,0.0,0.0,0.0,-0.010737865515199488,0.0015339807878856412,-2.7755575615628914e-17,1.7024900856687295,-12.954155295108261,0.6272473929023422,0.07081265303972023,0.018550617075605465,-0.0004368364181381493
1750422924.3333342,-0.006135923151542565,-0.11658253987930872,0.0,0.0,0.0015339807878856412,-0.009203884727313847,0.0,-3.3635316754043743e-17,1.7159154738382933,-12.9433819904641,0.6269812240818771,0.07371148162173394,0.0208007148636328,-0.0004593324907822238
1750422924.3493845,-0.0046019423636569235,-0.1227184630308513,0.0,0.0,0.0,-0.009203884727313847,0.0015339807878856412,1.9757528946229287e-17,1.736775429041451,-12.92557521222357,0.6265726686742392,0.07757028889076502,0.023036972539279485,-0.0004895710321520272
1750422924.3652956,-0.006135923151542565,-0.12732040539450823,0.0,0.0,0.0015339807878856412,-0.009203884727313847,0.0015339807878856412,-5.87974113841483e-18,1.7506842689000637,-12.913593991419912,0.6262927729260052,0.08046773626385435,0.02471844307992855,-0.0005071241997853487
1750422924.3812952,-0.006135923151542565,-0.13192234775816514,0.0,0.0,0.0015339807878856412,-0.009203884727313847,0.0015339807878856412,2.118305530984797e-18,1.7655208135240663,-12.90037450816871,0.6259682058569648,0.08335961345523762,0.02639944278047126,-0.0005267911134516231
1750422924.4134228,-0.006135923151542565,-0.13652429012182207,0.0,0.0,0.0,-0.009203884727313847,0.0015339807878856412,-2.7755575615628914e-17,1.7812830140021672,-12.885918777135394,0.6255990231460344,0.08624542685837924,0.02807994192834868,-0.0005488089502928009
1750422924.4292593,-0.006135923151542565,-0.14112623248547898,0.0,0.0,0.0,-0.009203884727313847,0.0,-0.0,1.796037287098462,-12.87216035388767,0.6252307446845792,0.08913112696845776,0.02976634908498921,-0.0005662493057642947
1750422924.4452708,-0.006135923151542565,-0.14419419406125028,-0.0015339807878856412,0.0,0.0,-0.009203884727313847,0.0015339807878856412,-2.118305530984797e-18,1.8105727559818665,-12.858116207775463,0.624883670503589,0.09201982178157614,0.03143900749306609,-0.0005882434797652624
1750422924.477271,-0.006135923151542565,-0.14572817484913592,0.0,-0.0015339807878856412,0.0,-0.009203884727313847,0.0015339807878856412,-0.0,1.8106428961631198,-12.858239953985429,0.6259732895793841,0.09198774630503069,0.03143902556658893,-0.0006054511997054382
1750422924.4933207,-0.006135923151542565,-0.1487961364249072,0.0,-0.0015339807878856412,0.0,-0.009203884727313847,0.0,2.118305530984797e-18,1.8204273165187934,-12.848739754142263,0.6257054302476285,0.09390828651843305,0.03256468867246467,-0.0006161734880404646
1750422924.5092719,-0.006135923151542565,-0.1487961364249072,0.0,-0.0030679615757712823,0.0,-0.010737865515199488,0.0015339807878856412,6.515232797710269e-17,1.8208664735413236,-12.848300597119737,0.6268104200136047,0.0938770556840573,0.03199867539386299,-0.0006292127133182142
1750422924.5252707,-0.006135923151542565,-0.15033011721279282,0.0,-0.0030679615757712823,0.0,-0.01380582709097077,0.0,-8.326672684688674e-17,1.8268665508961575,-12.842390853217397,0.6266656155319421,0.09483229520791461,0.03144564274078631,-0.0006202961380498285
1750422924.557302,-0.006135923151542565,-0.15033011721279282,0.0,-0.0030679615757712823,0.0,-0.015339807878856412,0.0015339807878856412,-2.987388114661371e-17,1.8274327659970715,-12.841824638116483,0.6266828991948905,0.0948331698387902,0.030879423216941086,-0.0006160690759619281
1750422924.573344,-0.007669903939428206,-0.1487961364249072,0.0,-0.0046019423636569235,0.0015339807878856412,-0.015339807878856412,0.0,5.127454016928823e-17,1.8214504486950385,-12.847716621966022,0.627914628934551,0.09384349922426645,0.0303288381998763,-0.0006218829006132471
1750422924.5893812,-0.009203884727313847,-0.15033011721279282,0.0,-0.0046019423636569235,0.0,-0.01687378866674205,0.0015339807878856412,1.175948227682966e-17,1.8278638996150476,-12.841393504498509,0.6277691942473609,0.09479509651533305,0.030319792846910578,-0.0006266959161496932
1750422924.6053464,-0.010737865515199488,-0.1487961364249072,0.0,-0.006135923151542565,0.0,-0.01687378866674205,0.0,-6.727063350808749e-17,1.8228442589416303,-12.846322811719428,0.628964922345684,0.09379492501122857,0.02976669037955853,-0.0006350925890785252
1750422924.6373453,-0.010737865515199488,-0.1487961364249072,0.0,-0.006135923151542565,0.0,-0.01687378866674205,0.0015339807878856412,-9.50262091237164e-17,1.8228508042452876,-12.846316266415771,0.6289821279110418,0.09379745765872463,0.02976013125273856,-0.0006373352684078204
1750422924.6534026,-0.010737865515199488,-0.14572817484913592,0.0,-0.006135923151542565,0.0,-0.01687378866674205,0.0015339807878856412,1.3877787807814457e-17,1.8130694141526376,-12.855813435995909,0.629234087128798,0.09187430918774714,0.02864030061707673,-0.0006242152851427779
1750422924.6692808,-0.010737865515199488,-0.14266021327336462,0.0,-0.006135923151542565,0.0,-0.01687378866674205,0.0,9.29079035927316e-17,1.8032644075914512,-12.86519615293259,0.6294629045678408,0.08994786870760647,0.027526764751713777,-0.0006089523874405629
1750422924.701283,-0.010737865515199488,-0.1380582709097077,0.0,-0.006135923151542565,0.0015339807878856412,-0.01687378866674205,0.0,1.3877787807814457e-17,1.7875720795265901,-12.879996176025799,0.6298565538821652,0.08707120403651541,0.025849490387318628,-0.0005869824333271141
1750422924.717238,-0.01227184630308513,-0.1303883669702795,0.0,-0.006135923151542565,0.0015339807878856412,-0.01687378866674205,0.0,4.163336342344337e-17,1.7629379278279278,-12.902452882065656,0.630423500608743,0.0822543321426364,0.023047249691361585,-0.0005543865154144735
1750422924.7333355,-0.01227184630308513,-0.11811652066719437,0.0,-0.006135923151542565,0.0015339807878856412,-0.018407769454627694,0.0,1.3877787807814457e-17,1.7238691788384752,-12.936243326512233,0.631254492569564,0.07453407059252715,0.017999919562310146,-0.0004955960060546463
1750422924.749398,-0.01380582709097077,-0.10277671278833796,0.0,-0.006135923151542565,0.0,-0.018407769454627694,0.0015339807878856412,6.727063350808749e-17,1.674941643584075,-12.975468444778162,0.632138840830898,0.06486425539209227,0.012377808423597701,-0.0004333689750980021
1750422924.7812831,-0.01380582709097077,-0.0859029241215959,0.0,-0.006135923151542565,0.0015339807878856412,-0.019941750242513337,0.0015339807878856412,-5.87974113841483e-18,1.6191906219729764,-13.016565269724415,0.6329989312500255,0.054224748145729945,0.00564289517707342,-0.00035267561826721807
1750422924.797497,-0.01380582709097077,-0.06902913545485385,0.0,-0.0046019423636569235,0.0,-0.023009711818284616,0.0,5.87974113841483e-18,1.5655208957758253,-13.051413736281226,0.6324933289656417,0.043586946908140606,-0.0016559640694661943,-0.00025004524516771784
1750422924.8133314,-0.01380582709097077,-0.05368932757599744,0.0,-0.0046019423636569235,0.0,-0.02761165418194154,0.0,-1.4936940573306855e-17,1.5160715944728298,-13.08014124173803,0.6329202010289025,0.03387712626457126,-0.008957208525434844,-0.00016429310549612896
1750422924.845245,-0.01380582709097077,-0.03834951969714103,0.0,-0.0030679615757712823,0.0015339807878856412,-0.032213596545598466,0.0015339807878856412,3.069544618483633e-17,1.4653196085898221,-13.106736868576771,0.6321639195799353,0.024209924772093532,-0.01625994758239433,-6.056823569418675e-05
1750422924.861278,-0.01380582709097077,-0.018407769454627694,0.0,-0.0015339807878856412,0.0,-0.04141748127291231,0.0,-3.469446951953614e-18,1.4021745706113626,-13.133353414880666,0.6311423043048672,0.01161344868422768,-0.02690855158473269,8.168215573789442e-05
1750422924.877228,-0.01380582709097077,-0.0015339807878856412,0.0,0.0,0.0015339807878856412,-0.04908738521234052,0.0,-4.662069341687669e-18,1.3464343528320528,-13.153669548097689,0.6300169577768829,0.0009721223143663772,-0.035862542904537616,0.00020465586924140443
1750422924.893359,-0.01380582709097077,0.018407769454627694,0.0,0.0,0.0015339807878856412,-0.05829126993965436,0.0,-7.203682095280328e-18,1.2812498104745305,-13.171667507020057,0.6296968269269326,-0.011664908202176978,-0.04646686555541926,0.00032952830386051595
1750422924.9253354,-0.01380582709097077,0.03834951969714103,0.0,0.0,0.0,-0.0674951546669682,0.0015339807878856412,-2.0816681711721685e-17,1.216512729144747,-13.183470654573416,0.6290795254553581,-0.0242957095747008,-0.057038315015100996,0.00045662003446672616
1750422924.941229,-0.01380582709097077,0.05829126993965436,0.007669903939428206,0.0015339807878856412,0.0,-0.0782330201821677,0.0015339807878856412,-4.4573233992650785e-17,1.1479658478184684,-13.193357301501969,0.6267702988045448,-0.04169789880643705,-0.07086413042488383,0.000638357342214836
1750422924.957289,-0.01227184630308513,0.08130098175793898,0.023009711818284616,0.0030679615757712823,0.0,-0.08743690490948154,0.0,1.0116352200384424e-17,1.0739881756514444,-13.192565152850744,0.6231855073461171,-0.0658280245509398,-0.08785458025920581,0.0008548425072935211
1750422924.9733407,-0.01380582709097077,0.09817477042468103,0.044485442848683596,0.0046019423636569235,0.0015339807878856412,-0.08897088569736719,0.0,4.163336342344337e-17,1.0307533941699152,-13.17616595970486,0.6187858268307532,-0.08988103854772969,-0.10196088716215629,0.0010371983337111508
1750422925.0053566,-0.01380582709097077,0.11658253987930872,0.06442719309119693,0.0030679615757712823,0.0,-0.09357282806102411,0.0015339807878856412,-5.339284570027303e-17,1.000149280950287,-13.137102179018115,0.6155263414802687,-0.11392277201896485,-0.11697208142467254,0.0012059407600938802
1750422925.0212953,-0.01380582709097077,0.1349903093339364,0.08283496254582462,0.0046019423636569235,0.0,-0.0966407896367954,0.0,-8.114842131590194e-17,0.9795573775237512,-13.083235973029598,0.6094588401892761,-0.1367040945019216,-0.13070794684313383,0.0013821453056694067
1750422925.0373433,-0.01380582709097077,0.1518640980006785,0.0966407896367954,0.007669903939428206,0.0,-0.09817477042468103,0.0,-4.163336342344337e-17,0.964844589030212,-13.025508941972829,0.6025489568826656,-0.1554594274762617,-0.14165603973591118,0.0015464004628614723
1750422925.0693142,-0.01227184630308513,0.17027186745530618,0.11351457830353745,0.007669903939428206,0.0,-0.09970875121256667,0.0015339807878856412,3.9515057892458573e-17,0.9632418945157344,-12.943544178670045,0.596400050296935,-0.17703286952227162,-0.15399463697504903,0.0017000175879660227
1750422925.0852306,-0.01380582709097077,0.18867963690993386,0.1303883669702795,0.010737865515199488,0.0,-0.10124273200045232,0.0015339807878856412,-1.5053736035497423e-16,0.9723826113046408,-12.846123878619107,0.5873913397939593,-0.19822409010924658,-0.16611700596349183,0.0018782352113089799
1750422925.10132,-0.01227184630308513,0.20401944478879028,0.1487961364249072,0.01227184630308513,0.0015339807878856412,-0.10277671278833796,0.0015339807878856412,7.150724457005708e-17,1.0026754147111792,-12.73868674806664,0.5791612107376577,-0.21837586900043027,-0.17752987505184353,0.0020251546372791287
1750422925.1172695,-0.01380582709097077,0.2193592526676467,0.16720390587953488,0.01380582709097077,0.0015339807878856412,-0.1043106935762236,0.0,-1.5053736035497423e-16,1.0450810202360241,-12.61590340291379,0.5702030975562828,-0.23823730358460443,-0.18871032578299882,0.002166417490132576
1750422925.1492972,-0.01227184630308513,0.23776702212227438,0.18100973297050565,0.015339807878856412,0.0,-0.10584467436410924,0.0,5.551115123125783e-17,1.0758172494001577,-12.48447246493523,0.5609645085879159,-0.2568976007198935,-0.19918308308816202,0.002313495481767063
1750422925.1652985,-0.01227184630308513,0.2561747915769021,0.19481556006147643,0.018407769454627694,0.0,-0.1043106935762236,0.0,4.375166895442817e-17,1.1125872938576151,-12.342412991800309,0.5502524727902225,-0.27527742620849643,-0.20851224605184598,0.002455286185147391
1750422925.1813903,-0.01227184630308513,0.2745825610315298,0.21168934872821848,0.021475731030398976,0.0,-0.10584467436410924,0.0,-1.3030465595420538e-16,1.1739483554276853,-12.171203457581594,0.5381196478476297,-0.29508039392428975,-0.21944737915647433,0.0026153356056658945
1750422925.2133732,-0.01227184630308513,0.2945243112740431,0.22549517581918926,0.02454369260617026,0.0,-0.10584467436410924,0.0015339807878856412,2.351896455365932e-17,1.2272043445211267,-11.993843408268283,0.5258861500449846,-0.3136953787441721,-0.22921525453387293,0.002770232271845653
1750422925.229303,-0.01227184630308513,0.3144660615165564,0.24236896448593132,0.0260776733940559,0.0015339807878856412,-0.10584467436410924,0.0,-5.551115123125783e-17,1.306540421084459,-11.785145786671142,0.5131028666561956,-0.33373523475645755,-0.23957552705411897,0.00288704171830644
1750422925.2452912,-0.01227184630308513,0.3313398501832985,0.2561747915769021,0.02914563496982718,0.0,-0.10737865515199488,0.0,-1.942890293094024e-16,1.3804079101389206,-11.597750150775298,0.5007458721171528,-0.3498830582455264,-0.2483549835441621,0.0030274919881725804
1750422925.2612844,-0.010737865515199488,0.3466796580621549,0.2715145994557585,0.032213596545598466,0.0,-0.10737865515199488,0.0,1.1525891352448525e-16,1.470962875649216,-11.400780404106428,0.48806500052232077,-0.3657863478084881,-0.256488030072707,0.003149642473815538
1750422925.2931888,-0.010737865515199488,0.36355344672889695,0.2868544073346149,0.032213596545598466,0.0015339807878856412,-0.10737865515199488,0.0,2.1780799386306171e-16,1.5691102258278056,-11.1820795313137,0.4762812097370532,-0.3823404040197351,-0.26478572736459205,0.0032344180675923256
1750422925.3092618,-0.010737865515199488,0.380427235395639,0.3021942152134713,0.0337475773334841,0.0,-0.10737865515199488,0.0,-1.858158071854632e-16,1.6761809339285447,-10.950824807502078,0.4630000238434049,-0.3982778908952357,-0.272779167054326,0.003349780685084509
1750422925.3252728,-0.010737865515199488,0.3988350048502667,0.31600004230444206,0.03681553890925539,0.0015339807878856412,-0.10891263593988053,0.0,-1.0678569140054606e-16,1.7774113969504177,-10.71002188477125,0.4485673616468658,-0.4138869216217799,-0.2808765515825929,0.0034567666677441313
1750422925.3571217,-0.010737865515199488,0.41570879351700873,0.32980586939541284,0.03834951969714103,0.0015339807878856412,-0.10891263593988053,0.0,1.858158071854632e-16,1.8862859827914287,-10.469487708863538,0.4351615990092972,-0.42835399179178923,-0.28794912079472845,0.0035484486977611735
1750422925.3731945,-0.010737865515199488,0.4356505437595221,0.3466796580621549,0.039883500485026674,0.0015339807878856412,-0.10891263593988053,0.0,-8.326672684688674e-17,2.0278627185963476,-10.167780778493773,0.4187570521937837,-0.44519793077812025,-0.29607823858831966,0.0036506617575996375
1750422925.389206,-0.010737865515199488,0.45099035163837853,0.3604854851531257,0.039883500485026674,0.0015339807878856412,-0.11044661672776616,0.0,1.0254908033857647e-16,2.1508484135371035,-9.918314500647304,0.40601817981693156,-0.4581406644753298,-0.3025474780073173,0.003722149846568764
1750422925.4053013,-0.010737865515199488,0.4663301595172349,0.37429131224409645,0.04141748127291231,0.0,-0.11044661672776616,0.0,-4.703792910731864e-17,2.2790431119347456,-9.660799283859195,0.3921315404881369,-0.4705605158562843,-0.3084136415608967,0.003810427970757336
1750422925.4371831,-0.010737865515199488,0.4816699673960913,0.38809713933506723,0.039883500485026674,0.0,-0.11044661672776616,0.0,-1.6653345369377348e-16,2.4133551664904176,-9.394357205204717,0.3794650274257155,-0.4827858443938997,-0.3140367332549606,0.0038604076213391457
1750422925.4532008,-0.010737865515199488,0.4954757944870621,0.40343694721392365,0.039883500485026674,0.0015339807878856412,-0.1119805975156518,0.0,-1.0254908033857647e-16,2.56545319275834,-9.120965712926827,0.36578048610486213,-0.4946232468117068,-0.31967806968900025,0.003908510370422772
1750422925.469345,-0.010737865515199488,0.5092816215780329,0.41570879351700873,0.039883500485026674,0.0,-0.11351457830353745,0.0,-3.199218667759851e-17,2.6942738249851264,-8.868624208555994,0.35317096013614485,-0.5046817686885996,-0.3244732394340283,0.003974247277684254
1750422925.5012505,-0.010737865515199488,0.5246214294568893,0.4295146206079795,0.039883500485026674,0.0,-0.11658253987930872,0.0,2.9260149858600927e-16,2.8431066843612953,-8.579962194597925,0.33885263322455156,-0.5156114786191686,-0.3297697923016872,0.004031938870303729
1750422925.5172377,-0.010737865515199488,0.543029198911517,0.44638840927472156,0.04141748127291231,0.0,-0.11965050145508001,0.0,-3.199218667759851e-17,3.029971109461989,-8.221757687760254,0.32052572135750723,-0.5282134057341983,-0.33562693594958043,0.004104258120201432
1750422925.5332756,-0.010737865515199488,0.5568350260024878,0.4586602555778067,0.04141748127291231,0.0,-0.1227184630308513,0.0,1.1102230246251565e-16,3.170946097223216,-7.9497724648992865,0.30719803440430277,-0.5371399284190325,-0.33975006454260104,0.00414809839205023
1750422925.5493176,-0.010737865515199488,0.5706408530934585,0.47093210188089185,0.04141748127291231,0.0,-0.12578642460662257,0.0,1.815791961234936e-16,3.3151498452936368,-7.6724388968553905,0.29366170186743035,-0.5457032571276256,-0.3435846453758525,0.004188456375139157
1750422925.5813055,-0.010737865515199488,0.5829126993965437,0.48473792897186263,0.04141748127291231,0.0,-0.1303883669702795,0.0,-7.903011578491715e-17,3.477724353308895,-7.389767870399687,0.2799241842838353,-0.5538869170289394,-0.3473054825467224,0.004227702963967459
1750422925.5973182,-0.010737865515199488,0.5951845456996288,0.49854375606283335,0.039883500485026674,0.0,-0.1349903093339364,0.0,2.351896455365932e-17,3.6444217995817385,-7.101337301331292,0.2665046903115602,-0.5617422022602452,-0.35070120200005145,0.0042553476106
1750422925.6132615,-0.010737865515199488,0.607456392002714,0.5108156023659185,0.039883500485026674,0.0,-0.13959225169759334,0.0,2.351896455365932e-17,3.796124994498503,-6.826282711824379,0.2532059757674154,-0.5687442323580058,-0.3536198225944074,0.004285722984574095
1750422925.6452727,-0.010737865515199488,0.619728238305799,0.5246214294568893,0.04141748127291231,0.0,-0.14419419406125028,0.0,7.903011578491715e-17,3.9669563600535676,-6.530500256150887,0.23845410655762478,-0.5757708724016743,-0.35636601118472394,0.004320600249602367
1750422925.6613019,-0.010737865515199488,0.6350680461846554,0.5399612373357456,0.04141748127291231,0.0015339807878856412,-0.1518640980006785,0.0015339807878856412,-6.398437335519702e-17,4.162840745180869,-6.17620612603733,0.22150552256934994,-0.5837125600089449,-0.3593382743619039,0.004351081252528038
1750422925.6772215,-0.010737865515199488,0.6473398924877406,0.5537670644267164,0.04141748127291231,0.0,-0.15800002115222103,0.0,-1.815791961234936e-16,4.34062032776006,-5.869945301114413,0.2068486977854609,-0.5897921878060901,-0.36140923186864476,0.004370161308956646
1750422925.6932075,-0.010737865515199488,0.6611457195787114,0.5691068723055729,0.04141748127291231,0.0,-0.16260196351587797,0.0,-0.0,4.540567573635164,-5.523619629787543,0.19035709106930093,-0.5962770304133498,-0.36318701263296443,0.0043854061767557555
1750422925.7252898,-0.010737865515199488,0.6749515466696822,0.5829126993965437,0.04295146206079795,0.0,-0.16873788666742054,0.0,1.1102230246251565e-16,4.723787240898113,-5.192103324787922,0.17424822471812473,-0.6019143064817829,-0.3645496605638392,0.004401424932726218
1750422925.7412188,-0.010737865515199488,0.6887573737606529,0.5967185264875144,0.044485442848683596,0.0015339807878856412,-0.17487380981896308,0.0,2.351896455365932e-17,4.908646048949459,-4.857057931732985,0.15809982463375805,-0.6072321471989911,-0.3655034253343824,0.004394983068223723
1750422925.7572117,-0.010737865515199488,0.701029220063738,0.6120583343663708,0.04601942363656923,0.0,-0.18100973297050565,0.0,1.3454126701617497e-16,5.112739969859442,-4.5179013347866865,0.14182754709586368,-0.6118371348819485,-0.36602914003193743,0.004415820278848153
1750422925.7731142,-0.010737865515199488,0.7148350471547088,0.6258641614573416,0.04908738521234052,0.0,-0.1856116753341626,0.0,1.3454126701617497e-16,5.300348417511536,-4.1766147896151145,0.12529882570262102,-0.6160945601337317,-0.36614708217958924,0.004417522051179066
1750422925.8051713,-0.010737865515199488,0.7286408742456796,0.6396699885483124,0.0521553467881118,0.0,-0.1902136176978195,0.0,3.199218667759851e-17,5.489219685131259,-3.8322591358129507,0.10879885892192478,-0.6198985194266683,-0.36588558623695333,0.004412803938405867
1750422925.8213823,-0.010737865515199488,0.7409127205487647,0.6534758156392831,0.05522330836388308,0.0,-0.19634954084936207,0.0,5.551115123125783e-17,5.677183375891372,-3.504594660983884,0.09323273984605102,-0.6230650586147495,-0.3652446983966298,0.004402602296382344
1750422925.8372433,-0.010737865515199488,0.7547185476397354,0.6672816427302539,0.05829126993965436,0.0,-0.19941750242513334,0.0,7.903011578491715e-17,5.867982590171829,-3.1549803117663404,0.07683310790096728,-0.6259870991111971,-0.3642830936244375,0.004385429387432458
1750422925.869242,-0.010737865515199488,0.7669903939428205,0.6810874698212247,0.06289321230331128,0.0,-0.2055534255766759,0.0,3.199218667759851e-17,6.056563305072952,-2.82378589269335,0.06126920755248043,-0.6283010799777403,-0.36290381056830207,0.004364578612988845
1750422925.8852224,-0.010737865515199488,0.77772825945802,0.6918253353364242,0.06596117387908257,0.0,-0.21168934872821848,0.0,5.551115123125783e-17,6.205136739587669,-2.5493276847625292,0.04860282346803804,-0.629909501786216,-0.3614229351824246,0.00434081836940979
1750422925.901208,-0.010737865515199488,0.786932144185334,0.7025632008516236,0.07056311624273949,0.0,-0.21782527187976106,0.0,-7.903011578491715e-17,6.351203814012585,-2.2945554263487344,0.03682552402182759,-0.6311470429203471,-0.3597712862474495,0.0043154872027544545
1750422925.9172025,-0.010737865515199488,0.7946020481247621,0.7102331047910518,0.07363107781851078,0.0,-0.22242721424341796,0.0,-2.351896455365932e-17,6.456878390601508,-2.097733339179003,0.02786980739208645,-0.6319457124961786,-0.3583440806067146,0.004292436171155046
1750422925.9491982,-0.01227184630308513,0.8022719520641903,0.7163690279425944,0.07669903939428206,0.0,-0.2270291566070749,0.0,-0.0,6.542532217003922,-1.9204287588705669,0.019858189937267463,-0.6325464050502003,-0.35690061487009445,0.00426910947125441
1750422925.9652448,-0.01380582709097077,0.8068738944278473,0.722504951094137,0.07976700097005335,0.0,-0.22856313739496054,0.0015339807878856412,1.6653345369377348e-16,6.625213424518021,-1.7825177838801505,0.013658088061488483,-0.6329552172536692,-0.35587054254114925,0.004268183367274105
1750422925.981303,-0.01380582709097077,0.8114758367915041,0.7271068934577939,0.08283496254582462,0.0,-0.23009711818284617,0.0,1.3454126701617497e-16,6.687910728927952,-1.664412654440032,0.008377396042489575,-0.6332204831180689,-0.35492787413632765,0.004234535211365939
1750422926.0131247,-0.01380582709097077,0.8145437983672754,0.7301748550335652,0.08436894333371027,0.0,-0.23009711818284617,0.0,2.6908253403234995e-16,6.730069218317748,-1.5852172734780208,0.004884783221484111,-0.6333833241873469,-0.3543706513862686,0.004223685071068462
1750422926.02912,-0.01380582709097077,0.8145437983672754,0.7301748550335652,0.08743690490948154,0.0,-0.23009711818284617,0.0015339807878856412,1.3454126701617497e-16,6.728332494577065,-1.5869539972187023,0.004864283373144769,-0.6333980412646321,-0.3543690943060509,0.004240971705389526
1750422926.0452526,-0.01380582709097077,0.8145437983672754,0.7301748550335652,0.08743690490948154,0.0,-0.23009711818284617,0.0015339807878856412,1.3454126701617497e-16,6.728332494577065,-1.5869539972187023,0.004864283373144769,-0.6333980412646321,-0.3543690943060509,0.004240971705389526
1750422926.0612016,-0.01380582709097077,0.8145437983672754,0.7301748550335652,0.08743690490948154,0.0,-0.23009711818284617,0.0,7.903011578491715e-17,6.728335345354537,-1.5869511464412298,0.004864135311854905,-0.6333806966107405,-0.35437043511808103,0.004223981361411573
1750422926.0931706,-0.01380582709097077,0.8145437983672754,0.7301748550335652,0.0859029241215959,0.0,-0.23009711818284617,0.0,-0.0,6.729201363764281,-1.5860851280314887,0.0048744650017130565,-0.6333820101996358,-0.354370544215282,0.004223833235277907
1750422926.1092784,-0.01380582709097077,0.8145437983672754,0.7301748550335652,0.08436894333371027,0.0,-0.23009711818284617,0.0015339807878856412,2.1357138280109212e-16,6.7300664202200755,-1.5852200715756934,0.004884931358988135,-0.6334006690103882,-0.35436931058892157,0.004240675597796438
1750422926.1252754,-0.01380582709097077,0.8145437983672754,0.7301748550335652,0.0859029241215959,0.0,-0.23009711818284617,0.0,-0.0,6.729201363764281,-1.5860851280314887,0.0048744650017130565,-0.6333820101996358,-0.354370544215282,0.004223833235277907
1750422926.1571171,-0.01380582709097077,0.8145437983672754,0.7301748550335652,0.08743690490948154,0.0,-0.23009711818284617,0.0,7.903011578491715e-17,6.728335345354537,-1.5869511464412298,0.004864135311854905,-0.6333806966107405,-0.35437043511808103,0.004223981361411573
1750422926.1731877,-0.01380582709097077,0.8130098175793898,0.7301748550335652,0.08743690490948154,0.0,-0.23009711818284617,0.0015339807878856412,1.3454126701617497e-16,6.726838815609764,-1.6069759271076638,0.005729403302138484,-0.6333585351325103,-0.3545095780312379,0.00424381973457385
1750422926.1892068,-0.01380582709097077,0.8114758367915041,0.7301748550335652,0.08743690490948154,0.0,-0.23009711818284617,0.0,-7.903011578491715e-17,6.725332138586167,-1.6269912447818187,0.00659430902257855,-0.6333001971850389,-0.35465054856379546,0.004229658541246371
1750422926.2051957,-0.01380582709097077,0.8053399136399616,0.7301748550335652,0.08743690490948154,0.0,-0.23009711818284617,0.0,-7.903011578491715e-17,6.71913584975032,-1.7070251231507814,0.010054453955112163,-0.633121316559492,-0.3552007585320167,0.004240893414383767
1750422926.237138,-0.01380582709097077,0.7976700097005334,0.7301748550335652,0.0859029241215959,0.0,-0.23009711818284617,0.0015339807878856412,5.551115123125783e-17,6.711897830142678,-1.8061136860072973,0.014410061388596612,-0.6328854048347664,-0.3558688034995559,0.004271312083739378
1750422926.2532864,-0.01380582709097077,0.7900001057611052,0.7301748550335652,0.08283496254582462,0.0,-0.23009711818284617,0.0,-2.351896455365932e-17,6.705141136751228,-1.9042198324082347,0.018821897540820733,-0.6325850036092395,-0.3565189682654627,0.004266572044625797
1750422926.2692747,-0.01380582709097077,0.77772825945802,0.7301748550335652,0.08283496254582462,0.0,-0.23009711818284617,0.0,-0.0,6.690726587897599,-2.0637378364525993,0.025781573839239583,-0.6320422549717015,-0.3575126172776731,0.004287127433452704
1750422926.2851977,-0.01380582709097077,0.7639224323670493,0.7301748550335652,0.08283496254582462,0.0,-0.22856313739496054,0.0,-0.0,6.6734187800096,-2.242710062583669,0.03360723045269479,-0.6313205384796352,-0.35867955946004043,0.0043104856618520265
1750422926.3172789,-0.01380582709097077,0.7485826244881929,0.7301748550335652,0.08283496254582462,0.0,-0.22549517581918926,0.0,-0.0,6.65276869601181,-2.440992832991185,0.042296000060047134,-0.6303819190779425,-0.35996903274971775,0.004336039531066549
1750422926.333155,-0.01380582709097077,0.7347767973972221,0.7301748550335652,0.08283496254582462,0.0,-0.2239611950313036,0.0,1.3454126701617497e-16,6.632738410909076,-2.619064180569874,0.050107213645100776,-0.6294095150928273,-0.36095009091334107,0.0043571684764016835
1750422926.34922,-0.01380582709097077,0.7194369895183657,0.7301748550335652,0.07976700097005335,0.0,-0.22089323345553233,0.0015339807878856412,7.903011578491715e-17,6.610789486422828,-2.814544834290397,0.05902509759586176,-0.628241664256028,-0.36201754983947726,0.0043936903410034
1750422926.3811584,-0.01380582709097077,0.7025632008516236,0.7301748550335652,0.07976700097005335,0.0,-0.21782527187976106,0.0,-5.551115123125783e-17,6.582883625973022,-3.030772447676754,0.06858388068916292,-0.6267232766884653,-0.363034695699385,0.004399249286276813
1750422926.3971303,-0.01380582709097077,0.684155431396996,0.7301748550335652,0.0782330201821677,0.0,-0.21168934872821848,0.0,-1.1102230246251565e-16,6.551230016229692,-3.264744393957076,0.07915945653088535,-0.624916051170814,-0.3640902132311805,0.00442041244553824
1750422926.4132104,-0.01380582709097077,0.6672816427302539,0.7301748550335652,0.0782330201821677,0.0,-0.20708740636456155,0.0,1.3454126701617497e-16,6.519352006715791,-3.4791607245238283,0.08869925609742414,-0.6230583782797003,-0.36483260624520597,0.0044392528426564805
1750422926.4292438,-0.01380582709097077,0.6488738732756262,0.7286408742456796,0.07669903939428206,0.0,-0.19941750242513334,0.0,2.1357138280109212e-16,6.46394445338322,-3.7304525031849636,0.10015196973015451,-0.6206743949183948,-0.365542608484797,0.004455975753598147
1750422926.4612792,-0.01380582709097077,0.6304661038209985,0.7301748550335652,0.07516505860639641,0.0,-0.19174759848570513,0.0,3.199218667759851e-17,6.444937061937463,-3.941889887109198,0.10988524013611076,-0.6184838050867895,-0.3659408045379642,0.0044663938715397014
1750422926.4771287,-0.01380582709097077,0.6120583343663708,0.7301748550335652,0.07363107781851078,0.0,-0.1825437137583913,0.0,-3.199218667759851e-17,6.404256840276613,-4.171480666110919,0.12049148299316434,-0.6159064011253572,-0.3661257654032117,0.004474265998180274
1750422926.4931228,-0.01380582709097077,0.5936505649117432,0.7301748550335652,0.07209709703062514,0.0,-0.17487380981896308,0.0,-4.703792910731864e-17,6.361259592574962,-4.399805026241099,0.13109817753160166,-0.613122600087981,-0.366044250933832,0.004478658631735815
1750422926.525206,-0.01380582709097077,0.5752427954571154,0.7286408742456796,0.07056311624273949,0.0,-0.1641359443037636,0.0,5.551115123125783e-17,6.297009398762803,-4.645736091996285,0.14256552054773466,-0.6098959738923008,-0.36563048716120394,0.004478656346621004
1750422926.541052,-0.01380582709097077,0.5537670644267164,0.7255729126699083,0.06902913545485385,0.0,-0.15800002115222103,0.0015339807878856412,1.3454126701617497e-16,6.203887270935475,-4.946128736275498,0.1565862328246061,-0.6055709594002198,-0.36487210212943794,0.004494398021088321
1750422926.55732,-0.01380582709097077,0.5353592949720888,0.7209709703062513,0.0674951546669682,0.0,-0.1564660403643354,0.0,-7.903011578491715e-17,6.098644737801564,-5.22494244553732,0.16970258157274623,-0.601134921740988,-0.3640159193082865,0.0044741359936475164
1750422926.5731888,-0.01380582709097077,0.516951525517461,0.7071651432152806,0.06442719309119693,0.0,-0.15493205957644976,0.0,1.4301448914011416e-16,5.883196058680811,-5.610125457175105,0.1882315882169858,-0.5944407929247125,-0.36248359009015313,0.004461053572320524
1750422926.6052654,-0.01380582709097077,0.500077736850719,0.6887573737606529,0.06442719309119693,0.0,-0.15493205957644976,0.0,5.551115123125783e-17,5.61839255855134,-6.027099058740953,0.20754810397140977,-0.5863179836275956,-0.3604354422971063,0.004453619853783282
1750422926.6212423,-0.01380582709097077,0.483203948183977,0.6718835850939109,0.06442719309119693,0.0,-0.15493205957644976,0.0,5.551115123125783e-17,5.375415253176266,-6.418930784605751,0.22578337066447063,-0.5778653313073961,-0.35805651868914407,0.0044413221829334845
1750422926.6371934,-0.01227184630308513,0.4678641403051206,0.6565437772150544,0.06289321230331128,0.0,-0.1564660403643354,0.0,-1.580602315698343e-16,5.158892304318986,-6.767863008980101,0.24262133433986244,-0.5696420242122602,-0.35567586969270004,0.00442045860711492
1750422926.6692219,-0.01380582709097077,0.45099035163837853,0.641203969336198,0.06135923151542565,0.0,-0.15800002115222103,0.0,-7.903011578491715e-17,4.941746841698299,-7.127416072486113,0.2600985464736473,-0.5604343898882029,-0.35284377829650854,0.004393724209098275
1750422926.6851938,-0.01380582709097077,0.43104860139586515,0.624330180669456,0.06135923151542565,0.0,-0.15800002115222103,0.0,-1.900524182474328e-16,4.702689929428198,-7.530339488161283,0.2791895071827338,-0.5491622301021669,-0.34900463177527785,0.004363652378830971
1750422926.7011614,-0.01380582709097077,0.41264083194123746,0.6105243535784852,0.06289321230331128,0.0,-0.1595340019401067,0.0,-7.903011578491715e-17,4.504844180303293,-7.875130393226856,0.29499106313409995,-0.5386130247817326,-0.3454397232755864,0.0043437168669695665
1750422926.7172232,-0.01380582709097077,0.3957670432744954,0.5951845456996288,0.06289321230331128,0.0,-0.1595340019401067,0.0,-8.326672684688674e-17,4.299858139079236,-8.2111323474038,0.3110471357010597,-0.5275757879119866,-0.34135079245997446,0.0043087262735908545
1750422926.749177,-0.01380582709097077,0.37889325460775336,0.5767767762450011,0.06135923151542565,0.0,-0.16106798272799233,0.0015339807878856412,-2.4132695841672103e-16,4.070061742548272,-8.56838255284404,0.32892420194728617,-0.5149192101060622,-0.33669322447750233,0.004273817204256196
1750422926.765257,-0.01380582709097077,0.3620194659410113,0.5599029875782591,0.06135923151542565,0.0,-0.16106798272799233,0.0,-4.703792910731864e-17,3.8612501854417354,-8.901049526424163,0.34503031127150613,-0.502144423972267,-0.3316436118735472,0.004211642730436306
1750422926.7812042,-0.01380582709097077,0.34514567727426926,0.5414952181236313,0.06135923151542565,0.0,-0.16260196351587797,0.0,1.3030465595420538e-16,3.6447853227803177,-9.237736149258454,0.3614541426318745,-0.4881715536491703,-0.32621842014248353,0.0041608660766586526
1750422926.8131769,-0.01380582709097077,0.32673790781964157,0.5276893910326605,0.06135923151542565,0.0,-0.16260196351587797,0.0,-1.3030465595420538e-16,3.4741567061609397,-9.535331413468985,0.3760610106580758,-0.47490075755667605,-0.3206939297414409,0.004107164917289107
1750422926.8291926,-0.01380582709097077,0.3052621767892426,0.5077476407901472,0.06289321230331128,0.0,-0.16260196351587797,0.0,-4.236611061969594e-18,3.2480067693977217,-9.904034834157274,0.3934783254735304,-0.45703776185222106,-0.3130983273944646,0.004043514422931055
1750422926.845249,-0.01380582709097077,0.28532042654672923,0.4924078329112908,0.06289321230331128,0.0,-0.16260196351587797,0.0,-3.523492608792367e-16,3.074826243886882,-10.20415663934554,0.4084240242124492,-0.44126536248546616,-0.30620761198862473,0.003974354166353742
1750422926.8612967,-0.01380582709097077,0.2684466378799872,0.4770680250324344,0.06135923151542565,0.0,-0.16106798272799233,0.0,-2.220446049250313e-16,2.9154700489875407,-10.46680221609002,0.42247524793951324,-0.4264927125741789,-0.299265543346103,0.0038903467396202446
1750422926.893258,-0.01380582709097077,0.25310683000113077,0.4632621979414636,0.06135923151542565,0.0,-0.16106798272799233,0.0015339807878856412,9.50262091237164e-17,2.777487127399743,-10.695378979303241,0.4340799244335418,-0.4126613092563043,-0.29299492703390195,0.0038383596044642672
1750422926.90917,-0.01380582709097077,0.23623304133438874,0.44945637085049284,0.06289321230331128,0.0,-0.16106798272799233,0.0,-8.326672684688674e-17,2.6421025120322588,-10.926754401716499,0.44498012018189187,-0.39761262840309036,-0.2861117272241927,0.0037665265098100215
1750422926.9252086,-0.01380582709097077,0.2239611950313036,0.4356505437595221,0.06289321230331128,0.0,-0.16106798272799233,0.0015339807878856412,9.50262091237164e-17,2.521414030623484,-11.114829362911522,0.45467761571656806,-0.3846190996313452,-0.280061360601177,0.0037152344385011603
1750422926.9411688,-0.01380582709097077,0.21015536794033285,0.4249126782443226,0.06135923151542565,0.0,-0.16106798272799233,0.0,-1.7829293597060314e-16,2.4251955052603806,-11.284402529015532,0.4644237272439076,-0.37222255072761423,-0.2741894656302595,0.0036269267743296247
1750422926.9732788,-0.01380582709097077,0.19941750242513334,0.41570879351700873,0.06135923151542565,0.0,-0.16106798272799233,0.0,-5.974776229322742e-17,2.347212695395711,-11.417633114524543,0.471408401350149,-0.36192016329433746,-0.26929616765617975,0.003574552066592895
1750422926.9891803,-0.01380582709097077,0.18867963690993386,0.4111068511533518,0.059825250727540004,0.0,-0.16260196351587797,0.0,8.473222123939188e-18,2.3023811772582374,-11.516125312665514,0.47759929409075347,-0.3539645263017787,-0.26585007855042236,0.003523980491611981
1750422927.0051904,-0.01227184630308513,0.17947575218262002,0.4049709280018093,0.05829126993965436,0.0,-0.16260196351587797,0.0,9.9262820185686e-17,2.2509240809575957,-11.61230938406181,0.48370275544971,-0.34595485119059416,-0.2619621356893824,0.003467571883652738
1750422927.0370963,-0.01380582709097077,0.17333982903107745,0.4003689856381523,0.056757289151768725,0.0,-0.16260196351587797,0.0,-1.858158071854632e-16,2.2145233350825295,-11.677875917052111,0.48820857669312817,-0.34032975746408667,-0.25920537794042536,0.0034231154363994795
1750422927.0532002,-0.01380582709097077,0.16720390587953488,0.3988350048502667,0.05368932757599744,0.0,-0.16260196351587797,0.0,-1.7617463043961834e-16,2.197788175843674,-11.72325382242637,0.49264589997444724,-0.3364136411607757,-0.2572243136506256,0.00337244688822685
1750422927.0691717,-0.01380582709097077,0.16260196351587797,0.39730102406238105,0.05062136600022616,0.0,-0.1641359443037636,0.0,1.270183958013149e-16,2.1837068108655346,-11.758473351906625,0.4965689553574182,-0.3332837945130642,-0.256031262373347,0.003330700054975544
1750422927.085096,-0.01380582709097077,0.16106798272799233,0.39730102406238105,0.047553404424454875,0.0,-0.16566992509164924,0.0,9.50262091237164e-17,2.1829955082292885,-11.766165116813124,0.4989990948143816,-0.33263169604081677,-0.2560397228749041,0.0033021645996753465
1750422927.1171784,-0.01380582709097077,0.16106798272799233,0.39730102406238105,0.044485442848683596,0.0,-0.17027186745530618,0.0,-3.6410874315606637e-16,2.1851931604260195,-11.763967464616396,0.5009210726262154,-0.3327689092685317,-0.2572485683018018,0.0032879427947471993
1750422927.1332014,-0.01380582709097077,0.16106798272799233,0.39730102406238105,0.04141748127291231,0.0,-0.17487380981896308,0.0,5.762945676224262e-17,2.187389167051452,-11.761771457990964,0.5028398020451362,-0.3329147543446985,-0.258451760230909,0.0032736556378379347
1750422927.1492107,-0.01380582709097077,0.16106798272799233,0.39730102406238105,0.03834951969714103,0.0,-0.1825437137583913,0.0,-1.6441514816278868e-16,2.19037436049449,-11.758786264547926,0.5047476484475051,-0.33303405711799255,-0.2604393246656104,0.0032690529661374168
1750422927.1651862,-0.01380582709097077,0.16106798272799233,0.39730102406238105,0.035281558121369745,0.0,-0.18714565612204823,0.0,2.2956747613989135e-16,2.1925632895513716,-11.75659733549104,0.5066604683843748,-0.3331999758301693,-0.26162743900663804,0.0032545937698504742
1750422927.1971424,-0.01380582709097077,0.16106798272799233,0.39730102406238105,0.0337475773334841,0.0,-0.1932815792735908,0.0,4.375166895442817e-17,2.194635274144931,-11.754525350897485,0.5076068682559459,-0.3332475729446388,-0.2631967228890491,0.0032594133851080063
1750422927.2131672,-0.01380582709097077,0.16106798272799233,0.39730102406238105,0.032213596545598466,0.0,-0.19634954084936207,0.0,5.762945676224262e-17,2.195921016230598,-11.753239608811818,0.5085599377976586,-0.33333031566570337,-0.2639794099403189,0.0032545211814014744
1750422927.2291977,-0.01380582709097077,0.16260196351587797,0.3988350048502667,0.032213596545598466,0.0015339807878856412,-0.19634954084936207,0.0015339807878856412,-5.762945676224262e-17,2.206321174994188,-11.73585898777797,0.507671859216781,-0.33508964100943783,-0.26477593914927183,0.0032662020140217696
1750422927.2611945,-0.01380582709097077,0.1641359443037636,0.3988350048502667,0.0337475773334841,0.0015339807878856412,-0.1978835216372477,0.0,5.551115123125783e-17,2.208323744979072,-11.726843148226141,0.5061874771557993,-0.3357786247306249,-0.2655427655046907,0.003278179536900214
1750422927.2770648,-0.01380582709097077,0.16720390587953488,0.3988350048502667,0.0337475773334841,0.0015339807878856412,-0.1978835216372477,0.0,-3.7396752361473776e-17,2.2125638528464977,-11.708478145423546,0.5051667027204613,-0.33742645151292316,-0.266315013463152,0.0032870420070823837
1750422927.2931316,-0.01380582709097077,0.17027186745530618,0.3988350048502667,0.0337475773334841,0.0,-0.1978835216372477,0.0,2.7331914509431954e-16,2.2176045901649193,-11.68918148302086,0.5040283276232235,-0.3389704175778232,-0.26706967975959167,0.0033050499925152384
1750422927.3091397,-0.01380582709097077,0.17487380981896308,0.3988350048502667,0.0337475773334841,0.0015339807878856412,-0.1978835216372477,0.0,-1.1854517367737572e-16,2.2230729241608413,-11.662083873729499,0.502593985415936,-0.3415320896742738,-0.26823465088691756,0.0033090626431309363
1750422927.3411157,-0.01380582709097077,0.17794177139473438,0.3988350048502667,0.035281558121369745,0.0,-0.1978835216372477,0.0015339807878856412,-4.163336342344337e-17,2.2275425385037164,-11.643031348671508,0.500508722937071,-0.3429637145358923,-0.26898414874040116,0.003353392497443374
1750422927.3571575,-0.01380582709097077,0.17947575218262002,0.3988350048502667,0.035281558121369745,0.0,-0.1978835216372477,0.0,-1.6441514816278868e-16,2.229611829301799,-11.63362163571761,0.4999750305923325,-0.34377152130876465,-0.26936021601575205,0.003345820684342609
1750422927.373158,-0.01380582709097077,0.1825437137583913,0.3988350048502667,0.03681553890925539,0.0,-0.1978835216372477,0.0,1.8252954703257273e-16,2.2332216408447803,-11.61523313263004,0.4979846230932445,-0.3452907646101212,-0.2701160709003032,0.003368837771380211
1750422927.405055,-0.01380582709097077,0.18407769454627693,0.3988350048502667,0.03681553890925539,0.0,-0.19634954084936207,0.0,1.270183958013149e-16,2.234899499280614,-11.606117039581122,0.4974666278876747,-0.34612207044805565,-0.2701164258453943,0.003368481267702163
1750422927.42109,-0.01380582709097077,0.18714565612204823,0.3988350048502667,0.0337475773334841,0.0,-0.19634954084936207,0.0015339807878856412,-3.7396752361473776e-17,2.240054481497276,-11.585987897971105,0.4983224495917547,-0.34798146846462097,-0.2708856847039295,0.003360686352601733
1750422927.4371548,-0.01380582709097077,0.1902136176978195,0.3988350048502667,0.0337475773334841,0.0,-0.19481556006147643,0.0015339807878856412,-9.29079035927316e-17,2.2437600940438234,-11.56717799005471,0.4972699802209005,-0.34961992456203694,-0.2712635854240819,0.003364723202255867
1750422927.453188,-0.01380582709097077,0.19174759848570513,0.3988350048502667,0.032213596545598466,0.0,-0.1932815792735908,0.0,-2.0393020605524726e-16,2.2459436209953045,-11.557393558806616,0.4976688757976533,-0.3505457380897027,-0.2712626116016933,0.0033381139876809147
1750422927.4851363,-0.01380582709097077,0.1932815792735908,0.3988350048502667,0.032213596545598466,0.0,-0.1932815792735908,0.0015339807878856412,7.150724457005708e-17,2.2479785212636965,-11.547725273655878,0.4971511466199188,-0.3513647002078644,-0.2716442557788788,0.0033545635712011416
1750422927.5012162,-0.01380582709097077,0.19634954084936207,0.3988350048502667,0.032213596545598466,0.0,-0.1932815792735908,0.0015339807878856412,-1.811439886978405e-17,2.252023714029555,-11.528315941292881,0.49608376631774603,-0.35298115668382957,-0.2723962593480314,0.00336328490732167
1750422927.517266,-0.01380582709097077,0.1978835216372477,0.3988350048502667,0.032213596545598466,0.0,-0.19174759848570513,0.0015339807878856412,4.9156234638303436e-17,2.2536633232650485,-11.518945613495902,0.49555163217844456,-0.353802490533723,-0.2723965291295609,0.003362966334910828
1750422927.5332563,-0.01380582709097077,0.19941750242513334,0.3988350048502667,0.030679615757712823,0.0,-0.19174759848570513,0.0,2.7331914509431954e-16,2.2562066614618206,-11.508639148458432,0.4959338821055532,-0.3547075548898258,-0.27277012970181336,0.003341025122467792
1750422927.5652184,-0.01380582709097077,0.19941750242513334,0.3988350048502667,0.02914563496982718,0.0,-0.19174759848570513,0.0,-8.750333790885633e-17,2.256745358388423,-11.50810045153183,0.49686570732603347,-0.35481611424412574,-0.27277318733165506,0.003326886922505551
1750422927.581195,-0.01380582709097077,0.19941750242513334,0.3988350048502667,0.0260776733940559,0.0,-0.19174759848570513,0.0015339807878856412,-8.326672684688674e-17,2.2578301787738133,-11.507015631146443,0.4987399871764316,-0.3550429473886577,-0.272783487664716,0.003310791136390946
1750422927.5971942,-0.01380582709097077,0.19941750242513334,0.3988350048502667,0.0260776733940559,0.0,-0.19174759848570513,0.0,-5.551115123125783e-17,2.2578257827404253,-11.50702002717983,0.49872584805805625,-0.3550333110225394,-0.27277883230962263,0.0032986043549583194
1750422927.629181,-0.01380582709097077,0.19941750242513334,0.3988350048502667,0.02454369260617026,0.0,-0.19174759848570513,0.0015339807878856412,1.6229684263180389e-16,2.258371919001829,-11.506473890918423,0.4996683002973855,-0.35515159242370237,-0.2727860752060853,0.0032966552141713255
1750422927.6450794,-0.01380582709097077,0.19941750242513334,0.39730102406238105,0.023009711818284616,0.0,-0.19174759848570513,0.0015339807878856412,1.5689227694792862e-16,2.2491345191961947,-11.515711290724061,0.5011380984272906,-0.3544548339428192,-0.272413483721505,0.0032780772975062418
1750422927.6611953,-0.01227184630308513,0.19941750242513334,0.3988350048502667,0.021475731030398976,0.0015339807878856412,-0.19174759848570513,0.0,2.7755575615628914e-16,2.2586490302397855,-11.506196779680467,0.5016153433032484,-0.3554511333299481,-0.272795447867393,0.003246498733663027
1750422927.6770844,-0.01380582709097077,0.19941750242513334,0.3988350048502667,0.019941750242513337,0.0,-0.19174759848570513,0.0015339807878856412,-1.0138112571667079e-16,2.260003175222925,-11.504842634697328,0.502446176329785,-0.35547767856159884,-0.27279289706658844,0.0032542357449960578
1750422927.7092314,-0.01380582709097077,0.19941750242513334,0.3988350048502667,0.019941750242513337,0.0,-0.19174759848570513,0.0,-4.236611061969594e-18,2.2599987177970173,-11.504847092123235,0.5024320294650706,-0.3554680097021641,-0.2727882409604757,0.0032420154811942893
1750422927.7251306,-0.01380582709097077,0.19941750242513334,0.3988350048502667,0.019941750242513337,0.0,-0.1902136176978195,0.0015339807878856412,1.3454126701617497e-16,2.2596281577798893,-11.505217652140363,0.5024482082440311,-0.3554865569338899,-0.27241798285204655,0.003249566662436058
1750422927.7411554,-0.01380582709097077,0.200951483213019,0.3988350048502667,0.018407769454627694,0.0,-0.1902136176978195,0.0,-2.6908253403234995e-16,2.262185335335285,-11.494864957732453,0.5028106606783403,-0.35638914954181633,-0.2727902890815959,0.0032276797713031687
1750422927.7731535,-0.01380582709097077,0.20248546400090464,0.3988350048502667,0.018407769454627694,0.0,-0.1902136176978195,0.0,1.1854517367737572e-16,2.2641959079582397,-11.485026496588755,0.5022626381305404,-0.357192518487961,-0.2731646696781663,0.003232138926312086
1750422927.7890828,-0.01380582709097077,0.20248546400090464,0.3988350048502667,0.018407769454627694,0.0,-0.18867963690993386,0.0,-2.0232704400768848e-17,2.2638215273897875,-11.485400877157208,0.5022644969338039,-0.3572006992720675,-0.2727903768993261,0.0032274956300159152
1750422927.8052268,-0.01380582709097077,0.20401944478879028,0.3988350048502667,0.018407769454627694,0.0,-0.18714565612204823,0.0,9.07895980617468e-17,2.2654530344121113,-11.475909128365705,0.5017171346624588,-0.3580113936609587,-0.27279046460416956,0.0032273110879451903
1750422927.8212073,-0.01380582709097077,0.20401944478879028,0.3988350048502667,0.018407769454627694,0.0,-0.18714565612204823,0.0,9.07895980617468e-17,2.2654530344121113,-11.475909128365705,0.5017171346624588,-0.3580113936609587,-0.27279046460416956,0.0032273110879451903
1750422927.8533242,-0.01380582709097077,0.20401944478879028,0.3988350048502667,0.01687378866674205,0.0015339807878856412,-0.18714565612204823,0.0,-6.727063350808749e-17,2.265201288758199,-11.47616087401962,0.5027418368628108,-0.35820497762480513,-0.2727994836274184,0.003203445810003642
1750422927.8692741,-0.01380582709097077,0.20401944478879028,0.3988350048502667,0.018407769454627694,0.0,-0.1856116753341626,0.0,-9.50262091237164e-17,2.265078012054749,-11.476284150723068,0.5017189662503588,-0.3580195715962046,-0.2724155298664689,0.0032226605955919634
1750422927.8851638,-0.01380582709097077,0.20401944478879028,0.3988350048502667,0.018407769454627694,0.0,-0.1856116753341626,0.0,-9.50262091237164e-17,2.265078012054749,-11.476284150723068,0.5017189662503588,-0.3580195715962046,-0.2724155298664689,0.0032226605955919634
1750422927.917194,-0.01380582709097077,0.20401944478879028,0.3988350048502667,0.01687378866674205,0.0,-0.1856116753341626,0.0,9.9262820185686e-17,2.265628316567481,-11.475733846210337,0.5026377473823145,-0.358125253242576,-0.27241727911028935,0.0032085524479072702
1750422927.9331365,-0.01380582709097077,0.20401944478879028,0.3988350048502667,0.018407769454627694,0.0015339807878856412,-0.1856116753341626,0.0,-2.33804087201861e-16,2.2642758574108512,-11.477086305366967,0.5018240292422658,-0.35810753086100877,-0.2724234718162063,0.0032129114232367618
1750422927.9490864,-0.01380582709097077,0.20401944478879028,0.3988350048502667,0.018407769454627694,0.0,-0.1856116753341626,0.0015339807878856412,4.375166895442817e-17,2.2650824908371163,-11.4762796719407,0.5017330693550945,-0.35802931467901916,-0.27242019333561324,0.0032348708039322753
1750422927.965036,-0.01380582709097077,0.20401944478879028,0.3988350048502667,0.018407769454627694,0.0015339807878856412,-0.1856116753341626,0.0,-2.33804087201861e-16,2.2642758574108512,-11.477086305366967,0.5018240292422658,-0.35810753086100877,-0.2724234718162063,0.0032129114232367618
1750422927.9971807,-0.01380582709097077,0.20401944478879028,0.3988350048502667,0.018407769454627694,0.0015339807878856412,-0.1856116753341626,0.0,-2.33804087201861e-16,2.2642758574108512,-11.477086305366967,0.5018240292422658,-0.35810753086100877,-0.2724234718162063,0.0032129114232367618
1750422928.013181,-0.01380582709097077,0.20401944478879028,0.3988350048502667,0.01687378866674205,0.0,-0.1856116753341626,0.0015339807878856412,4.375166895442817e-17,2.2656328108054886,-11.47572935197233,0.5026518522512582,-0.3581350044346166,-0.2724219427230667,0.0032207709779378075
1750422928.0291405,-0.01380582709097077,0.20401944478879028,0.3988350048502667,0.01687378866674205,0.0,-0.1856116753341626,0.0,9.9262820185686e-17,2.265628316567481,-11.475733846210337,0.5026377473823145,-0.358125253242576,-0.27241727911028935,0.0032085524479072702
1750422928.06108,-0.01380582709097077,0.20401944478879028,0.3988350048502667,0.018407769454627694,0.0,-0.1856116753341626,0.0,-9.50262091237164e-17,2.265078012054749,-11.476284150723068,0.5017189662503588,-0.3580195715962046,-0.2724155298664689,0.0032226605955919634
1750422928.0771384,-0.01380582709097077,0.20401944478879028,0.3988350048502667,0.01687378866674205,0.0015339807878856412,-0.1856116753341626,0.0,-3.9515057892458573e-17,2.264826277068428,-11.47653588570939,0.5027428343978817,-0.3582119992221116,-0.27242453950740947,0.0031987951992794596
1750422928.093173,-0.01380582709097077,0.20401944478879028,0.3988350048502667,0.018407769454627694,0.0,-0.1856116753341626,0.0,-9.50262091237164e-17,2.265078012054749,-11.476284150723068,0.5017189662503588,-0.3580195715962046,-0.2724155298664689,0.0032226605955919634
1750422928.1090963,-0.01380582709097077,0.20401944478879028,0.3988350048502667,0.018407769454627694,0.0,-0.1856116753341626,0.0,-9.50262091237164e-17,2.265078012054749,-11.476284150723068,0.5017189662503588,-0.3580195715962046,-0.2724155298664689,0.0032226605955919634
1750422928.1411388,-0.01380582709097077,0.20401944478879028,0.3988350048502667,0.01687378866674205,0.0,-0.1856116753341626,0.0015339807878856412,4.375166895442817e-17,2.2656328108054886,-11.47572935197233,0.5026518522512582,-0.3581350044346166,-0.2724219427230667,0.0032207709779378075
1750422928.1570647,-0.01380582709097077,0.20401944478879028,0.3988350048502667,0.01687378866674205,0.0,-0.1856116753341626,0.0,9.9262820185686e-17,2.265628316567481,-11.475733846210337,0.5026377473823145,-0.358125253242576,-0.27241727911028935,0.0032085524479072702
1750422928.1731436,-0.01380582709097077,0.20401944478879028,0.3988350048502667,0.01687378866674205,0.0,-0.1856116753341626,0.0,9.9262820185686e-17,2.265628316567481,-11.475733846210337,0.5026377473823145,-0.358125253242576,-0.27241727911028935,0.0032085524479072702
1750422928.1892,-0.01380582709097077,0.2055534255766759,0.3988350048502667,0.01687378866674205,0.0015339807878856412,-0.1856116753341626,0.0,1.0678569140054606e-16,2.266830142353199,-11.46663944390291,0.5021913201338453,-0.3590136912682085,-0.27279955116305016,0.0032032541976043205
1750422928.221259,-0.01380582709097077,0.2055534255766759,0.3988350048502667,0.01687378866674205,0.0015339807878856412,-0.18407769454627693,0.0,8.326672684688674e-17,2.26645513073177,-11.46701445552434,0.5021923047877832,-0.3590207061730332,-0.27242460697470045,0.003198603586016247
1750422928.2371633,-0.01380582709097077,0.2086213871524472,0.3988350048502667,0.01687378866674205,0.0,-0.1825437137583913,0.0015339807878856412,5.551115123125783e-17,2.270877740422851,-11.446709762896267,0.5009973783185676,-0.3605521161464111,-0.27279710284349246,0.0032249307472985867
1750422928.2531545,-0.01380582709097077,0.2086213871524472,0.3988350048502667,0.01687378866674205,0.0,-0.1825437137583913,0.0,2.7755575615628914e-17,2.2708732544852492,-11.44671424883387,0.5009833196946829,-0.3605422990259455,-0.2727924464331863,0.0032126931576213933
1750422928.2850938,-0.01380582709097077,0.2086213871524472,0.3988350048502667,0.01687378866674205,0.0,-0.18100973297050565,0.0015339807878856412,1.3877787807814457e-16,2.270502727337869,-11.44708477598125,0.5009990173469547,-0.3605595961287164,-0.27242216309405304,0.0032202613598867496
1750422928.3011162,-0.01380582709097077,0.21015536794033285,0.3988350048502667,0.01687378866674205,0.0,-0.17947575218262002,0.0015339807878856412,-3.40589778602407e-16,2.272116634674796,-11.437481399601118,0.5004456825414403,-0.36136607141196725,-0.2724222363560353,0.003220090755684233
1750422928.3171446,-0.01380582709097077,0.21015536794033285,0.3988350048502667,0.01687378866674205,0.0,-0.17947575218262002,0.0015339807878856412,-3.40589778602407e-16,2.272116634674796,-11.437481399601118,0.5004456825414403,-0.36136607141196725,-0.2724222363560353,0.003220090755684233
1750422928.3331308,-0.01380582709097077,0.21168934872821848,0.3988350048502667,0.01687378866674205,0.0015339807878856412,-0.17794177139473438,0.0,-4.703792910731864e-17,2.2729235864484467,-11.428652718775789,0.499978243183484,-0.36224690610415755,-0.272424875465958,0.003197833699989637
1750422928.3651493,-0.01380582709097077,0.21322332951610412,0.3988350048502667,0.01687378866674205,0.0,-0.17794177139473438,0.0015339807878856412,-1.312550068632845e-16,2.2757053422250433,-11.417816992814949,0.4993338370342514,-0.36296896418503816,-0.27279732248102345,0.003224417841732864
1750422928.3811898,-0.01380582709097077,0.21322332951610412,0.3988350048502667,0.01687378866674205,0.0,-0.17794177139473438,0.0015339807878856412,-1.312550068632845e-16,2.2757053422250433,-11.417816992814949,0.4993338370342514,-0.36296896418503816,-0.27279732248102345,0.003224417841732864
1750422928.3971717,-0.01380582709097077,0.21322332951610412,0.3988350048502667,0.01687378866674205,0.0015339807878856412,-0.17794177139473438,0.0015339807878856412,-1.270183958013149e-16,2.2749084158440205,-11.418613919195973,0.4994348483623988,-0.36305419739426964,-0.2728045431644739,0.00321453506745031
1750422928.4291735,-0.01380582709097077,0.21322332951610412,0.3988350048502667,0.01687378866674205,0.0,-0.17794177139473438,0.0,-2.0232704400768848e-17,2.275700857380505,-11.417821477659487,0.4993198248181993,-0.3629590813674877,-0.2727926660687757,0.0032121799403585886
1750422928.4450548,-0.01380582709097077,0.21322332951610412,0.3988350048502667,0.01687378866674205,0.0,-0.17640779060684875,0.0,1.5053736035497423e-16,2.2753258372400325,-11.418196497799961,0.499321423790236,-0.3629665445031646,-0.2724177189667044,0.003207529300834483
1750422928.4611552,-0.01380582709097077,0.21475731030398976,0.39730102406238105,0.01687378866674205,0.0,-0.17487380981896308,0.0015339807878856412,8.750333790885633e-17,2.2668684830003563,-11.418567659674602,0.499337023756959,-0.36298389305201423,-0.27204680164947753,0.0032150718496277127
1750422928.4771338,-0.01380582709097077,0.21475731030398976,0.3988350048502667,0.01687378866674205,0.0,-0.17487380981896308,0.0015339807878856412,4.236611061969594e-18,2.2769301090037746,-11.408506033671182,0.4987785272166962,-0.36378030398481714,-0.27242245554728833,0.003219576754056994
1750422928.509088,-0.01380582709097077,0.21475731030398976,0.3988350048502667,0.015339807878856412,0.0,-0.17333982903107745,0.0,3.199218667759851e-17,2.277109535673494,-11.408326607001463,0.49967543747136184,-0.3638773297433141,-0.27204370093650193,0.003188697787093193
1750422928.5251148,-0.01380582709097077,0.21475731030398976,0.3988350048502667,0.015339807878856412,0.0,-0.17027186745530618,0.0015339807878856412,5.974776229322742e-17,2.2763608264073087,-11.409075316267648,0.4996922671881689,-0.36390081332492435,-0.2712952683956921,0.0031915314477122636
1750422928.5411506,-0.01380582709097077,0.21475731030398976,0.3988350048502667,0.015339807878856412,0.0,-0.17027186745530618,0.0,1.1525891352448525e-16,2.276356297486854,-11.409079845188103,0.49967826836796686,-0.3638909006800679,-0.27129058310068266,0.0031793603681651416
1750422928.5730932,-0.01380582709097077,0.21475731030398976,0.3988350048502667,0.01380582709097077,0.0,-0.17027186745530618,0.0015339807878856412,-1.0254908033857647e-16,2.276921443151314,-11.408514699523643,0.5006001427488723,-0.3639989580987461,-0.2712966032676796,0.0031775359682022267
1750422928.5890813,-0.01380582709097077,0.21475731030398976,0.3988350048502667,0.01380582709097077,0.0,-0.16873788666742054,0.0,-1.0254908033857647e-16,2.2765393229960327,-11.408896819678924,0.5005874021727674,-0.3639951475131653,-0.2709143910032831,0.003160677086602692
1750422928.6050034,-0.01380582709097077,0.21475731030398976,0.3988350048502667,0.01227184630308513,0.0015339807878856412,-0.16873788666742054,0.0015339807878856412,3.199218667759851e-17,2.2763098176544125,-11.409126325020544,0.5016048587589937,-0.36418141824743533,-0.2709254591032923,0.003148911680175819
1750422928.6211154,-0.01380582709097077,0.21475731030398976,0.3988350048502667,0.01227184630308513,0.0015339807878856412,-0.16873788666742054,0.0,-5.127454016928823e-17,2.27630527203261,-11.409130870642347,0.5015908486939931,-0.36417148346455697,-0.2709207664403038,0.0031367368953657874
1750422928.65312,-0.01380582709097077,0.2162912910918754,0.3988350048502667,0.01227184630308513,0.0,-0.16873788666742054,0.0,4.375166895442817e-17,2.2790771131303678,-11.39824063402634,0.5009312411248893,-0.3648877999421443,-0.27129315057532477,0.003151226001576818
1750422928.669058,-0.01380582709097077,0.21475731030398976,0.3988350048502667,0.010737865515199488,0.0,-0.16873788666742054,0.0,-2.3804069826383054e-16,2.277663577231466,-11.407772565443489,0.5023993343124425,-0.36419013221688606,-0.27091662230702496,0.003132664852944147
1750422928.6851275,-0.01380582709097077,0.2162912910918754,0.3988350048502667,0.010737865515199488,0.0,-0.16873788666742054,0.0,-1.3030465595420538e-16,2.2796409284663404,-11.397676818690371,0.5018356012570591,-0.364985194310715,-0.27129419532882487,0.0031372348534089473
1750422928.7170155,-0.01380582709097077,0.2162912910918754,0.3988350048502667,0.010737865515199488,0.0,-0.16873788666742054,0.0015339807878856412,-1.580602315698343e-16,2.279645504237697,-11.397672242919015,0.5018495890342055,-0.3649951529721129,-0.2712988809409265,0.003149430710139446
1750422928.733132,-0.01380582709097077,0.2162912910918754,0.3988350048502667,0.010737865515199488,0.0,-0.16873788666742054,0.0015339807878856412,-1.580602315698343e-16,2.279645504237697,-11.397672242919015,0.5018495890342055,-0.3649951529721129,-0.2712988809409265,0.003149430710139446
1750422928.7490304,-0.01380582709097077,0.2162912910918754,0.3988350048502667,0.010737865515199488,0.0,-0.17027186745530618,0.0015339807878856412,4.375166895442817e-17,2.2800224317171636,-11.397295315439544,0.5018486101863947,-0.3649904059368157,-0.27167577898542034,0.003154122155679562
1750422928.7651157,-0.01380582709097077,0.2162912910918754,0.3988350048502667,0.010737865515199488,0.0,-0.16873788666742054,0.0,-1.3030465595420538e-16,2.2796409284663404,-11.397676818690371,0.5018356012570591,-0.364985194310715,-0.27129419532882487,0.0031372348534089473
1750422928.7971044,-0.01380582709097077,0.2162912910918754,0.3988350048502667,0.010737865515199488,0.0,-0.16873788666742054,0.0,-1.3030465595420538e-16,2.2796409284663404,-11.397676818690371,0.5018356012570591,-0.364985194310715,-0.27129419532882487,0.0031372348534089473
1750422928.8130758,-0.01380582709097077,0.2162912910918754,0.3988350048502667,0.010737865515199488,0.0,-0.16873788666742054,0.0015339807878856412,-1.580602315698343e-16,2.279645504237697,-11.397672242919015,0.5018495890342055,-0.3649951529721129,-0.2712988809409265,0.003149430710139446
1750422928.8291903,-0.01380582709097077,0.2162912910918754,0.3988350048502667,0.010737865515199488,0.0,-0.16873788666742054,0.0015339807878856412,-1.580602315698343e-16,2.279645504237697,-11.397672242919015,0.5018495890342055,-0.3649951529721129,-0.2712988809409265,0.003149430710139446
1750422928.8450878,-0.01380582709097077,0.2162912910918754,0.39730102406238105,0.010737865515199488,0.0,-0.16873788666742054,0.0015339807878856412,7.479350472294755e-17,2.2695497648757565,-11.40776798228095,0.5024133378026477,-0.3642000690601777,-0.27092131507935524,0.003144841776710528
1750422928.8770967,-0.01380582709097077,0.2162912910918754,0.3988350048502667,0.010737865515199488,0.0,-0.16873788666742054,0.0,-1.3030465595420538e-16,2.2796409284663404,-11.397676818690371,0.5018356012570591,-0.364985194310715,-0.27129419532882487,0.0031372348534089473
1750422928.8930717,-0.01380582709097077,0.2162912910918754,0.3988350048502667,0.010737865515199488,0.0015339807878856412,-0.16873788666742054,0.0,1.7500667581771267e-16,2.278846224756174,-11.398471522400538,0.5019324056565992,-0.3650629865807541,-0.27129870053283106,0.0031272701591628705
1750422928.909105,-0.01380582709097077,0.2162912910918754,0.39730102406238105,0.010737865515199488,0.0,-0.16873788666742054,0.0015339807878856412,7.479350472294755e-17,2.2695497648757565,-11.40776798228095,0.5024133378026477,-0.3642000690601777,-0.27092131507935524,0.003144841776710528
1750422928.9410746,-0.01380582709097077,0.2162912910918754,0.39730102406238105,0.010737865515199488,0.0,-0.16873788666742054,0.0015339807878856412,7.479350472294755e-17,2.2695497648757565,-11.40776798228095,0.5024133378026477,-0.3642000690601777,-0.27092131507935524,0.003144841776710528
1750422928.9570122,-0.01380582709097077,0.21782527187976106,0.3988350048502667,0.010737865515199488,0.0,-0.16873788666742054,0.0015339807878856412,1.580602315698343e-16,2.2816174838553134,-11.387549683733315,0.5012846593652033,-0.3657893780151962,-0.2716758084100245,0.00315401223265368
1750422928.9731007,-0.01380582709097077,0.21782527187976106,0.3988350048502667,0.010737865515199488,0.0,-0.16873788666742054,0.0015339807878856412,1.580602315698343e-16,2.2816174838553134,-11.387549683733315,0.5012846593652033,-0.3657893780151962,-0.2716758084100245,0.00315401223265368
1750422928.989058,-0.01380582709097077,0.2193592526676467,0.39730102406238105,0.010737865515199488,0.0,-0.16873788666742054,0.0,-2.0232704400768848e-17,2.273430171047094,-11.38755425210272,0.5012706873340302,-0.3657793975591255,-0.2716711299691773,0.003141797471657093
1750422929.02103,-0.01380582709097077,0.2193592526676467,0.3988350048502667,0.010737865515199488,0.0,-0.16873788666742054,0.0,1.3454126701617497e-16,2.2835795336498848,-11.377404889499928,0.500704593872653,-0.36657274009328067,-0.2720474253411185,0.0031463526969523026
1750422929.036984,-0.01380582709097077,0.2193592526676467,0.3988350048502667,0.010737865515199488,0.0,-0.16873788666742054,0.0,1.3454126701617497e-16,2.2835795336498848,-11.377404889499928,0.500704593872653,-0.36657274009328067,-0.2720474253411185,0.0031463526969523026
1750422929.053064,-0.01380582709097077,0.22089323345553233,0.3988350048502667,0.010737865515199488,0.0,-0.16873788666742054,0.0015339807878856412,1.1102230246251565e-16,2.2855453318639185,-11.367224201231135,0.5001512626456314,-0.36737524402127847,-0.27242774462451774,0.0031631530018325
1750422929.0850847,-0.01380582709097077,0.22089323345553233,0.3988350048502667,0.010737865515199488,0.0,-0.16873788666742054,0.0015339807878856412,1.1102230246251565e-16,2.2855453318639185,-11.367224201231135,0.5001512626456314,-0.36737524402127847,-0.27242774462451774,0.0031631530018325
1750422929.1010568,-0.01380582709097077,0.22089323345553233,0.3988350048502667,0.010737865515199488,0.0,-0.16873788666742054,0.0,-2.7755575615628914e-17,2.2855407783306454,-11.367228754764408,0.5001373222050006,-0.36736522004636857,-0.272423080559189,0.00315090051857569
1750422929.1170866,-0.01380582709097077,0.22089323345553233,0.3988350048502667,0.010737865515199488,0.0,-0.16873788666742054,0.0015339807878856412,1.1102230246251565e-16,2.2855453318639185,-11.367224201231135,0.5001512626456314,-0.36737524402127847,-0.27242774462451774,0.0031631530018325
1750422929.1330812,-0.01380582709097077,0.22089323345553233,0.3988350048502667,0.010737865515199488,0.0,-0.16873788666742054,0.0015339807878856412,1.1102230246251565e-16,2.2855453318639185,-11.367224201231135,0.5001512626456314,-0.36737524402127847,-0.27242774462451774,0.0031631530018325
1750422929.1649663,-0.01380582709097077,0.22089323345553233,0.3988350048502667,0.010737865515199488,0.0,-0.16873788666742054,0.0,-2.7755575615628914e-17,2.2855407783306454,-11.367228754764408,0.5001373222050006,-0.36736522004636857,-0.272423080559189,0.00315090051857569
1750422929.1810288,-0.01380582709097077,0.22089323345553233,0.3988350048502667,0.010737865515199488,0.0,-0.16873788666742054,0.0015339807878856412,1.1102230246251565e-16,2.2855453318639185,-11.367224201231135,0.5001512626456314,-0.36737524402127847,-0.27242774462451774,0.0031631530018325
1750422929.1969955,-0.01380582709097077,0.22089323345553233,0.3988350048502667,0.010737865515199488,0.0,-0.16873788666742054,0.0,-2.7755575615628914e-17,2.2855407783306454,-11.367228754764408,0.5001373222050006,-0.36736522004636857,-0.272423080559189,0.00315090051857569
1750422929.229,-0.01380582709097077,0.22242721424341796,0.3988350048502667,0.010737865515199488,0.0,-0.16873788666742054,0.0,3.2862601528904712e-18,2.287496644913168,-11.357025871841607,0.4995688736659179,-0.36815683555360795,-0.2727980947394361,0.0031554409258257926
1750422929.244954,-0.01380582709097077,0.2239611950313036,0.3988350048502667,0.010737865515199488,0.0,-0.16873788666742054,0.0,-1.2278178473934531e-16,2.2894471287951332,-11.346796264739876,0.49899924959301845,-0.3689475847522505,-0.2731724669994149,0.003159973908018593
1750422929.2610304,-0.01380582709097077,0.22549517581918926,0.3988350048502667,0.010737865515199488,0.0,-0.16873788666742054,0.0,-1.0678569140054606e-16,2.291392225386847,-11.336539957530482,0.49842845132668356,-0.36973746578158734,-0.2735461964581915,0.003164499454487547
1750422929.277073,-0.01380582709097077,0.2270291566070749,0.3988350048502667,0.010737865515199488,0.0015339807878856412,-0.16873788666742054,0.0015339807878856412,2.1357138280109212e-16,2.2925477867468915,-11.32704111771192,0.49796640188583285,-0.37061536935857214,-0.27392838128916736,0.0031712344475849736
1750422929.3090496,-0.01380582709097077,0.2270291566070749,0.3988350048502667,0.010737865515199488,0.0,-0.16873788666742054,0.0015339807878856412,7.479350472294755e-17,2.2933364538438896,-11.326252450614922,0.497870357076263,-0.3705365875120829,-0.27392391741907196,0.003181345136031774
1750422929.3250387,-0.01380582709097077,0.22856313739496054,0.3988350048502667,0.009203884727313847,0.0,-0.16720390587953488,0.0,2.4556356947869063e-16,2.29546804254681,-11.315745535245194,0.49817914903398886,-0.37141518255951944,-0.27392020200925055,0.0031550401968351845
1750422929.3410935,-0.01380582709097077,0.22856313739496054,0.3988350048502667,0.007669903939428206,0.0,-0.1641359443037636,0.0,-1.1102230246251565e-16,2.2952965082443555,-11.31591706954765,0.4990741852579703,-0.3715177915334257,-0.2731741739498407,0.0031319065826673014
1750422929.3570213,-0.01380582709097077,0.22856313739496054,0.3988350048502667,0.007669903939428206,0.0,-0.16106798272799233,0.0015339807878856412,2.351896455365932e-17,2.294551710055714,-11.31666186773629,0.4990893882574395,-0.3715346700865262,-0.27242948536787115,0.003134880400701852
1750422929.3890479,-0.01380582709097077,0.23009711818284617,0.3988350048502667,0.006135923151542565,0.0,-0.15493205957644976,0.0,9.07895980617468e-17,2.29555519075354,-11.307251031871315,0.4993921641487097,-0.37241541767647274,-0.27129657972071314,0.0030946816281116184
1750422929.405067,-0.01380582709097077,0.23009711818284617,0.3988350048502667,0.0046019423636569235,0.0,-0.15033011721279282,0.0015339807878856412,-1.7829293597060314e-16,2.2950037464810102,-11.307802476143847,0.5002963927648227,-0.37252210287720133,-0.27016713182543023,0.0030789382593366635
1750422929.421058,-0.01380582709097077,0.2316310989707318,0.3988350048502667,0.0030679615757712823,0.0015339807878856412,-0.14419419406125028,0.0015339807878856412,-1.1102230246251565e-16,2.2952157589310023,-11.299151099809688,0.5006894539362723,-0.37346707223071934,-0.2690282336713529,0.0030406609404616293
1750422929.45305,-0.01380582709097077,0.2316310989707318,0.3988350048502667,0.0,0.0,-0.1380582709097077,0.0015339807878856412,8.326672684688674e-17,2.295636496184068,-11.298730362556622,0.5023731663341822,-0.37357312930290004,-0.26749809293955895,0.0030042004100127822
1750422929.4689436,-0.01380582709097077,0.23316507975861744,0.3988350048502667,-0.0015339807878856412,0.0,-0.13192234775816514,0.0,-1.4301448914011416e-16,2.2966189434289705,-11.289276562569166,0.5026560971439816,-0.37442783678988983,-0.2663396829451624,0.0029640365281628973
1750422929.4849844,-0.01380582709097077,0.23316507975861744,0.3988350048502667,-0.0030679615757712823,0.0,-0.12885438618239387,0.0015339807878856412,-3.9515057892458573e-17,2.2964375816289624,-11.289457924369176,0.5035489455991613,-0.374515636768844,-0.26557211061898645,0.002952641462511143
1750422929.5010762,-0.01380582709097077,0.23316507975861744,0.3988350048502667,-0.0046019423636569235,0.0,-0.12578642460662257,0.0,1.5996093338799254e-17,2.296245093938827,-11.289650412059311,0.5044125272698722,-0.37458021696094734,-0.2647923520733467,0.0029172509051504864
1750422929.5329857,-0.01380582709097077,0.23316507975861744,0.3988350048502667,-0.006135923151542565,0.0,-0.12425244381873693,0.0,-8.473222123939188e-18,2.2964448664435753,-11.28945063955456,0.5052887520732146,-0.37465508513539886,-0.2644036957508544,0.0028986220763350754
1750422929.5490053,-0.01380582709097077,0.23316507975861744,0.3988350048502667,-0.007669903939428206,0.0,-0.12425244381873693,0.0,1.3454126701617497e-16,2.2970339444976413,-11.288861561500495,0.5061641120226532,-0.3747320003343639,-0.2644032118830492,0.0028847924044229406
1750422929.5649645,-0.01380582709097077,0.23316507975861744,0.3988350048502667,-0.007669903939428206,0.0,-0.1227184630308513,0.0,-4.236611061969594e-18,2.296645036112602,-11.289250469885534,0.5061635769920252,-0.37472862106810595,-0.26401431805321923,0.0028799856652868567
1750422929.5969458,-0.01380582709097077,0.23316507975861744,0.3988350048502667,-0.006135923151542565,0.0,-0.12425244381873693,0.0,-8.473222123939188e-18,2.2964448664435753,-11.28945063955456,0.5052887520732146,-0.37465508513539886,-0.2644036957508544,0.0028986220763350754
1750422929.6129334,-0.01380582709097077,0.23316507975861744,0.3988350048502667,-0.006135923151542565,0.0015339807878856412,-0.12425244381873693,0.0,2.1780799386306171e-16,2.2956608743184996,-11.290234631679636,0.5053650635258667,-0.37470688013943243,-0.26440074206059366,0.0028883312864493543
1750422929.6290417,-0.01380582709097077,0.23316507975861744,0.3988350048502667,-0.006135923151542565,0.0,-0.12425244381873693,0.0015339807878856412,7.479350472294755e-17,2.296449743955186,-11.28944576204295,0.5053025773535853,-0.3746653700938625,-0.2644085087554544,0.0029105636614618706
1750422929.6449513,-0.01380582709097077,0.23316507975861744,0.3988350048502667,-0.006135923151542565,0.0,-0.12425244381873693,0.0015339807878856412,7.479350472294755e-17,2.296449743955186,-11.28944576204295,0.5053025773535853,-0.3746653700938625,-0.2644085087554544,0.0029105636614618706
1750422929.677,-0.01380582709097077,0.23316507975861744,0.3988350048502667,-0.006135923151542565,0.0,-0.12425244381873693,0.0015339807878856412,7.479350472294755e-17,2.296449743955186,-11.28944576204295,0.5053025773535853,-0.3746653700938625,-0.2644085087554544,0.0029105636614618706
1750422929.6930122,-0.01380582709097077,0.23316507975861744,0.3988350048502667,-0.006135923151542565,0.0,-0.12425244381873693,0.0,-8.473222123939188e-18,2.2964448664435753,-11.28945063955456,0.5052887520732146,-0.37465508513539886,-0.2644036957508544,0.0028986220763350754
1750422929.7090185,-0.01380582709097077,0.23316507975861744,0.3988350048502667,-0.007669903939428206,0.0,-0.12425244381873693,0.0015339807878856412,2.1780799386306171e-16,2.2970388381135733,-11.288856667884563,0.5061779380183253,-0.37474229331644654,-0.2644080248321674,0.0028967420573312785
1750422929.7410514,-0.01380582709097077,0.23316507975861744,0.3988350048502667,-0.007669903939428206,0.0,-0.12425244381873693,0.0,1.3454126701617497e-16,2.2970339444976413,-11.288861561500495,0.5061641120226532,-0.3747320003343639,-0.2644032118830492,0.0028847924044229406
1750422929.7569618,-0.01380582709097077,0.23316507975861744,0.3988350048502667,-0.007669903939428206,0.0,-0.12425244381873693,0.0,1.3454126701617497e-16,2.2970339444976413,-11.288861561500495,0.5061641120226532,-0.3747320003343639,-0.2644032118830492,0.0028847924044229406
1750422929.7730696,-0.01380582709097077,0.23316507975861744,0.3988350048502667,-0.007669903939428206,0.0,-0.12425244381873693,0.0015339807878856412,2.1780799386306171e-16,2.2970388381135733,-11.288856667884563,0.5061779380183253,-0.37474229331644654,-0.2644080248321674,0.0028967420573312785
1750422929.7890458,-0.01380582709097077,0.23316507975861744,0.3988350048502667,-0.006135923151542565,0.0,-0.1227184630308513,0.0,2.351896455365932e-17,2.2960559586194242,-11.289839547378712,0.505288324047201,-0.37465238171285026,-0.2640147972420558,0.0028938152818242346
1750422929.8210893,-0.01380582709097077,0.23316507975861744,0.3988350048502667,-0.006135923151542565,0.0,-0.1227184630308513,0.0,2.351896455365932e-17,2.2960559586194242,-11.289839547378712,0.505288324047201,-0.37465238171285026,-0.2640147972420558,0.0028938152818242346
1750422929.8370593,-0.01380582709097077,0.23316507975861744,0.3988350048502667,-0.006135923151542565,0.0,-0.12118448224296566,0.0,-1.1525891352448525e-16,2.295666429550639,-11.290229076447497,0.50528790018078,-0.37464967756441464,-0.2636252774809366,0.0028890015477504166
1750422929.8531146,-0.01380582709097077,0.23316507975861744,0.3988350048502667,-0.006135923151542565,0.0015339807878856412,-0.11811652066719437,0.0,1.3454126701617497e-16,2.294101508722466,-11.29179399727567,0.5053606719131111,-0.37469405598805194,-0.26284142103429126,0.002869062490197921
1750422929.8690789,-0.01380582709097077,0.2316310989707318,0.3988350048502667,-0.007669903939428206,0.0,-0.11965050145508001,0.0,-2.1357138280109212e-16,2.29391284368492,-11.30045401505577,0.5067515126780194,-0.373937567059615,-0.26284389819917436,0.0028654432477075798
1750422929.9010303,-0.01380582709097077,0.23316507975861744,0.3988350048502667,-0.006135923151542565,0.0,-0.11811652066719437,0.0,7.479350472294755e-17,2.2948855113470183,-11.291009994651118,0.5052870649306946,-0.37464426711533655,-0.26284437786950615,0.0028793533062388722
1750422929.9169557,-0.01380582709097077,0.23316507975861744,0.3988350048502667,-0.006135923151542565,0.0015339807878856412,-0.11811652066719437,0.0,1.3454126701617497e-16,2.294101508722466,-11.29179399727567,0.5053606719131111,-0.37469405598805194,-0.26284142103429126,0.002869062490197921
1750422929.9331126,-0.01380582709097077,0.23316507975861744,0.3988350048502667,-0.007669903939428206,0.0,-0.11811652066719437,0.0,-3.199218667759851e-17,2.2954745871902325,-11.290420918807904,0.5061620031019474,-0.37471847785701556,-0.26284391272429614,0.002865523855879093
1750422929.9649177,-0.01380582709097077,0.23316507975861744,0.3988350048502667,-0.007669903939428206,0.0,-0.11811652066719437,0.0,-3.199218667759851e-17,2.2954745871902325,-11.290420918807904,0.5061620031019474,-0.37471847785701556,-0.26284391272429614,0.002865523855879093
1750422929.9810855,-0.01380582709097077,0.23316507975861744,0.3988350048502667,-0.006135923151542565,0.0,-0.11658253987930872,0.0,-5.974776229322742e-17,2.2944941240497623,-11.291401381948374,0.5052866535489959,-0.3746415608274249,-0.26245299985672715,0.00287451882150439
1750422929.9970293,-0.01380582709097077,0.23316507975861744,0.39730102406238105,-0.007669903939428206,0.0,-0.11504855909142309,0.0,2.0604851158623205e-16,2.284265475627302,-11.301630030370834,0.5067499682081881,-0.3739274067145022,-0.26166792644132225,0.0028509192891484555
1750422930.0130534,-0.01380582709097077,0.23316507975861744,0.39730102406238105,-0.007669903939428206,0.0,-0.1119805975156518,0.0015339807878856412,2.0232704400768848e-17,2.2834833409662916,-11.302412165031846,0.5067628062078932,-0.3739309003895813,-0.26088574025477673,0.0028529765576942767
1750422930.04507,-0.01380582709097077,0.23316507975861744,0.3957670432744954,-0.007669903939428206,0.0,-0.10737865515199488,0.0015339807878856412,1.5477397141694382e-16,2.2718959417472404,-11.313999564250894,0.5073491488558741,-0.37313550156522024,-0.25930427135562983,0.0028333013576808015
1750422930.0609562,-0.01380582709097077,0.23316507975861744,0.3942330624866098,-0.009203884727313847,0.0,-0.1043106935762236,0.0015339807878856412,-1.7077006475574308e-16,2.2613112659262895,-11.324584240071845,0.5088107108250692,-0.37241097680939705,-0.25811123729141233,0.002804583694212624
1750422930.0771322,-0.01380582709097077,0.23316507975861744,0.3911651009108385,-0.01227184630308513,0.0,-0.0966407896367954,0.0,3.2459368526360777e-16,2.2397957011748217,-11.346099804823313,0.5117170185772317,-0.3709359179499441,-0.2553013005302921,0.0027303713469274513
1750422930.092996,-0.01380582709097077,0.23316507975861744,0.38809713933506723,-0.01380582709097077,0.0,-0.09050486648525283,0.0,1.3454126701617497e-16,2.2181801281946902,-11.367715377803444,0.5137605503431227,-0.3693987118318638,-0.2528739584889428,0.002686294884228002
1750422930.1250448,-0.01380582709097077,0.23316507975861744,0.38349519697141027,-0.01687378866674205,0.0,-0.08283496254582462,0.0015339807878856412,-9.50262091237164e-17,2.1866227497101103,-11.399272756288028,0.5172734590695388,-0.3671234770876669,-0.24960867028919032,0.002628943190296886
1750422930.1410248,-0.01380582709097077,0.23316507975861744,0.37889325460775336,-0.019941750242513337,0.0,-0.07209709703062514,0.0015339807878856412,6.727063350808749e-17,2.154426199391087,-11.431469306607049,0.5207651784875716,-0.3647991545787739,-0.24546842653007916,0.002549318227641823
1750422930.1570048,-0.01380582709097077,0.23316507975861744,0.3727573314562108,-0.023009711818284616,0.0,-0.06135923151542565,0.0015339807878856412,-5.2224891078367356e-17,2.11237835934887,-11.473517146649264,0.5248307679303025,-0.3616503016333131,-0.2408476924882129,0.0024634326996936496
1750422930.1890569,-0.01380582709097077,0.23316507975861744,0.36815538909255385,-0.02761165418194154,0.0,-0.0521553467881118,0.0015339807878856412,-6.303402244611789e-17,2.0816213176191414,-11.504274188378997,0.529185905229686,-0.35932788406379323,-0.23701478348810118,0.0023732184440038804
1750422930.2049656,-0.01380582709097077,0.23316507975861744,0.3604854851531257,-0.0337475773334841,0.0,-0.039883500485026674,0.0,-1.5053736035497423e-16,2.031071559377357,-11.554823946620779,0.5355442628942126,-0.3553669149218622,-0.23139395944582952,0.0022356159738839035
1750422930.221047,-0.01380582709097077,0.2316310989707318,0.3528155812136975,-0.03834951969714103,0.0,-0.02761165418194154,0.0,-2.7755575615628914e-17,1.979317671645548,-11.61504918709514,0.5415982805087789,-0.35050568210954275,-0.22524554370471847,0.0021156409050728875
1750422930.237082,-0.01380582709097077,0.2316310989707318,0.34514567727426926,-0.044485442848683596,0.0,-0.015339807878856412,0.0,-1.9282353491689725e-17,1.9300395869514517,-11.664327271789237,0.5479365230494713,-0.34642494001606744,-0.21944308932047257,0.0019855642307129158
1750422930.2689977,-0.01380582709097077,0.23009711818284617,0.3374757733348411,-0.0521553467881118,0.0,-0.0015339807878856412,0.0,-2.33804087201861e-16,1.8804915999584524,-11.722314622666406,0.5556952738850381,-0.3414599720910598,-0.21264105122871962,0.0018279586332455781
1750422930.2850547,-0.01380582709097077,0.22856313739496054,0.3282718886075272,-0.05829126993965436,0.0,0.01227184630308513,0.0015339807878856412,-1.3359091610709587e-16,1.8219902153770065,-11.789223362415001,0.5631299800695806,-0.335568278279538,-0.20527051848830125,0.0016860040431007565
1750422930.3010468,-0.01380582709097077,0.22856313739496054,0.3190680038802134,-0.06596117387908257,0.0,0.02761165418194154,0.0015339807878856412,-9.9262820185686e-17,1.7653807242590638,-11.845832853532938,0.5708339758471523,-0.33038415451835657,-0.19777444986647272,0.0015183814339237308
1750422930.332963,-0.01380582709097077,0.22549517581918926,0.3083301383650139,-0.07516505860639641,0.0,0.044485442848683596,0.0,2.0393020605524726e-16,1.6998669274567018,-11.928065255460623,0.5810170511159992,-0.32254872301752907,-0.18823628228008324,0.00130010844180694
1750422930.348998,-0.01380582709097077,0.22549517581918926,0.2975922728498144,-0.08436894333371027,0.0,0.06289321230331128,0.0,4.9156234638303436e-17,1.6363433289447222,-11.9915888539726,0.5900688961648397,-0.31620455290825966,-0.17902644658785782,0.0010951704530677278
1750422930.364983,-0.01380582709097077,0.22242721424341796,0.28838838812250056,-0.09203884727313846,0.0,0.0782330201821677,0.0015339807878856412,2.351896455365932e-17,1.5826210844382542,-12.061901432316523,0.5987622607829605,-0.3089764312146911,-0.17017205803630212,0.000915576977206328
1750422930.3810534,-0.01380582709097077,0.21782527187976106,0.2791845033951867,-0.09970875121256667,0.0,0.09510680884890975,0.0015339807878856412,-1.0254908033857647e-16,1.5298897476022648,-12.139277419986364,0.6079189226763951,-0.30070810951902943,-0.16018305859967977,0.0007126228041715838
1750422930.4130743,-0.01380582709097077,0.21475731030398976,0.2684466378799872,-0.10891263593988053,0.0,0.1119805975156518,0.0015339807878856412,-2.7543745062530436e-16,1.471385128628517,-12.214051014046438,0.6178747893800943,-0.29226198316831653,-0.15005754308685382,0.000492228206447749
1750422930.4290588,-0.01380582709097077,0.21015536794033285,0.260776733940559,-0.11658253987930872,0.0,0.1303883669702795,0.0015339807878856412,1.5996093338799254e-17,1.429508699667287,-12.280089334608622,0.6263866386410606,-0.2845005831686823,-0.13980230317737774,0.00028557398388907667
1750422930.4450943,-0.01380582709097077,0.2055534255766759,0.25157284921324513,-0.1227184630308513,0.0,0.14572817484913592,0.0,2.987388114661371e-17,1.3820667042692518,-12.35140288198686,0.6344510871281007,-0.2758823602077955,-0.1299337438897281,9.136323142553944e-05
1750422930.4609983,-0.01380582709097077,0.20248546400090464,0.24083498369804565,-0.1303883669702795,0.0,0.16260196351587797,0.0015339807878856412,7.479350472294755e-17,1.3286521071507598,-12.420570297396234,0.6433441174883883,-0.26703872161092135,-0.11945869577977025,-0.00011391872951490721
1750422930.493088,-0.01227184630308513,0.1978835216372477,0.2316310989707318,-0.13652429012182207,0.0,0.17947575218262002,0.0015339807878856412,7.150724457005708e-17,1.28454392007701,-12.48806501668394,0.651277427802047,-0.2581043391355592,-0.10886965281041705,-0.0003115906288877295
1750422930.5088956,-0.01227184630308513,0.1932815792735908,0.22089323345553233,-0.14266021327336462,0.0,0.1932815792735908,0.0015339807878856412,1.6653345369377348e-16,1.236761611639563,-12.558942183280015,0.6595755160439366,-0.2482916468273757,-0.09872197696690777,-0.000505300885945456
1750422930.525061,-0.01227184630308513,0.18867963690993386,0.21322332951610412,-0.14726215563702155,0.0,0.2086213871524472,0.0015339807878856412,1.7405632490863355e-16,1.2032487303627737,-12.615257759560974,0.6659960078693864,-0.24015860083444132,-0.08903855360272502,-0.0006760408732182098
1750422930.5569463,-0.01227184630308513,0.1856116753341626,0.2055534255766759,-0.15339807878856412,0.0,0.22089323345553233,0.0015339807878856412,4.163336342344337e-17,1.1714933035221757,-12.662052431477571,0.6727476176561962,-0.2329080425090193,-0.08094408920820058,-0.0008425702176010843
1750422930.57299,-0.01227184630308513,0.1825437137583913,0.19481556006147643,-0.1564660403643354,0.0,0.2316310989707318,0.0015339807878856412,-1.3877787807814457e-17,1.1286628708856004,-12.719791902589218,0.6785605382156991,-0.22401841546951393,-0.07222951211406473,-0.0009872850426263095
1750422930.5890477,-0.01227184630308513,0.18100973297050565,0.18714565612204823,-0.16106798272799233,0.0,0.24083498369804565,0.0,-5.339284570027303e-17,1.0988397592008345,-12.757020662135274,0.6838412570131801,-0.217777692351565,-0.06569164481055549,-0.001121911513740723
1750422930.6050231,-0.01227184630308513,0.17794177139473438,0.17947575218262002,-0.1641359443037636,0.0,0.24850488763747386,0.0,7.691181025393235e-17,1.0718914269877478,-12.798682460187475,0.6886213644080195,-0.21076084100541684,-0.05912007715749174,-0.001238752435154598
1750422930.6369822,-0.01227184630308513,0.17487380981896308,0.17333982903107745,-0.16566992509164924,0.0,0.25770877236478773,0.0015339807878856412,1.1854517367737572e-16,1.0506588987136682,-12.834497899176668,0.6920911119378278,-0.2046469196447187,-0.052526139247603854,-0.0013362978330587372
1750422930.6531124,-0.01227184630308513,0.1718058482431918,0.17027186745530618,-0.16720390587953488,0.0,0.2638446955163303,0.0015339807878856412,1.3877787807814457e-16,1.0419485166301583,-12.857660499591386,0.6946605980223154,-0.20051352120548266,-0.04812377993809932,-0.0014085782342607256
1750422930.6690698,-0.01227184630308513,0.16720390587953488,0.16566992509164924,-0.16873788666742054,0.0,0.2684466378799872,0.0,2.4439561485678495e-16,1.0309814777433024,-12.890060520526745,0.697959514990592,-0.1945940314752006,-0.043145248477724725,-0.0014918136615072947
1750422930.7009861,-0.01227184630308513,0.1641359443037636,0.1595340019401067,-0.16873788666742054,0.0,0.2715145994557585,0.0015339807878856412,-4.9156234638303436e-17,1.0139663401525136,-12.921200553052703,0.7003347682042018,-0.1888648595238143,-0.03870315351407139,-0.0015482375891695459
1750422930.716959,-0.01227184630308513,0.16106798272799233,0.15493205957644976,-0.16873788666742054,0.0,0.2745825610315298,0.0015339807878856412,1.811439886978405e-17,1.0026515634377753,-12.946509061604637,0.7022634019452487,-0.18404299254579626,-0.03480761889211993,-0.001599203328618735
