ashok-ga/fk_ik/fk/impedance_log.csv
time,q0,q1,q2,q3,q4,q5,q6,q_err0,q_err1,q_err2,q_err3,q_err4,q_err5,q_err6,dq0,dq1,dq2,dq3,dq4,dq5,dq6,tau0,tau1,tau2,tau3,tau4,tau5,tau6
1750422554.2879968,0.0,0.0,0.0,0.0,0.0015339807878856412,0.0,0.0015339807878856412,0.0,0.0,0.0,0.0,0.0015339807878856412,0.0,0.0015339807878856412,0.0,0.0,0.0,0.0,0.07669903939428206,0.0,0.07669903939428206,0.0,1.3232660531428588,-13.173412599614327,0.6299907056279312,0.09081166264282996,-0.01850604120762661,0.0
1750422554.3039463,0.0,0.0,0.0,0.0,0.0015339807878856412,0.0,0.0,0.0,0.0,0.0,0.0,0.0015339807878856412,0.0,0.0,0.0,0.0,0.0,0.0,0.0,0.0,-0.07669903939428206,0.0,1.3232594630293568,-13.173419189727829,0.6299733427462282,-0.001227184630308513,-0.01849942446350412,0.0
1750422554.335836,0.0,-0.0015339807878856412,0.0,0.06902913545485385,0.018407769454627694,-0.0015339807878856412,0.0,0.0,-0.0015339807878856412,0.0,0.06902913545485385,0.018407769454627694,-0.0015339807878856412,0.0,0.0,-0.07669903939428206,0.0,3.451456772742693,0.8436894333371026,-0.07669903939428206,0.0,1.0842021724855044e-17,1.4711096596146038,-13.182392320103702,0.5102283965178773,0.9991021209654884,-0.10974519787672855,0.0007863094251964754
1750422554.3519177,-0.0015339807878856412,0.0,0.0,0.17027186745530618,0.032213596545598466,-0.0046019423636569235,0.0,-0.0015339807878856412,0.0,0.0,0.17027186745530618,0.032213596545598466,-0.0046019423636569235,0.0,-0.07669903939428206,0.07669903939428206,0.0,5.062136600022616,0.6902913545485386,-0.15339807878856412,0.0,-0.30526217678924256,1.150413718744742,-13.192866855223878,0.32938289218271155,0.8022436545482738,-0.20237387511429838,0.0019604348263551133
1750422554.3678887,-0.0046019423636569235,0.0015339807878856412,0.0,0.25310683000113077,0.09510680884890975,-0.01380582709097077,0.0,-0.0046019423636569235,0.0015339807878856412,0.0,0.25310683000113077,0.09510680884890975,-0.01380582709097077,0.0,-0.15339807878856412,0.07669903939428206,0.0,4.14174812729123,3.1446606151655643,-0.46019423636569234,0.0,-0.6089903727905996,1.107789798198062,-13.232031415512811,0.17635349305713088,3.686788504033006,-0.5734331173799176,0.002987259262156785
1750422554.3838892,-0.06442719309119693,0.07056311624273949,0.0,0.3374757733348411,0.17947575218262002,-0.06135923151542565,0.0015339807878856412,-0.06442719309119693,0.07056311624273949,0.0,0.3374757733348411,0.17947575218262002,-0.06135923151542565,0.0015339807878856412,-2.9912625363770005,3.451456772742693,0.0,4.2184471666855154,4.218447166685514,-2.377670221222744,0.07669903939428206,-11.900622952416805,-5.929335261978359,-13.328810064778047,0.014437809830268655,4.849175635789253,-2.8896334029077098,0.004333191979888603
1750422554.4159298,-0.1487961364249072,0.1349903093339364,0.0015339807878856412,0.4172427743048944,0.26231071472844464,-0.14266021327336462,0.0015339807878856412,-0.1487961364249072,0.1349903093339364,0.0015339807878856412,0.4172427743048944,0.26231071472844464,-0.14266021327336462,0.0015339807878856412,-4.218447166685513,3.221359654559846,0.07669903939428206,3.9883500485026673,4.141748127291231,-4.0650490878969485,0.0,-16.724992530317145,-5.734474334648489,-13.448121204143167,-0.14163648008112695,4.634650900404722,-4.912695514785467,0.005540278024827712
1750422554.431911,-0.2162912910918754,0.16260196351587797,0.0,0.461728217153578,0.3436116964863836,-0.2162912910918754,0.0015339807878856412,-0.2162912910918754,0.16260196351587797,0.0,0.461728217153578,0.3436116964863836,-0.2162912910918754,0.0015339807878856412,-3.3747577333484102,1.380582709097078,-0.07669903939428206,2.224272142434178,4.065049087896949,-3.6815538909255388,0.0,-13.282739642301765,-2.1860511803177527,-13.275027077622616,-0.23159426130630267,4.446177265530687,-4.436760735663072,0.00613758549596295
1750422554.447958,-0.2638446955163303,0.1825437137583913,0.0015339807878856412,0.44945637085049284,0.4203107358806657,-0.28225246497095796,0.0,-0.2638446955163303,0.1825437137583913,0.0015339807878856412,0.44945637085049284,0.4203107358806657,-0.28225246497095796,0.0,-2.377670221222744,0.9970875121256662,0.07669903939428206,-0.6135923151542572,3.834951969714104,-3.2980586939541285,-0.07669903939428206,-9.246836189374646,-1.5196672117755559,-13.467519789060066,-0.21398154537417624,4.0859751592366,-3.956316628300427,0.006022650205580617
1750422554.4799147,-0.303728196001357,0.1932815792735908,0.0030679615757712823,0.36815538909255385,0.49394181369917645,-0.34821363885004053,0.0,-0.303728196001357,0.1932815792735908,0.0030679615757712823,0.36815538909255385,0.49394181369917645,-0.34821363885004053,0.0,-1.994175024251335,0.5368932757599754,0.07669903939428206,-4.065049087896949,3.6815538909255374,-3.2980586939541285,0.0,-7.672971901003982,-0.6598716925023527,-13.476895744750887,-0.06480116859824836,3.838194355400571,-3.92380362942225,0.005169946774979518
1750422554.4958317,-0.3436116964863836,0.200951483213019,0.006135923151542565,0.25770877236478773,0.5752427954571154,-0.42184471666855133,0.0015339807878856412,-0.3436116964863836,0.200951483213019,0.006135923151542565,0.25770877236478773,0.5,-0.42184471666855133,0.0015339807878856412,-1.9941750242513323,0.3834951969714104,0.15339807878856412,-5.522330836388306,4.065049087896949,-3.68155389092554,0.07669903939428206,-7.633088400518947,-0.3997502912100862,-13.58002380803282,0.13629564373929348,4.298748016381502,-4.338569372517494,0.0039794341094939525
1750422554.5119576,-0.38502917775929596,0.13192234775816514,0.015339807878856412,0.1595340019401067,0.6488738732756262,-0.48473792897186263,0.0,-0.38502917775929596,0.13192234775816514,0.015339807878856412,0.1595340019401067,0.5,-0.48473792897186263,0.0,-2.0708740636456167,-3.4514567727426932,0.46019423636569234,-4.908738521234052,3.6815538909255374,-3.1446606151655647,-0.07669903939428206,-7.89846707682317,7.50390483392901,-14.04211624173639,0.31718590355598497,3.8903716055034825,-3.6349218356706783,0.0031738231885349967
1750422554.5278902,-0.44178646691106466,0.0521553467881118,0.030679615757712823,0.07363107781851078,0.7209709703062513,-0.5522330836388308,0.0015339807878856412,-0.44178646691106466,0.0521553467881118,0.030679615757712823,0.07363107781851078,0.5,-0.5,0.0015339807878856412,-2.837864457588435,-3.988350048502667,0.7669903939428205,-4.295146206079796,3.6048548515312584,-3.3747577333484102,0.07669903939428206,-10.909671363442676,8.822494056177586,-14.46525512648171,0.4730629691143191,3.855869421185437,-3.88937106005896,0.00266383206821857
1750422554.5599496,-0.5031456984264903,-0.018407769454627694,0.06135923151542565,0.059825250727540004,0.7930680673368765,-0.6212622190936846,0.0015339807878856412,-0.5,-0.018407769454627694,0.06135923151542565,0.059825250727540004,0.5,-0.5,0.0015339807878856412,-3.0679615757712804,-3.528155812136975,1.533980787885641,-0.6902913545485386,3.6048548515312584,-3.4514567727426892,0.0,-11.771846303085123,8.06582147928526,-15.428154307458916,0.49301995071274585,3.882330966752397,-3.9898709836303703,0.002891693704505831
1750422554.5758343,-0.5599029875782591,-0.06596117387908257,0.08283496254582462,0.10891263593988053,0.8605632220038447,-0.6780195082454534,0.0015339807878856412,-0.5,-0.06596117387908257,0.08283496254582462,0.10891263593988053,0.5,-0.5,0.0015339807878856412,-2.83786445758844,-2.377670221222744,1.0737865515199487,2.454369260617026,3.3747577333484102,-2.83786445758844,0.0,-10.851457830353763,5.834633100662506,-14.905151449789182,0.39248104579036314,3.6045844140843486,-3.2732895432725058,0.003664688323242854
1750422554.5918937,-0.6105243535784852,-0.08897088569736719,0.09510680884890975,0.16566992509164924,0.9295923574586985,-0.7347767973972221,0.0015339807878856412,-0.5,-0.08897088569736719,0.09510680884890975,0.16566992509164924,0.5,-0.5,0.0015339807878856412,-2.5310683000113077,-1.150485590914231,0.6135923151542565,2.8378644575884353,3.4514567727426892,-2.837864457588435,0.0,-9.62427320004523,3.38648362963142,-14.384635515218768,0.2716570140854042,3.6797440586585193,-3.295996340930688,0.0043515053557238855
1750422554.623841,-0.6534758156392831,-0.10891263593988053,0.0966407896367954,0.2270291566070749,0.9970875121256667,-0.7930680673368765,0.0,-0.5,-0.10891263593988053,0.0966407896367954,0.2270291566070749,0.5,-0.5,0.0,-2.1475731030398957,-0.9970875121256668,0.07669903939428249,3.067961575771283,3.3747577333484102,-2.914563496982719,-0.07669903939428206,-8.090292412159581,3.0910011016474748,-13.746558438628384,0.13735059989433784,3.5700128434994465,-3.408442162030843,0.005034823920646897
1750422554.6398242,-0.7086991240031663,-0.1641359443037636,0.0966407896367954,0.29145634969827183,1.0737865515199487,-0.8574952604280734,0.0015339807878856412,-0.5,-0.1641359443037636,0.0966407896367954,0.29145634969827183,0.5,-0.5,0.0015339807878856412,-2.761165418194156,-2.7611654181941536,0.0,3.2213596545598464,3.834951969714101,-3.2213596545598464,0.07669903939428206,-10.544661672776622,6.707073369124352,-13.580415345298366,-0.011954968077493078,4.118509307126532,-3.7911454809441634,0.00595774004654419
1750422554.6558137,-0.7577865092155067,-0.21475731030398976,0.0966407896367954,0.30679615757712825,1.1351457830353744,-0.9096506072161852,0.0015339807878856412,-0.5,-0.21475731030398976,0.0966407896367954,0.30679615757712825,0.5,-0.5,0.0015339807878856412,-2.454369260617023,-2.5310683000113077,0.0,0.7669903939428208,3.067961575771283,-2.6077673394055867,0.0,-9.317477042468091,6.330184632957158,-13.470482651646645,-0.06385649700489993,3.2099136135040056,-3.060128769956264,0.006455319758438112
1750422554.6718748,-0.8084078752157329,-0.2653786763042159,0.0966407896367954,0.2761165418194154,1.1980389953386859,-0.966407896367954,0.0,-0.5,-0.2653786763042159,0.0966407896367954,0.2761165418194154,0.5,-0.5,0.0,-2.5310683000113077,-2.5310683000113077,0.0,-1.5339807878856415,3.144660615165573,-2.83786445758844,-0.07669903939428206,-9.62427320004523,6.410143209932722,-13.32638471756104,-0.026998331734961356,3.3320319094166018,-3.33739556641351,0.006698209892522061
1750422554.703952,-0.8620972027917303,-0.31139809994078516,0.09817477042468103,0.19481556006147643,1.2624661884298827,-1.0293011086712651,0.0,-0.5,-0.31139809994078516,0.09817477042468103,0.19481556006147643,0.5,-0.5,0.0,-2.684466378799871,-2.300971181828462,0.0766990393942818,-4.065049087896949,3.221359654559841,-3.1446606151655563,0.0,-10.237865515199482,6.0087811371762685,-13.27040143935815,0.10766969028915874,3.475024053865485,-3.7033783927861306,0.00672671427352693
1750422554.7198172,-0.9157865303677277,-0.3313398501832985,0.1043106935762236,0.1043106935762236,1.3314953238847365,-1.0921943209745766,0.0015339807878856412,-0.5,-0.3313398501832985,0.1043106935762236,0.1043106935762236,0.5,-0.5,0.0015339807878856412,-2.684466378799871,-0.9970875121256662,0.3067961575771286,-4.525243324262641,3.4514567727426892,-3.144660615165573,0.07669903939428206,-10.237865515199482,3.3803824915790863,-13.524431609896045,0.25663914491164963,3.793509347813667,-3.7033445412065475,0.006553750571020312
1750422554.7359226,-0.9679418771558396,-0.3620194659410113,0.10891263593988053,0.030679615757712823,1.4005244593395905,-1.158155494853659,0.0,-0.5,-0.3620194659410113,0.10891263593988053,0.030679615757712823,0.5,-0.5,0.0,-2.607767339405592,-1.5339807878856415,0.2300971181828461,-3.6815538909255388,3.4514567727427004,-3.29805869395412,-0.07669903939428206,-9.931069357622366,4.458928581034783,-13.345872110514861,0.36867084351231494,3.836044612450901,-3.8873424192988937,0.006643615567434075
1750422554.7678547,-1.0231651855197226,-0.39730102406238105,0.11504855909142309,0.0260776733940559,1.4772234987338724,-1.2210487071569704,0.0,-0.5,-0.39730102406238105,0.11504855909142309,0.0260776733940559,0.5,-0.5,0.0,-2.76116541819415,-1.7640779060684868,0.30679615757712786,-0.2300971181828461,3.8349519697140955,-3.144660615165573,0.0,-10.544661672776602,4.92422711380561,-13.322932163857216,0.33810915922010576,4.300182685106846,-3.7094332041318547,0.007046213657876664
1750422554.7838056,-1.0891263593988052,-0.44178646691106466,0.11504855909142309,0.11044661672776616,1.564660403643354,-1.2977477465512524,0.0015339807878856412,-0.5,-0.44178646691106466,0.11504855909142309,0.11044661672776616,0.5,-0.5,0.0015339807878856412,-3.298058693954131,-2.2242721424341805,0.0,4.218447166685513,4.3718452454740815,-3.8349519697140955,0.07669903939428206,-12.692234775816527,5.9026798798348725,-12.725203564037514,0.12083677525969794,4.895495070216515,-4.546447340364806,0.0076740175851266555
1750422554.7999353,-1.1520195717021164,-0.47860200582032003,0.11504855909142309,0.1978835216372477,1.6444274046134073,-1.3606409588545638,0.0,-0.5,-0.47860200582032003,0.11504855909142309,0.1978835216372477,0.5,-0.5,0.0,-3.144660615165562,-1.8407769454627687,0.0,4.371845245474077,3.9883500485026646,-3.144660615165573,-0.07669903939428206,-12.078642460662246,5.182087398458154,-12.515806070358796,-0.10397899713155745,4.37548860309283,-3.717102188948565,0.007902610079898741
1750422554.815876,-1.2210487071569704,-0.5077476407901472,0.11504855909142309,0.2868544073346149,1.7241944055834606,-1.4250681519457606,0.0,-0.5,-0.5,0.11504855909142309,0.2868544073346149,0.5,-0.5,0.0,-3.4514567727427004,-1.4572817484913596,0.0,4.448544284868361,3.9883500485026646,-3.221359654559841,0.0,-13.305827090970801,4.446595859579217,-12.341893150708517,-0.33467063698490396,4.30686349754915,-3.7996301678979574,0.007789578250673974
1750422554.847881,-1.2916118233997098,-0.5399612373357456,0.11504855909142309,0.3328738309711841,1.8008934449777427,-1.4910293258248433,0.0015339807878856412,-0.5,-0.5,0.11504855909142309,0.3328738309711841,0.5,-0.5,0.0015339807878856412,-3.5281558121369683,-1.6106798272799205,0.0,2.3009711818284595,3.8349519697141066,-3.298058693954131,0.07669903939428206,-13.612623248547871,4.790075678788613,-12.134212777654039,-0.47809596011714817,4.078676744134719,-3.8768230144675533,0.007597287856621853
1750422554.863874,-1.363708920430335,-0.5752427954571154,0.12118448224296566,0.2899223689103862,1.8775924843720249,-1.55545651891604,0.0,-0.5,-0.5,0.12118448224296566,0.2899223689103862,0.5,-0.5,0.0,-3.6048548515312584,-1.7640779060684897,0.3067961575771286,-2.1475731030398957,3.8349519697141066,-3.221359654559841,-0.07669903939428206,-13.919419406125035,5.099518816318502,-12.302404630624082,-0.44398145994343463,4.085519799263347,-3.7757739414348395,0.007570005662129447
1750422554.879878,-1.4342720366730746,-0.6151262959421421,0.12425244381873693,0.21782527187976106,1.9558255045541926,-1.6183497312193513,0.0,-0.5,-0.5,0.12425244381873693,0.21782527187976106,0.5,-0.5,0.0,-3.5281558121369794,-1.9941750242513323,0.1533980787885636,-3.604854851531257,3.9116510091083856,-3.144660615165562,0.0,-13.612623248547916,5.594430504680963,-11.836641652839566,-0.35248788882703375,4.201388421413073,-3.674576677533763,0.007752013894815096
1750422554.91183,-1.5033011721279284,-0.6672816427302539,0.12578642460662257,0.14266021327336462,2.035592505524246,-1.6858448858863198,0.0015339807878856412,-0.5,-0.5,0.12578642460662257,0.14266021327336462,0.5,-0.5,0.0015339807878856412,-3.4514567727426892,-2.607767339405592,0.0766990393942818,-3.7582529303198218,3.9883500485026646,-3.3747577333484213,0.07669903939428206,-13.305827090970755,6.888857470491118,-11.320469924432604,-0.2553734039483264,4.316033710428572,-3.935444517575387,0.008057975404072368
1750422554.9278076,6588395.7305250075,-0.7317088358214509,0.12885438618239387,0.05522330836388308,2.121495429645842,-1.7579419829169447,0.0015339807878856412,0.5,-0.5,0.12885438618239387,0.05522330836388308,0.5,-0.5,0.0015339807878856412,329419861.691309,-3.2213596545598464,0.15339807878856498,-4.371845245474076,4.295146206079803,-3.6048548515312473,0.0,1317679446.265236,8.188493867233781,-10.852509303866125,-0.13673829288439787,4.704335092963697,-4.189555489002302,0.008415028991466754
1750422554.9439538,6588395.652291987,-0.7807962210337913,0.12885438618239387,-0.007669903939428206,2.193592526676467,-1.8100973297050567,0.0015339807878856412,0.5,-0.5,0.12885438618239387,-0.007669903939428206,0.5,-0.5,0.0015339807878856412,-3.9116510190069675,-2.454369260617023,0.0,-3.1446606151655643,3.6048548515312584,-2.607767339405598,0.0,-16.14660407602787,6.731215549931704,-10.183594446678987,-0.05651027402743747,3.878533614250762,-2.971729317017669,0.00859509919521547
1750422554.9598804,6588395.575592947,-0.8329515678219032,0.12732040539450823,-0.02761165418194154,2.265689623707092,-1.8515148109779689,0.0,0.5,-0.5,0.12732040539450823,-0.02761165418194154,0.5,-0.5,0.0,-3.8349519949406385,-2.607767339405592,-0.0766990393942818,-0.9970875121256668,3.604854851531236,-2.0708740636456113,-0.07669903939428206,-15.839807979762554,7.130371920457783,-9.532690318271914,-0.05769112349179817,3.849885271726342,-2.3010239210509704,0.008463672199887386
1750422554.9918277,6588395.500427889,-0.880504972246358,0.1303883669702795,-0.0015339807878856412,2.342388663101374,-1.8990682154024239,0.0,0.5,-0.5,0.1303883669702795,-0.0015339807878856412,0.5,-0.5,0.0,-3.758252924308181,-2.377670221222744,0.1533980787885636,1.3038836697027951,3.8349519697141066,-2.3776702212227496,0.0,-15.533011697232723,6.7073069095442355,-9.323717969878965,-0.14736210572251607,4.067373746311595,-2.6378470372707157,0.007861930857030394
1750422555.0077977,6588395.422194868,-0.9249904150950417,0.13192234775816514,0.047553404424454875,2.419087702495656,-1.9542915237663068,0.0,0.5,-0.5,0.13192234775816514,0.047553404424454875,0.5,-0.5,0.0,-3.9116510190069675,-2.2242721424341805,0.0766990393942818,2.454369260617026,3.8349519697141066,-2.7611654181941447,0.0,-16.14660407602787,6.443268679272902,-8.746069928417365,-0.27521367921151674,3.9967482379527515,-3.0604766899386,0.006944820157001068
1750422555.0238574,6588395.337825925,-0.9771457618831534,0.13192234775816514,0.10277671278833796,2.497320722677824,-2.0110488129180757,0.0015339807878856412,0.5,-0.5,0.13192234775816514,0.10277671278833796,0.5,-0.5,0.0015339807878856412,-4.218447161838412,-2.6077673394055867,0.0,2.761165418194154,3.9116510091083967,-2.837864457588446,0.07669903939428206,-17.37378864735365,7.265558828181144,-8.051294887797214,-0.4038516683034765,4.0154185940177785,-3.108157748957867,0.00585625822512071
1750422555.0557427,6588395.2488550395,-1.0354370318228079,0.1349903093339364,0.11658253987930872,2.5770877236478773,-2.072408044433501,0.0015339807878856412,0.5,-0.5,0.1349903093339364,0.11658253987930872,0.5,-0.5,0.0015339807878856412,-4.448544280603528,-2.914563496982725,0.1533980787885636,0.6902913545485383,3.9883500485026646,-3.067961575771272,0.0,-18.294177122414112,7.90779342563606,-7.565944740436194,-0.446438198850752,4.052454025552545,-3.339158568139379,0.004915838983676001
1750422555.0717885,6588395.153748231,-1.0967962633382335,0.14572817484913592,0.0782330201821677,2.6691265709210157,-2.138369218312584,0.0,0.5,-0.5,0.14572817484913592,0.0782330201821677,0.5,-0.5,0.0,-4.755340423434973,-3.067961575771283,0.5368932757599754,-1.917475984857051,4.601942363656919,-3.2980586939541423,-0.07669903939428206,-19.52136169373989,8.167699349969231,-7.371846752509053,-0.39536305475904454,4.74754888986992,-3.5721576451952037,0.004099095231082932
1750422555.0879176,6588395.075515211,-1.1520195717021164,0.1564660403643354,0.0260776733940559,2.718213956133356,-2.1905245651006955,0.0,0.5,-0.5,0.1564660403643354,0.0260776733940559,0.5,-0.5,0.0,-3.9116510190069675,-2.7611654181941447,0.5368932757599739,-2.60776733940559,2.4543692606170175,-2.6077673394055756,0.0,-16.14660407602787,7.485272331211663,-6.782893226062916,-0.3042718655006462,2.1515537420634736,-2.7100130862396137,0.0037291857292767734
1750422555.1039145,6588395.008020056,-1.1995729761265714,0.16566992509164924,-0.0260776733940559,2.7335537640122127,-2.2334760271614935,0.0,0.5,-0.5,0.16566992509164924,-0.0260776733940559,0.5,-0.5,0.0,-3.3747577108442783,-2.3776702212227496,0.4601942363656922,-2.6077673394055902,0.7669903939428346,-2.1475731030399015,0.0,-13.999030843377113,6.6449076157543026,-6.178269294046334,-0.20597657745479525,0.1216622234095821,-2.1310124908934993,0.003662134875492539
1750422555.1358986,6588394.945126844,-1.2455923997631406,0.17794177139473438,-0.06596117387908257,2.719747936921242,-2.2733595276465204,0.0,0.5,-0.5,0.17794177139473438,-0.06596117387908257,0.5,-0.5,0.0,-3.1446606386452913,-2.3009711818284595,0.6135923151542572,-1.9941750242513334,-0.6902913545485445,-1.9941750242513434,0.0,-13.078642554581165,6.355727856034594,-5.918599933332226,-0.12465741634498273,-1.6228008782142178,-1.9247415517715836,0.0037926466740003787
1750422555.1518748,6588394.883767612,-1.2808739578845103,0.18867963690993386,-0.07056311624273949,2.6691265709210157,-2.320912932070975,0.0,0.5,-0.5,0.18867963690993386,-0.07056311624273949,0.5,-0.5,0.0,-3.0679615680128336,-1.7640779060684841,0.5368932757599739,-0.2300971181828461,-2.5310683000113077,-2.3776702212227274,0.0,-12.771846272051334,5.141597742864125,-5.514170712331432,-0.09869410625135047,-3.8181914839259594,-2.3665799790852398,0.004081691804531929
1750422555.167867,6588394.8208743995,-1.2885438618239387,0.200951483213019,-0.06289321230331128,2.641514916739074,-2.371534298071201,0.0,0.5,-0.5,0.200951483213019,-0.06289321230331128,0.5,-0.5,0.0,-3.1446606386452913,-0.3834951969714173,0.6135923151542572,0.3834951969714104,-1.380582709097089,-2.5310683000113077,0.0,-13.078642554581165,2.226927652727592,-5.6701745050028345,-0.10874938769098819,-2.4314446085416015,-2.5391476973254186,0.0041377486511716645
1750422555.199839,6588394.76104915,-1.303883669702795,0.2162912910918754,-0.0337475773334841,2.6476508398906167,-2.419087702495656,0.0,0.5,-0.5,0.2162912910918754,-0.0337475773334841,0.5,-0.5,0.0,-2.991262497380376,-0.7669903939428124,0.7669903939428193,1.457281748491359,0.3067961575771383,-2.3776702212227496,0.0,-12.465049989521503,2.796433280195579,-5.8623667160851225,-0.1616694877506053,-0.4224255805499313,-2.337826523050486,0.003741473909237583
1750422555.2157824,6588394.707359822,-1.3437671701878218,0.24083498369804565,0.021475731030398976,2.6737285132846726,-2.475844991647425,0.0,0.5,-0.5,0.24083498369804565,0.021475731030398976,0.5,-0.5,0.0,-2.68446640111506,-1.9941750242513434,1.227184630308513,2.7611654181941536,1.303883669702799,-2.837864457588446,0.0,-11.23786560446024,4.912812318776874,-6.238414436626205,-0.2565817494779812,0.739865724364295,-2.8611509940221,0.0029407373374003036
1750422555.2318017,6588394.669010302,-1.3575729972787924,0.2638446955163303,0.07363107781851078,2.6384469551633027,-2.5233983960718795,0.0,0.5,-0.5,0.2638446955163303,0.07363107781851078,0.5,-0.5,0.0,-1.917475974187255,-0.6902913545485334,1.150485590914231,2.6077673394055902,-1.7640779060684952,-2.3776702212227274,0.0,-8.16990389674902,1.9796379827270334,-6.306249257556082,-0.3422238256312684,-2.942715879800981,-2.2978778302741945,0.002854645041155223
1750422555.2479196,6588394.650602533,-1.3575729972787924,0.2837864457588436,0.09817477042468103,2.676796474860444,-2.569417819708449,0.0,0.5,-0.5,0.2837864457588436,0.09817477042468103,0.5,-0.5,0.0,-0.920388475060463,0.0,0.9970875121256662,1.227184630308513,1.9174759848570533,-2.3009711818284817,0.0,-4.181553900241852,0.34909415625962836,-6.392074430622655,-0.40536007492091963,1.4531236631688147,-2.191420034897602,0.002154916280485024
1750422555.2798386,6588394.650602533,-1.3268933815210797,0.3083301383650139,0.09203884727313846,2.7120780329818137,-2.6185052049207895,0.0,0.5,-0.5,0.3083301383650139,0.09203884727313846,0.5,-0.5,0.0,0.0,1.533980787885636,1.2271846303085143,-0.3067961575771286,1.7640779060684952,-2.4543692606170175,0.0,-0.5,-2.9775440643216973,-7.36898173557586,-0.43649460962789466,1.2646846778370109,-2.373207050622109,0.0016619642572187855
1750422555.295801,6588394.650602533,-1.2532623037025687,0.34054373491061235,0.0674951546669682,2.722815898497013,-2.6614566669815876,0.0015339807878856412,0.5,-0.5,0.34054373491061235,0.0674951546669682,0.5,-0.5,0.0015339807878856412,0.0,3.6815538909255485,1.6106798272799232,-1.227184630308513,0.5368932757599643,-2.1475731030399015,0.07669903939428206,-0.4999999999999997,-7.558131450533041,-9.126457116391684,-0.45244060900758853,-0.18165100194398232,-2.0238171237677323,0.0015846769937037436
1750422555.3119354,6588394.650602533,-1.188835110611372,0.380427235395639,0.0260776733940559,2.719747936921242,-2.698272205890843,0.0,0.5,-0.5,0.380427235395639,0.0260776733940559,0.5,-0.5,0.0,0.0,3.221359654559841,1.9941750242513323,-2.070874063645615,-0.15339807878855805,-1.8407769454627632,-0.07669903939428206,-0.4999999999999998,-6.981298172668108,-10.797842488602615,-0.4210697368603642,-0.9679891067977666,-1.679958809941403,0.001841750959075762
1750422555.343716,6588394.650602533,-1.145883648550574,0.42337869745643697,-0.018407769454627694,2.6445828783148455,-2.741223667951641,0.0015339807878856412,0.5,-0.5,0.42337869745643697,-0.018407769454627694,0.5,-0.5,0.0015339807878856412,0.0,2.1475731030399015,2.147573103039899,-2.2242721424341796,-3.7582529303198164,-2.1475731030399015,0.07669903939428206,-0.49999999999999983,-5.222632103842084,-11.948563898992528,-0.34312787276934653,-5.23315267890298,-2.0735587136168245,0.0026819899454009234
1750422555.3597717,6588394.650602533,-1.1290098598838318,0.48933987133551954,-0.0674951546669682,2.5617479157690206,-2.78724309158821,0.0015339807878856412,0.5,-0.5,0.48933987133551954,-0.0674951546669682,0.5,-0.5,0.0015339807878856412,0.0,0.8436894333371026,3.2980586939541285,-2.4543692606170255,-4.141748127291245,-2.3009711818284595,0.0,-0.5000000000000003,-3.2466057928871352,-14.232949043009977,-0.23803388492672628,-5.626945075958314,-2.2848639691774926,0.0035155873454781146
1750422555.3759084,6588394.650602533,-1.0983302441261191,0.5583690067903734,-0.08130098175793898,2.4942527611020524,-2.8271265920732365,0.0015339807878856412,0.5,-0.5,0.5,-0.08130098175793898,0.5,-0.5,0.0015339807878856412,0.0,1.533980787885636,3.451456772742692,-0.690291354548539,-3.3747577333484102,-1.9941750242513212,0.0,-0.5000000000000003,-5.186423413807914,-15.355608001157563,-0.2074703632494601,-4.647980500515634,-1.944714451119014,0.0037732358713284475
1750422555.3918428,6588394.650602533,-1.0569127628532067,0.619728238305799,-0.08130098175793898,2.425223625647199,-2.8762139772855773,0.0,0.5,-0.5,0.5,-0.08130098175793898,0.5,-0.5,0.0,0.0,2.0708740636456224,3.067961575771283,0.0,-3.451456772742678,-2.4543692606170397,-0.07669903939428206,-0.5000000000000002,-6.622659733328766,-15.742694624656753,-0.20338405957161865,-4.68740646801436,-2.5189274067370135,0.003674462611579078
1750422555.4238982,6588394.649068552,-1.0277671278833795,0.679553489033339,-0.08130098175793898,2.354660509404459,-2.9314372856494604,0.0,0.5,-0.5,0.5,-0.08130098175793898,0.5,-0.5,0.0,-0.076699024066329,1.457281748491357,2.9912625363769982,0.0,-3.5281558121369905,-2.761165418194156,0.0,-0.8067960962653156,-5.700859579702858,-16.28792997150481,-0.19396871854508685,-4.734968430428291,-2.9005082329778373,0.003404344612897207
1750422555.439862,6588394.649068552,-0.9863496466104673,0.7347767973972221,-0.08130098175793898,2.2856313739496055,-2.9851266132254577,0.0,0.5,-0.5,0.5,-0.08130098175793898,0.5,-0.5,0.0,0.0,2.0708740636456113,2.761165418194156,0.0,-3.451456772742678,-2.6844663787998657,0.0,-0.5,-7.05268741170532,-16.594270017447187,-0.18218722711941127,-4.598227774367049,-2.821052906641232,0.0029206182626650553
1750422555.4559147,6588394.636796705,-0.9480001269133262,0.7946020481247621,-0.08130098175793898,2.2227381616462942,-3.038815940801455,0.0,0.5,-0.5,0.5,-0.08130098175793898,0.5,-0.5,0.0,-0.6135923322290182,1.9174759848570533,2.9912625363769982,0.0,-3.144660615165562,-2.6844663787998657,0.0,-2.954369328916073,-6.804735759352324,-17.338055139415403,-0.1703196475302785,-4.188667882978346,-2.829691439258208,0.0022386459569481753
1750422555.4877377,6588394.635262725,-0.9249904150950417,0.8574952604280734,-0.08130098175793898,2.1598449493429825,-3.090971287589567,0.0,0.5,-0.5,0.5,-0.08130098175793898,0.5,-0.5,0.0,-0.076699024066329,1.1504855909142297,3.1446606151655674,0.0,-3.1446606151655843,-2.607767339405598,0.0,-0.8067960962653161,-5.339359938143678,-17.8288146223045,-0.15514929427245275,-4.154658613294362,-2.740335695466421,0.0014896776589879647
1750422555.5037394,6588394.635262725,-0.885106914610015,0.9157865303677277,-0.08130098175793898,2.087747852312358,-3.1569324614686494,0.0,0.5,-0.5,0.5,-0.08130098175793898,0.5,-0.5,0.0,0.0,1.9941750242513323,2.914563496982714,0.0,-3.604854851531236,-3.29805869395412,0.0,-0.49999999999999983,-6.854074607761416,-17.779439340766867,-0.13744130947664013,-4.67184898106604,-3.564969889357224,0.0004544812961008305
1750422555.5198553,6588394.615320974,-0.8513593372765309,0.9572040116406401,-0.08130098175793898,2.030990563160589,-3.2121557698325325,0.0,0.5,-0.5,0.5,-0.08130098175793898,0.5,-0.5,0.0,-0.9970875456929207,1.6873788666742051,2.0708740636456167,0.0,-2.837864457588446,-2.761165418194156,0.0,-4.488350182771683,-5.999469359284757,-16.85042129355996,-0.12325966866505944,-3.7272784900334828,-2.9128659460351733,-0.0004558904612693371
1750422555.535848,6588394.603049128,-0.8390874909734457,0.9940195505498954,-0.08283496254582462,1.9773012355845914,-3.2551072318933305,0.0,0.5,-0.5,0.5,-0.08283496254582462,0.5,-0.5,0.0,-0.6135922856628895,0.6135923151542599,1.8407769454627687,-0.0766990393942818,-2.684466378799877,-2.1475731030399015,0.0,-2.954369142651558,-3.7530580718163655,-16.5902835172,-0.10289406711195123,-3.5285977947267915,-2.1673002945941526,-0.0011387546501744291
1750422555.5678906,6588394.570835532,-0.8268156446703606,1.0139613007924089,-0.08283496254582462,1.9220779272207085,-3.2949907323783574,0.0,0.5,-0.5,0.5,-0.08283496254582462,0.5,-0.5,0.0,-1.6106798313558102,0.6135923151542544,0.9970875121256717,0.0,-2.7611654181941447,-1.9941750242513434,0.0,-6.942719325423241,-3.635879430729941,-15.573784412817947,-0.0845980779396873,-3.613606215714067,-1.9706338855471945,-0.0017101868813837074
1750422555.583865,6588394.532486012,-0.8145437983672754,1.0246991663076084,-0.08283496254582462,1.872990542008368,-3.3241363673481845,0.0,0.5,-0.5,0.5,-0.08283496254582462,0.5,-0.5,0.0,-1.917475974187255,0.6135923151542599,0.5368932757599754,0.0,-2.4543692606170286,-1.457281748491357,0.0,-8.16990389674902,-3.514721410690926,-15.011773039193297,-0.06613052775213812,-3.242166576487983,-1.3158443139448799,-0.0021560499461679653
1750422555.5999098,6588394.498738434,-0.8099418560036186,1.033903051034922,-0.08283496254582462,1.8331070415233413,-3.3287383097118415,0.0,0.5,-0.5,0.5,-0.08283496254582462,0.5,-0.5,0.0,-1.687378901988268,0.23009711818284262,0.46019423636568524,0.0,-1.9941750242513323,-0.23009711818284817,0.0,-7.249515607953072,-2.700471377935842,-14.913793245214965,-0.04462006309978403,-2.6904815946055574,0.15954649406112487,-0.002398787092812154
1750422555.631712,6588394.472660761,-0.8053399136399616,1.033903051034922,-0.08130098175793898,1.8024274257656283,-3.3149324826208706,0.0,0.5,-0.5,0.5,-0.08130098175793898,0.5,-0.5,0.0,-1.3038836419582367,0.23009711818284817,0.0,0.0766990393942818,-1.533980787885647,0.6902913545485445,0.0,-5.715534567832947,-2.6617789125629043,-14.363940274682685,-0.02586268718550297,-2.1426059519612592,1.261324770420238,-0.002466831573540981
1750422555.6477468,6588394.469592799,-0.7946020481247621,1.033903051034922,-0.08283496254582462,1.7579419829169447,-3.2121557698325325,-0.0015339807878856412,0.5,-0.5,0.5,-0.08283496254582462,0.5,-0.5,-0.0015339807878856412,-0.15339809469878674,0.5368932757599754,0.0,-0.0766990393942818,-2.2242721424341805,5.1388356394169055,-0.07669903939428206,-1.113592378795147,-3.182279668243282,-14.365722746832692,0.039629278166359846,-2.9815330140302567,6.5648110959594135,-0.0022369276844043037
1750422555.6639018,6588394.466524838,-0.7946020481247621,1.033903051034922,-0.08130098175793898,1.705786636128833,-3.11091303783208,-0.0046019423636569235,0.5,-0.5,0.5,-0.08130098175793898,0.5,-0.5,-0.0046019423636569235,-0.15339809469878674,0.0,0.0,0.0766990393942818,-2.6077673394055867,5.062136600022615,-0.15339807878856412,-1.1135923787951467,-2.1198719427718893,-14.377101572881251,0.10255143842522679,-3.457980859890311,6.441410824489571,-0.0019506769610991587
1750422555.6798933,6588394.43277726,-0.7946020481247621,1.033903051034922,-0.056757289151768725,1.6551652701286068,-3.018874190558942,-0.007669903939428206,0.5,-0.5,0.5,-0.056757289151768725,0.5,-0.5,-0.007669903939428206,-1.6873788554221392,0.0,0.0,1.227184630308513,-2.5310683000113077,4.601942363656919,-0.15339807878856412,-7.249515421688557,-2.1252739135158145,-14.382503543625177,0.10640562288875977,-3.395924348504388,5.869424159278827,-0.0018151890140324645
1750422555.7118707,6588394.395961721,-0.7946020481247621,1.033903051034922,0.01227184630308513,1.6106798272799232,-2.9268353432858034,-0.010737865515199488,0.5,-0.5,0.5,0.01227184630308513,0.5,-0.5,-0.010737865515199488,-1.840776950120926,0.0,0.0,3.451456772742693,-2.2242721424341805,4.601942363656919,-0.15339807878856412,-7.863107800483704,-2.126396839675236,-14.3836264697846,-0.0003581719898919644,-3.0846800062207986,5.865006617451978,-0.0018403831868197325
1750422555.7278495,6588394.349942298,-0.7946020481247621,1.0323690702470365,0.09970875121256667,1.5661943844312396,-2.8363304768005504,-0.01380582709097077,0.5,-0.5,0.5,0.09970875121256667,0.5,-0.5,-0.01380582709097077,-2.3009711876511574,0.0,-0.07669903939427902,4.371845245474077,-2.2242721424341805,4.525243324262651,-0.15339807878856412,-9.70388475060463,-2.125090917567461,-14.290281700403689,-0.1517318601369766,-3.1523566741590683,5.775524624836008,-0.0018549502452607104
1750422555.7439015,6588394.311592778,-0.7946020481247621,1.0323690702470365,0.17947575218262002,1.5278448647340985,-2.747359591103183,-0.015339807878856412,0.5,-0.5,0.5,0.17947575218262002,0.5,-0.5,-0.015339807878856412,-1.917475974187255,0.0,0.0,3.9883500485026673,-1.9174759848570533,4.448544284868361,-0.07669903939428206,-8.16990389674902,-2.117827169385395,-14.375056799494761,-0.28878395240017607,-2.8446945420551044,5.683179197524031,-0.0017764981404685192
1750422555.775791,6588394.274777239,-0.7946020481247621,1.0323690702470365,0.2193592526676467,1.4925633066127288,-2.6645246285573587,-0.01687378866674205,0.5,-0.5,0.5,0.2193592526676467,0.5,-0.5,-0.01687378866674205,-1.840776950120926,0.0,0.0,1.9941750242513336,-1.7640779060684841,4.141748127291223,-0.07669903939428196,-7.863107800483704,-2.1088713656981963,-14.36610099580756,-0.33447046942071834,-2.6945287831432942,5.302439373620788,-0.0015339245562661676
1750422555.7917485,6588394.242563643,-0.7946020481247621,1.0323690702470365,0.17333982903107745,1.4511458253398166,-2.5709518004963345,-0.01687378866674205,0.5,-0.5,0.5,0.17333982903107745,0.5,-0.5,-0.01687378866674205,-1.6106798313558102,0.0,0.0,-2.300971181828462,-2.0708740636456113,4.678641403051209,0.0,-6.942719325423241,-2.096585274714443,-14.353814904823809,-0.1686645707524077,-3.046659046056756,5.901680014987284,-0.0009829971180677452
1750422555.8078012,6588394.224155873,-0.7946020481247621,1.0323690702470365,0.10737865515199488,1.4158642672184467,-2.4896508187383954,-0.01687378866674205,0.5,-0.5,0.5,0.10737865515199488,0.5,-0.5,-0.01687378866674205,-0.920388475060463,0.0,0.0,-3.2980586939541285,-1.7640779060684952,4.065049087896955,0.0,-4.181553900241852,-2.080353519767462,-14.337583149876826,0.034762750524675035,-2.64959027658266,5.119714759230246,-0.0005114407965464926
1750422555.8237514,6588394.208816065,-0.7946020481247621,1.0323690702470365,0.05062136600022616,1.3821166898849626,-2.411417798556228,-0.018407769454627694,0.5,-0.5,0.5,0.05062136600022616,0.5,-0.5,-0.018407769454627694,-0.7669903803616762,0.0,0.0,-2.8378644575884358,-1.6873788666742051,3.9116510091083745,-0.07669903939428215,-3.567961521446705,-2.059761953128034,-14.316991583237398,0.21100836954675994,-2.5342776439042356,4.8968179173972315,-0.0001617450051818268
1750422555.8557825,6588394.1888743155,-0.7930680673368765,1.0323690702470365,0.06596117387908257,1.3437671701878218,-2.3316507975861747,-0.018407769454627694,0.5,-0.5,0.5,0.06596117387908257,0.5,-0.5,-0.018407769454627694,-0.997087499126792,0.07669903939427902,0.0,0.7669903939428204,-1.9174759848570422,3.9883500485026646,0.0,-4.488349996507168,-2.1766293427441394,-14.293903917798307,0.21795214726836964,-2.828572441619187,4.972236908867756,8.10480692316597e-05
1750422555.871753,6588394.158194699,-0.7900001057611052,1.0323690702470365,0.14572817484913592,1.3023496889149093,-2.2564857389797783,-0.01687378866674205,0.5,-0.5,0.5,0.14572817484913592,0.5,-0.5,-0.01687378866674205,-1.5339808072894812,0.1533980787885636,0.0,3.9883500485026673,-2.0708740636456224,3.7582529303198164,0.07669903939428215,-6.635923229157925,-2.279407607633042,-14.270087027208548,0.07319185117249427,-3.0637121853333302,4.698158087091199,0.0003261578990939838
1750422555.8878055,6588394.122913142,-0.7884661249732196,1.0323690702470365,0.2316310989707318,1.2624661884298827,-2.1751847572218392,-0.018407769454627694,0.5,-0.5,0.5,0.2316310989707318,0.5,-0.5,-0.018407769454627694,-1.7640778794884682,0.07669903939428457,0.0,4.295146206079795,-1.9941750242513323,4.065049087896955,-0.07669903939428215,-7.556311517953872,-2.08834805737762,-14.245785392248358,-0.08629937741548854,-3.0206590089734267,5.0671832563145305,0.0006608179580966569
1750422555.9197278,6588394.086097603,-0.786932144185334,1.030835089459151,0.320601984668099,1.2241166687327416,-2.0938837754639,-0.018407769454627694,0.5,-0.5,0.5,0.320601984668099,0.5,-0.5,-0.018407769454627694,-1.840776950120926,0.07669903939427902,-0.07669903939427902,4.448544284868361,-1.9174759848570533,4.065049087896955,0.0,-7.863107800483704,-2.0509572987582576,-14.12968783082593,-0.25468459019401557,-2.972704134044853,5.067936556179738,0.00109556256564115
1750422555.9357443,6588394.044680121,-0.7715923363064775,1.030835089459151,0.3988350048502667,1.175029283520401,-1.9987769666149904,-0.018407769454627694,0.5,-0.5,0.5,0.3988350048502667,0.5,-0.5,-0.018407769454627694,-2.0708740688860416,0.7669903939428235,0.0,3.911651009108383,-2.4543692606170286,4.755340442445488,0.0,-8.783496275544167,-3.241254783191127,-14.163226466838875,-0.390677708535105,-3.6569151863905853,5.8915725068574885,0.0014976880003203948
1750422555.951768,6588394.007864582,-0.7623884515791637,1.0323690702470365,0.4172427743048944,1.1274758790959463,-1.915942004069166,-0.018407769454627694,0.5,-0.5,0.5,0.4172427743048944,0.5,-0.5,-0.018407769454627694,-1.840776950120926,0.4601942363656908,0.07669903939427902,0.9203884727313871,-2.3776702212227385,4.141748127291223,0.0,-7.8631078004837045,-2.4969179730343045,-14.202243402001336,-0.39362961731225643,-3.573905024065815,5.137973940255783,0.0018910139559556688
1750422555.9677866,6588393.966447101,-0.7485826244881929,1.0323690702470365,0.3604854851531257,1.0707185899441776,-1.8315730607354554,-0.018407769454627694,0.5,-0.5,0.5,0.3604854851531257,0.5,-0.5,-0.018407769454627694,-2.0708740688860416,0.690291354548539,0.0,-2.8378644575884375,-2.837864457588435,4.218447166685523,0.0,-8.783496275544167,-2.772970835543224,-14.040733677452808,-0.22425941994101972,-4.1076657735997095,5.197120302609685,0.0021316057807711855
1750422555.9997582,6588393.920427677,-0.7133010663668231,1.0323690702470365,0.28838838812250056,0.9940195505498954,-1.7472041174017452,-0.018407769454627694,0.5,-0.5,0.5,0.28838838812250056,0.5,-0.5,-0.018407769454627694,-2.3009711876511574,1.7640779060684897,0.0,-3.6048548515312557,-3.8349519697141066,4.218447166685513,0.0,-9.70388475060463,-4.496428538168319,-13.899095232159567,-0.02331269250169532,-5.294773368332422,5.16988735337301,0.002052108156085017
1750422556.0348475,-1.509437095279471,-1.753340040553288,-0.20401944478879028,-3.017340209771056,-5.160311370447297,-5.327515276326832,-1.9573594853420782,-0.5,-0.5,-0.20401944478879028,-0.5,-0.5,-0.5,-0.5,-329419771.4932386,-52.001948709323244,-61.819425751791336,-165.28642989467784,-307.7165460498596,-179.01555794625432,-96.94758579437253,-1317679085.4729543,108.42422282126367,79.23251118266928,0.46497747329033245,-368.8779348418219,-214.23625725872355,0.005694404027130062
1750422556.0694585,-1.509437095279471,-1.753340040553288,-0.20401944478879028,-3.017340209771056,-5.160311370447297,-5.327515276326832,-1.9573594853420782,-0.5,-0.5,-0.20401944478879028,-0.5,-0.5,-0.5,-0.5,0.0,0.0,0.0,0.0,0.0,0.0,0.0,0.5000000000000001,4.420325402617174,5.049200280519682,0.4649774732903258,0.38192041800954896,0.5824122767816209,0.005694404027130666
1750422556.103994,-1.509437095279471,-1.753340040553288,-0.20401944478879028,-3.017340209771056,-5.160311370447297,-5.327515276326832,-1.9573594853420782,-0.5,-0.5,-0.20401944478879028,-0.5,-0.5,-0.5,-0.5,0.0,0.0,0.0,0.0,0.0,0.0,0.0,0.5000000000000001,4.420325402617174,5.049200280519682,0.4649774732903258,0.38192041800954896,0.5824122767816209,0.005694404027130666
1750422556.1385422,-1.509437095279471,-1.753340040553288,-0.20401944478879028,-3.017340209771056,-5.160311370447297,-5.327515276326832,-1.9573594853420782,-0.5,-0.5,-0.20401944478879028,-0.5,-0.5,-0.5,-0.5,0.0,0.0,0.0,0.0,0.0,0.0,0.0,0.5000000000000001,4.420325402617174,5.049200280519682,0.4649774732903258,0.38192041800954896,0.5824122767816209,0.005694404027130666
1750422556.1730375,-1.509437095279471,-1.753340040553288,-0.20401944478879028,-3.017340209771056,-5.160311370447297,-5.327515276326832,-1.9573594853420782,-0.5,-0.5,-0.20401944478879028,-0.5,-0.5,-0.5,-0.5,0.0,0.0,0.0,0.0,0.0,0.0,0.0,0.5000000000000001,4.420325402617174,5.049200280519682,0.4649774732903258,0.38192041800954896,0.5824122767816209,0.005694404027130666
1750422556.2075815,-1.509437095279471,-1.753340040553288,-0.20401944478879028,-3.017340209771056,-5.160311370447297,-5.327515276326832,-1.9573594853420782,-0.5,-0.5,-0.20401944478879028,-0.5,-0.5,-0.5,-0.5,0.0,0.0,0.0,0.0,0.0,0.0,0.0,0.5000000000000001,4.420325402617174,5.049200280519682,0.4649774732903258,0.38192041800954896,0.5824122767816209,0.005694404027130666
1750422556.2421062,-1.509437095279471,-1.753340040553288,-0.20401944478879028,-3.017340209771056,-5.160311370447297,-5.327515276326832,-1.9573594853420782,-0.5,-0.5,-0.20401944478879028,-0.5,-0.5,-0.5,-0.5,0.0,0.0,0.0,0.0,0.0,0.0,0.0,0.5000000000000001,4.420325402617174,5.049200280519682,0.4649774732903258,0.38192041800954896,0.5824122767816209,0.005694404027130666
1750422556.2766013,-1.509437095279471,-1.753340040553288,-0.20401944478879028,-3.017340209771056,-5.160311370447297,-5.327515276326832,-1.9573594853420782,-0.5,-0.5,-0.20401944478879028,-0.5,-0.5,-0.5,-0.5,0.0,0.0,0.0,0.0,0.0,0.0,0.0,0.5000000000000001,4.420325402617174,5.049200280519682,0.4649774732903258,0.38192041800954896,0.5824122767816209,0.005694404027130666
1750422556.3132596,-1.509437095279471,-1.753340040553288,-0.20401944478879028,-3.017340209771056,-5.160311370447297,-5.327515276326832,-1.9573594853420782,-0.5,-0.5,-0.20401944478879028,-0.5,-0.5,-0.5,-0.5,0.0,0.0,0.0,0.0,0.0,0.0,0.0,0.5000000000000001,4.420325402617174,5.049200280519682,0.4649774732903258,0.38192041800954896,0.5824122767816209,0.005694404027130666
1750422556.3478734,-1.509437095279471,-1.753340040553288,-0.20401944478879028,-3.017340209771056,-5.160311370447297,-5.327515276326832,-1.9573594853420782,-0.5,-0.5,-0.20401944478879028,-0.5,-0.5,-0.5,-0.5,0.0,0.0,0.0,0.0,0.0,0.0,0.0,0.5000000000000001,4.420325402617174,5.049200280519682,0.4649774732903258,0.38192041800954896,0.5824122767816209,0.005694404027130666
1750422556.3824275,-1.509437095279471,-1.753340040553288,-0.20401944478879028,-3.017340209771056,-5.160311370447297,-5.327515276326832,-1.9573594853420782,-0.5,-0.5,-0.20401944478879028,-0.5,-0.5,-0.5,-0.5,0.0,0.0,0.0,0.0,0.0,0.0,0.0,0.5000000000000001,4.420325402617174,5.049200280519682,0.4649774732903258,0.38192041800954896,0.5824122767816209,0.005694404027130666
1750422556.4169593,-1.509437095279471,-1.753340040553288,-0.20401944478879028,-3.017340209771056,-5.160311370447297,-5.327515276326832,-1.9573594853420782,-0.5,-0.5,-0.20401944478879028,-0.5,-0.5,-0.5,-0.5,0.0,0.0,0.0,0.0,0.0,0.0,0.0,0.5000000000000001,4.420325402617174,5.049200280519682,0.4649774732903258,0.38192041800954896,0.5824122767816209,0.005694404027130666
1750422556.4514575,-1.509437095279471,-1.753340040553288,-0.20401944478879028,-3.017340209771056,-5.160311370447297,-5.327515276326832,-1.9573594853420782,-0.5,-0.5,-0.20401944478879028,-0.5,-0.5,-0.5,-0.5,0.0,0.0,0.0,0.0,0.0,0.0,0.0,0.5000000000000001,4.420325402617174,5.049200280519682,0.4649774732903258,0.38192041800954896,0.5824122767816209,0.005694404027130666
1750422556.4859533,-1.509437095279471,-1.753340040553288,-0.20401944478879028,-3.017340209771056,-5.160311370447297,-5.327515276326832,-1.9573594853420782,-0.5,-0.5,-0.20401944478879028,-0.5,-0.5,-0.5,-0.5,0.0,0.0,0.0,0.0,0.0,0.0,0.0,0.5000000000000001,4.420325402617174,5.049200280519682,0.4649774732903258,0.38192041800954896,0.5824122767816209,0.005694404027130666
1750422556.5205271,-1.509437095279471,-1.753340040553288,-0.20401944478879028,-3.017340209771056,-5.160311370447297,-5.327515276326832,-1.9573594853420782,-0.5,-0.5,-0.20401944478879028,-0.5,-0.5,-0.5,-0.5,0.0,0.0,0.0,0.0,0.0,0.0,0.0,0.5000000000000001,4.420325402617174,5.049200280519682,0.4649774732903258,0.38192041800954896,0.5824122767816209,0.005694404027130666
1750422556.5550616,-1.509437095279471,-1.753340040553288,-0.20401944478879028,-3.017340209771056,-5.160311370447297,-5.327515276326832,-1.9573594853420782,-0.5,-0.5,-0.20401944478879028,-0.5,-0.5,-0.5,-0.5,0.0,0.0,0.0,0.0,0.0,0.0,0.0,0.5000000000000001,4.420325402617174,5.049200280519682,0.4649774732903258,0.38192041800954896,0.5824122767816209,0.005694404027130666
1750422556.589899,-1.509437095279471,-1.753340040553288,-0.20401944478879028,-3.017340209771056,-5.160311370447297,-5.327515276326832,-1.9573594853420782,-0.5,-0.5,-0.20401944478879028,-0.5,-0.5,-0.5,-0.5,0.0,0.0,0.0,0.0,0.0,0.0,0.0,0.5000000000000001,4.420325402617174,5.049200280519682,0.4649774732903258,0.38192041800954896,0.5824122767816209,0.005694404027130666
1750422556.6244335,-1.509437095279471,-1.753340040553288,-0.20401944478879028,-3.017340209771056,-5.160311370447297,-5.327515276326832,-1.9573594853420782,-0.5,-0.5,-0.20401944478879028,-0.5,-0.5,-0.5,-0.5,0.0,0.0,0.0,0.0,0.0,0.0,0.0,0.5000000000000001,4.420325402617174,5.049200280519682,0.4649774732903258,0.38192041800954896,0.5824122767816209,0.005694404027130666
1750422556.658926,-1.509437095279471,-1.753340040553288,-0.20401944478879028,-3.017340209771056,-5.160311370447297,-5.327515276326832,-1.9573594853420782,-0.5,-0.5,-0.20401944478879028,-0.5,-0.5,-0.5,-0.5,0.0,0.0,0.0,0.0,0.0,0.0,0.0,0.5000000000000001,4.420325402617174,5.049200280519682,0.4649774732903258,0.38192041800954896,0.5824122767816209,0.005694404027130666
1750422556.693452,-1.509437095279471,-1.753340040553288,-0.20401944478879028,-3.017340209771056,-5.160311370447297,-5.327515276326832,-1.9573594853420782,-0.5,-0.5,-0.20401944478879028,-0.5,-0.5,-0.5,-0.5,0.0,0.0,0.0,0.0,0.0,0.0,0.0,0.5000000000000001,4.420325402617174,5.049200280519682,0.4649774732903258,0.38192041800954896,0.5824122767816209,0.005694404027130666
1750422556.7279842,-1.509437095279471,-1.753340040553288,-0.20401944478879028,-3.017340209771056,-5.160311370447297,-5.327515276326832,-1.9573594853420782,-0.5,-0.5,-0.20401944478879028,-0.5,-0.5,-0.5,-0.5,0.0,0.0,0.0,0.0,0.0,0.0,0.0,0.5000000000000001,4.420325402617174,5.049200280519682,0.4649774732903258,0.38192041800954896,0.5824122767816209,0.005694404027130666
1750422556.7641764,-1.509437095279471,-1.753340040553288,-0.20401944478879028,-3.017340209771056,-5.160311370447297,-5.327515276326832,-1.9573594853420782,-0.5,-0.5,-0.20401944478879028,-0.5,-0.5,-0.5,-0.5,0.0,0.0,0.0,0.0,0.0,0.0,0.0,0.5000000000000001,4.420325402617174,5.049200280519682,0.4649774732903258,0.38192041800954896,0.5824122767816209,0.005694404027130666
1750422556.7988179,-1.509437095279471,-1.753340040553288,-0.20401944478879028,-3.017340209771056,-5.160311370447297,-5.327515276326832,-1.9573594853420782,-0.5,-0.5,-0.20401944478879028,-0.5,-0.5,-0.5,-0.5,0.0,0.0,0.0,0.0,0.0,0.0,0.0,0.5000000000000001,4.420325402617174,5.049200280519682,0.4649774732903258,0.38192041800954896,0.5824122767816209,0.005694404027130666
1750422556.8333738,-1.509437095279471,-1.753340040553288,-0.20401944478879028,-3.017340209771056,-5.160311370447297,-5.327515276326832,-1.9573594853420782,-0.5,-0.5,-0.20401944478879028,-0.5,-0.5,-0.5,-0.5,0.0,0.0,0.0,0.0,0.0,0.0,0.0,0.5000000000000001,4.420325402617174,5.049200280519682,0.4649774732903258,0.38192041800954896,0.5824122767816209,0.005694404027130666
1750422556.8678782,-1.509437095279471,-1.753340040553288,-0.20401944478879028,-3.017340209771056,-5.160311370447297,-5.327515276326832,-1.9573594853420782,-0.5,-0.5,-0.20401944478879028,-0.5,-0.5,-0.5,-0.5,0.0,0.0,0.0,0.0,0.0,0.0,0.0,0.5000000000000001,4.420325402617174,5.049200280519682,0.4649774732903258,0.38192041800954896,0.5824122767816209,0.005694404027130666
1750422556.9024081,-1.509437095279471,-1.753340040553288,-0.20401944478879028,-3.017340209771056,-5.160311370447297,-5.327515276326832,-1.9573594853420782,-0.5,-0.5,-0.20401944478879028,-0.5,-0.5,-0.5,-0.5,0.0,0.0,0.0,0.0,0.0,0.0,0.0,0.5000000000000001,4.420325402617174,5.049200280519682,0.4649774732903258,0.38192041800954896,0.5824122767816209,0.005694404027130666
1750422556.9369366,-1.509437095279471,-1.753340040553288,-0.20401944478879028,-3.017340209771056,-5.160311370447297,-5.327515276326832,-1.9573594853420782,-0.5,-0.5,-0.20401944478879028,-0.5,-0.5,-0.5,-0.5,0.0,0.0,0.0,0.0,0.0,0.0,0.0,0.5000000000000001,4.420325402617174,5.049200280519682,0.4649774732903258,0.38192041800954896,0.5824122767816209,0.005694404027130666
1750422556.9714663,-1.509437095279471,-1.753340040553288,-0.20401944478879028,-3.017340209771056,-5.160311370447297,-5.327515276326832,-1.9573594853420782,-0.5,-0.5,-0.20401944478879028,-0.5,-0.5,-0.5,-0.5,0.0,0.0,0.0,0.0,0.0,0.0,0.0,0.5000000000000001,4.420325402617174,5.049200280519682,0.4649774732903258,0.38192041800954896,0.5824122767816209,0.005694404027130666
1750422557.0059931,-1.509437095279471,-1.753340040553288,-0.20401944478879028,-3.017340209771056,-5.160311370447297,-5.327515276326832,-1.9573594853420782,-0.5,-0.5,-0.20401944478879028,-0.5,-0.5,-0.5,-0.5,0.0,0.0,0.0,0.0,0.0,0.0,0.0,0.5000000000000001,4.420325402617174,5.049200280519682,0.4649774732903258,0.38192041800954896,0.5824122767816209,0.005694404027130666
1750422557.0405252,-1.509437095279471,-1.753340040553288,-0.20401944478879028,-3.017340209771056,-5.160311370447297,-5.327515276326832,-1.9573594853420782,-0.5,-0.5,-0.20401944478879028,-0.5,-0.5,-0.5,-0.5,0.0,0.0,0.0,0.0,0.0,0.0,0.0,0.5000000000000001,4.420325402617174,5.049200280519682,0.4649774732903258,0.38192041800954896,0.5824122767816209,0.005694404027130666
1750422557.0750499,-1.509437095279471,-1.753340040553288,-0.20401944478879028,-3.017340209771056,-5.160311370447297,-5.327515276326832,-1.9573594853420782,0.0,0.0,0.0,0.0,0.0,0.0,0.0,0.0,0.0,0.0,0.0,0.0,0.0,0.0,5.974776229322742e-17,4.420325402617174,4.845180835730892,-0.035022526709674213,-0.018079581990451066,0.1824122767816208,0.005694404027130666
1750422557.1096017,-1.509437095279471,-1.753340040553288,-0.20401944478879028,-3.017340209771056,-5.160311370447297,-5.327515276326832,-1.9573594853420782,0.0,0.0,0.0,0.0,0.0,0.0,0.0,0.0,0.0,0.0,0.0,0.0,0.0,0.0,5.974776229322742e-17,4.420325402617174,4.845180835730892,-0.035022526709674213,-0.018079581990451066,0.1824122767816208,0.005694404027130666
1750422557.1441298,-1.509437095279471,-1.753340040553288,-0.20401944478879028,-3.017340209771056,-5.160311370447297,-5.327515276326832,-1.9573594853420782,0.0,0.0,0.0,0.0,0.0,0.0,0.0,0.0,0.0,0.0,0.0,0.0,0.0,0.0,5.974776229322742e-17,4.420325402617174,4.845180835730892,-0.035022526709674213,-0.018079581990451066,0.1824122767816208,0.005694404027130666
1750422557.17862,-1.509437095279471,-1.753340040553288,-0.20401944478879028,-3.017340209771056,-5.160311370447297,-5.327515276326832,-1.9573594853420782,0.0,0.0,0.0,0.0,0.0,0.0,0.0,0.0,0.0,0.0,0.0,0.0,0.0,0.0,5.974776229322742e-17,4.420325402617174,4.845180835730892,-0.035022526709674213,-0.018079581990451066,0.1824122767816208,0.005694404027130666
1750422557.2131386,-1.509437095279471,-1.753340040553288,-0.20401944478879028,-3.017340209771056,-5.160311370447297,-5.327515276326832,-1.9573594853420782,0.0,0.0,0.0,0.0,0.0,0.0,0.0,0.0,0.0,0.0,0.0,0.0,0.0,0.0,5.974776229322742e-17,4.420325402617174,4.845180835730892,-0.035022526709674213,-0.018079581990451066,0.1824122767816208,0.005694404027130666
1750422557.2493277,-1.509437095279471,-1.753340040553288,-0.20401944478879028,-3.017340209771056,-5.160311370447297,-5.327515276326832,-1.9573594853420782,0.0,0.0,0.0,0.0,0.0,0.0,0.0,0.0,0.0,0.0,0.0,0.0,0.0,0.0,5.974776229322742e-17,4.420325402617174,4.845180835730892,-0.035022526709674213,-0.018079581990451066,0.1824122767816208,0.005694404027130666
1750422557.2838566,-1.509437095279471,-1.753340040553288,-0.20401944478879028,-3.017340209771056,-5.160311370447297,-5.327515276326832,-1.9573594853420782,0.0,0.0,0.0,0.0,0.0,0.0,0.0,0.0,0.0,0.0,0.0,0.0,0.0,0.0,5.974776229322742e-17,4.420325402617174,4.845180835730892,-0.035022526709674213,-0.018079581990451066,0.1824122767816208,0.005694404027130666
1750422557.318403,-1.509437095279471,-1.753340040553288,-0.20401944478879028,-3.017340209771056,-5.160311370447297,-5.327515276326832,-1.9573594853420782,0.0,0.0,0.0,0.0,0.0,0.0,0.0,0.0,0.0,0.0,0.0,0.0,0.0,0.0,5.974776229322742e-17,4.420325402617174,4.845180835730892,-0.035022526709674213,-0.018079581990451066,0.1824122767816208,0.005694404027130666
1750422557.3529284,-1.509437095279471,-1.753340040553288,-0.20401944478879028,-3.017340209771056,-5.160311370447297,-5.327515276326832,-1.9573594853420782,0.0,0.0,0.0,0.0,0.0,0.0,0.0,0.0,0.0,0.0,0.0,0.0,0.0,0.0,5.974776229322742e-17,4.420325402617174,4.845180835730892,-0.035022526709674213,-0.018079581990451066,0.1824122767816208,0.005694404027130666
1750422557.3874328,-1.509437095279471,-1.753340040553288,-0.20401944478879028,-3.017340209771056,-5.160311370447297,-5.327515276326832,-1.9573594853420782,0.0,0.0,0.0,0.0,0.0,0.0,0.0,0.0,0.0,0.0,0.0,0.0,0.0,0.0,5.974776229322742e-17,4.420325402617174,4.845180835730892,-0.035022526709674213,-0.018079581990451066,0.1824122767816208,0.005694404027130666
1750422557.4219687,-1.509437095279471,-1.753340040553288,-0.20401944478879028,-3.017340209771056,-5.160311370447297,-5.327515276326832,-1.9573594853420782,0.0,0.0,0.0,0.0,0.0,0.0,0.0,0.0,0.0,0.0,0.0,0.0,0.0,0.0,5.974776229322742e-17,4.420325402617174,4.845180835730892,-0.035022526709674213,-0.018079581990451066,0.1824122767816208,0.005694404027130666
1750422557.4567437,-1.509437095279471,-1.753340040553288,-0.20401944478879028,-3.017340209771056,-5.160311370447297,-5.327515276326832,-1.9573594853420782,0.0,0.0,0.0,0.0,0.0,0.0,0.0,0.0,0.0,0.0,0.0,0.0,0.0,0.0,5.974776229322742e-17,4.420325402617174,4.845180835730892,-0.035022526709674213,-0.018079581990451066,0.1824122767816208,0.005694404027130666
1750422557.493294,-1.509437095279471,-1.753340040553288,-0.20401944478879028,-3.017340209771056,-5.160311370447297,-5.327515276326832,-1.9573594853420782,0.0,0.0,0.0,0.0,0.0,0.0,0.0,0.0,0.0,0.0,0.0,0.0,0.0,0.0,5.974776229322742e-17,4.420325402617174,4.845180835730892,-0.035022526709674213,-0.018079581990451066,0.1824122767816208,0.005694404027130666
1750422557.5278485,-1.509437095279471,-1.753340040553288,-0.20401944478879028,-3.017340209771056,-5.160311370447297,-5.327515276326832,-1.9573594853420782,0.0,0.0,0.0,0.0,0.0,0.0,0.0,0.0,0.0,0.0,0.0,0.0,0.0,0.0,5.974776229322742e-17,4.420325402617174,4.845180835730892,-0.035022526709674213,-0.018079581990451066,0.1824122767816208,0.005694404027130666
1750422557.5624397,-1.509437095279471,-1.753340040553288,-0.20401944478879028,-3.017340209771056,-5.160311370447297,-5.327515276326832,-1.9573594853420782,0.0,0.0,0.0,0.0,0.0,0.0,0.0,0.0,0.0,0.0,0.0,0.0,0.0,0.0,5.974776229322742e-17,4.420325402617174,4.845180835730892,-0.035022526709674213,-0.018079581990451066,0.1824122767816208,0.005694404027130666
1750422557.5969691,-1.509437095279471,-1.753340040553288,-0.20401944478879028,-3.017340209771056,-5.160311370447297,-5.327515276326832,-1.9573594853420782,0.0,0.0,0.0,0.0,0.0,0.0,0.0,0.0,0.0,0.0,0.0,0.0,0.0,0.0,5.974776229322742e-17,4.420325402617174,4.845180835730892,-0.035022526709674213,-0.018079581990451066,0.1824122767816208,0.005694404027130666
1750422557.631509,-1.509437095279471,-1.753340040553288,-0.20401944478879028,-3.017340209771056,-5.160311370447297,-5.327515276326832,-1.9573594853420782,0.0,0.0,0.0,0.0,0.0,0.0,0.0,0.0,0.0,0.0,0.0,0.0,0.0,0.0,5.974776229322742e-17,4.420325402617174,4.845180835730892,-0.035022526709674213,-0.018079581990451066,0.1824122767816208,0.005694404027130666
1750422557.666017,-1.509437095279471,-1.753340040553288,-0.20401944478879028,-3.017340209771056,-5.160311370447297,-5.327515276326832,-1.9573594853420782,0.0,0.0,0.0,0.0,0.0,0.0,0.0,0.0,0.0,0.0,0.0,0.0,0.0,0.0,5.974776229322742e-17,4.420325402617174,4.845180835730892,-0.035022526709674213,-0.018079581990451066,0.1824122767816208,0.005694404027130666
1750422557.7021914,-1.509437095279471,-1.753340040553288,-0.20401944478879028,-3.017340209771056,-5.160311370447297,-5.327515276326832,-1.9573594853420782,0.0,0.0,0.0,0.0,0.0,0.0,0.0,0.0,0.0,0.0,0.0,0.0,0.0,0.0,5.974776229322742e-17,4.420325402617174,4.845180835730892,-0.035022526709674213,-0.018079581990451066,0.1824122767816208,0.005694404027130666
1750422557.7367308,-1.509437095279471,-1.753340040553288,-0.20401944478879028,-3.017340209771056,-5.160311370447297,-5.327515276326832,-1.9573594853420782,0.0,0.0,0.0,0.0,0.0,0.0,0.0,0.0,0.0,0.0,0.0,0.0,0.0,0.0,5.974776229322742e-17,4.420325402617174,4.845180835730892,-0.035022526709674213,-0.018079581990451066,0.1824122767816208,0.005694404027130666
1750422557.7713497,-1.509437095279471,-1.753340040553288,-0.20401944478879028,-3.017340209771056,-5.160311370447297,-5.327515276326832,-1.9573594853420782,0.0,0.0,0.0,0.0,0.0,0.0,0.0,0.0,0.0,0.0,0.0,0.0,0.0,0.0,5.974776229322742e-17,4.420325402617174,4.845180835730892,-0.035022526709674213,-0.018079581990451066,0.1824122767816208,0.005694404027130666
1750422557.805886,-1.509437095279471,-1.753340040553288,-0.20401944478879028,-3.017340209771056,-5.160311370447297,-5.327515276326832,-1.9573594853420782,0.0,0.0,0.0,0.0,0.0,0.0,0.0,0.0,0.0,0.0,0.0,0.0,0.0,0.0,5.974776229322742e-17,4.420325402617174,4.845180835730892,-0.035022526709674213,-0.018079581990451066,0.1824122767816208,0.005694404027130666
1750422557.8404047,-1.509437095279471,-1.753340040553288,-0.20401944478879028,-3.017340209771056,-5.160311370447297,-5.327515276326832,-1.9573594853420782,0.0,0.0,0.0,0.0,0.0,0.0,0.0,0.0,0.0,0.0,0.0,0.0,0.0,0.0,5.974776229322742e-17,4.420325402617174,4.845180835730892,-0.035022526709674213,-0.018079581990451066,0.1824122767816208,0.005694404027130666
1750422557.8749053,-1.509437095279471,-1.753340040553288,-0.20401944478879028,-3.017340209771056,-5.160311370447297,-5.327515276326832,-1.9573594853420782,0.0,0.0,0.0,0.0,0.0,0.0,0.0,0.0,0.0,0.0,0.0,0.0,0.0,0.0,5.974776229322742e-17,4.420325402617174,4.845180835730892,-0.035022526709674213,-0.018079581990451066,0.1824122767816208,0.005694404027130666
1750422557.909447,-1.509437095279471,-1.753340040553288,-0.20401944478879028,-3.017340209771056,-5.160311370447297,-5.327515276326832,-1.9573594853420782,0.0,0.0,0.0,0.0,0.0,0.0,0.0,0.0,0.0,0.0,0.0,0.0,0.0,0.0,5.974776229322742e-17,4.420325402617174,4.845180835730892,-0.035022526709674213,-0.018079581990451066,0.1824122767816208,0.005694404027130666
1750422557.9451685,-1.509437095279471,-1.753340040553288,-0.20401944478879028,-3.017340209771056,-5.160311370447297,-5.327515276326832,-1.9573594853420782,0.0,0.0,0.0,0.0,0.0,0.0,0.0,0.0,0.0,0.0,0.0,0.0,0.0,0.0,5.974776229322742e-17,4.420325402617174,4.845180835730892,-0.035022526709674213,-0.018079581990451066,0.1824122767816208,0.005694404027130666
1750422557.9796612,-1.509437095279471,-1.753340040553288,-0.20401944478879028,-3.017340209771056,-5.160311370447297,-5.327515276326832,-1.9573594853420782,0.0,0.0,0.0,0.0,0.0,0.0,0.0,0.0,0.0,0.0,0.0,0.0,0.0,0.0,5.974776229322742e-17,4.420325402617174,4.845180835730892,-0.035022526709674213,-0.018079581990451066,0.1824122767816208,0.005694404027130666
1750422558.0141945,-1.509437095279471,-1.753340040553288,-0.20401944478879028,-3.017340209771056,-5.160311370447297,-5.327515276326832,-1.9573594853420782,0.0,0.0,0.0,0.0,0.0,0.0,0.0,0.0,0.0,0.0,0.0,0.0,0.0,0.0,5.974776229322742e-17,4.420325402617174,4.845180835730892,-0.035022526709674213,-0.018079581990451066,0.1824122767816208,0.005694404027130666
1750422558.0501654,-1.509437095279471,-1.753340040553288,-0.20401944478879028,-3.017340209771056,-5.160311370447297,-5.327515276326832,-1.9573594853420782,0.0,0.0,0.0,0.0,0.0,0.0,0.0,0.0,0.0,0.0,0.0,0.0,0.0,0.0,5.974776229322742e-17,4.420325402617174,4.845180835730892,-0.035022526709674213,-0.018079581990451066,0.1824122767816208,0.005694404027130666
1750422558.086458,-1.509437095279471,-1.753340040553288,-0.20401944478879028,-3.017340209771056,-5.160311370447297,-5.327515276326832,-1.9573594853420782,0.0,0.0,0.0,0.0,0.0,0.0,0.0,0.0,0.0,0.0,0.0,0.0,0.0,0.0,5.974776229322742e-17,4.420325402617174,4.845180835730892,-0.035022526709674213,-0.018079581990451066,0.1824122767816208,0.005694404027130666
1750422558.1210504,-1.509437095279471,-1.753340040553288,-0.20401944478879028,-3.017340209771056,-5.160311370447297,-5.327515276326832,-1.9573594853420782,0.0,0.0,0.0,0.0,0.0,0.0,0.0,0.0,0.0,0.0,0.0,0.0,0.0,0.0,5.974776229322742e-17,4.420325402617174,4.845180835730892,-0.035022526709674213,-0.018079581990451066,0.1824122767816208,0.005694404027130666
1750422558.155634,-1.509437095279471,-1.753340040553288,-0.20401944478879028,-3.017340209771056,-5.160311370447297,-5.327515276326832,-1.9573594853420782,0.0,0.0,0.0,0.0,0.0,0.0,0.0,0.0,0.0,0.0,0.0,0.0,0.0,0.0,5.974776229322742e-17,4.420325402617174,4.845180835730892,-0.035022526709674213,-0.018079581990451066,0.1824122767816208,0.005694404027130666
1750422558.1901896,-1.509437095279471,-1.753340040553288,-0.20401944478879028,-3.017340209771056,-5.160311370447297,-5.327515276326832,-1.9573594853420782,0.0,0.0,0.0,0.0,0.0,0.0,0.0,0.0,0.0,0.0,0.0,0.0,0.0,0.0,5.974776229322742e-17,4.420325402617174,4.845180835730892,-0.035022526709674213,-0.018079581990451066,0.1824122767816208,0.005694404027130666
1750422558.224716,-1.509437095279471,-1.753340040553288,-0.20401944478879028,-3.017340209771056,-5.160311370447297,-5.327515276326832,-1.9573594853420782,0.0,0.0,0.0,0.0,0.0,0.0,0.0,0.0,0.0,0.0,0.0,0.0,0.0,0.0,5.974776229322742e-17,4.420325402617174,4.845180835730892,-0.035022526709674213,-0.018079581990451066,0.1824122767816208,0.005694404027130666
1750422558.2592463,-1.509437095279471,-1.753340040553288,-0.20401944478879028,-3.017340209771056,-5.160311370447297,-5.327515276326832,-1.9573594853420782,0.0,0.0,0.0,0.0,0.0,0.0,0.0,0.0,0.0,0.0,0.0,0.0,0.0,0.0,5.974776229322742e-17,4.420325402617174,4.845180835730892,-0.035022526709674213,-0.018079581990451066,0.1824122767816208,0.005694404027130666
1750422558.2937803,-1.509437095279471,-1.753340040553288,-0.20401944478879028,-3.017340209771056,-5.160311370447297,-5.327515276326832,-1.9573594853420782,0.0,0.0,0.0,0.0,0.0,0.0,0.0,0.0,0.0,0.0,0.0,0.0,0.0,0.0,5.974776229322742e-17,4.420325402617174,4.845180835730892,-0.035022526709674213,-0.018079581990451066,0.1824122767816208,0.005694404027130666
1750422558.3285713,-1.509437095279471,-1.753340040553288,-0.20401944478879028,-3.017340209771056,-5.160311370447297,-5.327515276326832,-1.9573594853420782,0.0,0.0,0.0,0.0,0.0,0.0,0.0,0.0,0.0,0.0,0.0,0.0,0.0,0.0,5.974776229322742e-17,4.420325402617174,4.845180835730892,-0.035022526709674213,-0.018079581990451066,0.1824122767816208,0.005694404027130666
1750422558.3631244,-1.509437095279471,-1.753340040553288,-0.20401944478879028,-3.017340209771056,-5.160311370447297,-5.327515276326832,-1.9573594853420782,0.0,0.0,0.0,0.0,0.0,0.0,0.0,0.0,0.0,0.0,0.0,0.0,0.0,0.0,5.974776229322742e-17,4.420325402617174,4.845180835730892,-0.035022526709674213,-0.018079581990451066,0.1824122767816208,0.005694404027130666
1750422558.3976524,-1.509437095279471,-1.753340040553288,-0.20401944478879028,-3.017340209771056,-5.160311370447297,-5.327515276326832,-1.9573594853420782,0.0,0.0,0.0,0.0,0.0,0.0,0.0,0.0,0.0,0.0,0.0,0.0,0.0,0.0,5.974776229322742e-17,4.420325402617174,4.845180835730892,-0.035022526709674213,-0.018079581990451066,0.1824122767816208,0.005694404027130666
1750422558.4322085,-1.509437095279471,-1.753340040553288,-0.20401944478879028,-3.017340209771056,-5.160311370447297,-5.327515276326832,-1.9573594853420782,0.0,0.0,0.0,0.0,0.0,0.0,0.0,0.0,0.0,0.0,0.0,0.0,0.0,0.0,5.974776229322742e-17,4.420325402617174,4.845180835730892,-0.035022526709674213,-0.018079581990451066,0.1824122767816208,0.005694404027130666
1750422558.466738,-1.509437095279471,-1.753340040553288,-0.20401944478879028,-3.017340209771056,-5.160311370447297,-5.327515276326832,-1.9573594853420782,0.0,0.0,0.0,0.0,0.0,0.0,0.0,0.0,0.0,0.0,0.0,0.0,0.0,0.0,5.974776229322742e-17,4.420325402617174,4.845180835730892,-0.035022526709674213,-0.018079581990451066,0.1824122767816208,0.005694404027130666
1750422558.5031662,-1.509437095279471,-1.753340040553288,-0.20401944478879028,-3.017340209771056,-5.160311370447297,-5.327515276326832,-1.9573594853420782,0.0,0.0,0.0,0.0,0.0,0.0,0.0,0.0,0.0,0.0,0.0,0.0,0.0,0.0,5.974776229322742e-17,4.420325402617174,4.845180835730892,-0.035022526709674213,-0.018079581990451066,0.1824122767816208,0.005694404027130666
1750422558.5393963,-1.509437095279471,-1.753340040553288,-0.20401944478879028,-3.017340209771056,-5.160311370447297,-5.327515276326832,-1.9573594853420782,0.0,0.0,0.0,0.0,0.0,0.0,0.0,0.0,0.0,0.0,0.0,0.0,0.0,0.0,5.974776229322742e-17,4.420325402617174,4.845180835730892,-0.035022526709674213,-0.018079581990451066,0.1824122767816208,0.005694404027130666
1750422558.57394,-1.509437095279471,-1.753340040553288,-0.20401944478879028,-3.017340209771056,-5.160311370447297,-5.327515276326832,-1.9573594853420782,0.0,0.0,0.0,0.0,0.0,0.0,0.0,0.0,0.0,0.0,0.0,0.0,0.0,0.0,5.974776229322742e-17,4.420325402617174,4.845180835730892,-0.035022526709674213,-0.018079581990451066,0.1824122767816208,0.005694404027130666
1750422558.6084688,-1.509437095279471,-1.753340040553288,-0.20401944478879028,-3.017340209771056,-5.160311370447297,-5.327515276326832,-1.9573594853420782,0.0,0.0,0.0,0.0,0.0,0.0,0.0,0.0,0.0,0.0,0.0,0.0,0.0,0.0,5.974776229322742e-17,4.420325402617174,4.845180835730892,-0.035022526709674213,-0.018079581990451066,0.1824122767816208,0.005694404027130666
1750422558.6430004,-1.509437095279471,-1.753340040553288,-0.20401944478879028,-3.017340209771056,-5.160311370447297,-5.327515276326832,-1.9573594853420782,0.0,0.0,0.0,0.0,0.0,0.0,0.0,0.0,0.0,0.0,0.0,0.0,0.0,0.0,5.974776229322742e-17,4.420325402617174,4.845180835730892,-0.035022526709674213,-0.018079581990451066,0.1824122767816208,0.005694404027130666
1750422558.6774924,-1.509437095279471,-1.753340040553288,-0.20401944478879028,-3.017340209771056,-5.160311370447297,-5.327515276326832,-1.9573594853420782,0.0,0.0,0.0,0.0,0.0,0.0,0.0,0.0,0.0,0.0,0.0,0.0,0.0,0.0,5.974776229322742e-17,4.420325402617174,4.845180835730892,-0.035022526709674213,-0.018079581990451066,0.1824122767816208,0.005694404027130666
1750422558.7120178,-1.509437095279471,-1.753340040553288,-0.20401944478879028,-3.017340209771056,-5.160311370447297,-5.327515276326832,-1.9573594853420782,0.0,0.0,0.0,0.0,0.0,0.0,0.0,0.0,0.0,0.0,0.0,0.0,0.0,0.0,5.974776229322742e-17,4.420325402617174,4.845180835730892,-0.035022526709674213,-0.018079581990451066,0.1824122767816208,0.005694404027130666
1750422558.748165,-1.509437095279471,-1.753340040553288,-0.20401944478879028,-3.017340209771056,-5.160311370447297,-5.327515276326832,-1.9573594853420782,0.0,0.0,0.0,0.0,0.0,0.0,0.0,0.0,0.0,0.0,0.0,0.0,0.0,0.0,5.974776229322742e-17,4.420325402617174,4.845180835730892,-0.035022526709674213,-0.018079581990451066,0.1824122767816208,0.005694404027130666
1750422558.7843912,-1.509437095279471,-1.753340040553288,-0.20401944478879028,-3.017340209771056,-5.160311370447297,-5.327515276326832,-1.9573594853420782,0.0,0.0,0.0,0.0,0.0,0.0,0.0,0.0,0.0,0.0,0.0,0.0,0.0,0.0,5.974776229322742e-17,4.420325402617174,4.845180835730892,-0.035022526709674213,-0.018079581990451066,0.1824122767816208,0.005694404027130666
1750422558.8189306,-1.509437095279471,-1.753340040553288,-0.20401944478879028,-3.017340209771056,-5.160311370447297,-5.327515276326832,-1.9573594853420782,0.0,0.0,0.0,0.0,0.0,0.0,0.0,0.0,0.0,0.0,0.0,0.0,0.0,0.0,5.974776229322742e-17,4.420325402617174,4.845180835730892,-0.035022526709674213,-0.018079581990451066,0.1824122767816208,0.005694404027130666
1750422558.8534656,-1.509437095279471,-1.753340040553288,-0.20401944478879028,-3.017340209771056,-5.160311370447297,-5.327515276326832,-1.9573594853420782,0.0,0.0,0.0,0.0,0.0,0.0,0.0,0.0,0.0,0.0,0.0,0.0,0.0,0.0,5.974776229322742e-17,4.420325402617174,4.845180835730892,-0.035022526709674213,-0.018079581990451066,0.1824122767816208,0.005694404027130666
1750422558.8879561,-1.509437095279471,-1.753340040553288,-0.20401944478879028,-3.017340209771056,-5.160311370447297,-5.327515276326832,-1.9573594853420782,0.0,0.0,0.0,0.0,0.0,0.0,0.0,0.0,0.0,0.0,0.0,0.0,0.0,0.0,5.974776229322742e-17,4.420325402617174,4.845180835730892,-0.035022526709674213,-0.018079581990451066,0.1824122767816208,0.005694404027130666
1750422558.9224942,-1.509437095279471,-1.753340040553288,-0.20401944478879028,-3.017340209771056,-5.160311370447297,-5.327515276326832,-1.9573594853420782,0.0,0.0,0.0,0.0,0.0,0.0,0.0,0.0,0.0,0.0,0.0,0.0,0.0,0.0,5.974776229322742e-17,4.420325402617174,4.845180835730892,-0.035022526709674213,-0.018079581990451066,0.1824122767816208,0.005694404027130666
1750422558.957033,-1.509437095279471,-1.753340040553288,-0.20401944478879028,-3.017340209771056,-5.160311370447297,-5.327515276326832,-1.9573594853420782,0.0,0.0,0.0,0.0,0.0,0.0,0.0,0.0,0.0,0.0,0.0,0.0,0.0,0.0,5.974776229322742e-17,4.420325402617174,4.845180835730892,-0.035022526709674213,-0.018079581990451066,0.1824122767816208,0.005694404027130666
1750422558.9915552,-1.509437095279471,-1.753340040553288,-0.20401944478879028,-3.017340209771056,-5.160311370447297,-5.327515276326832,-1.9573594853420782,0.0,0.0,0.0,0.0,0.0,0.0,0.0,0.0,0.0,0.0,0.0,0.0,0.0,0.0,5.974776229322742e-17,4.420325402617174,4.845180835730892,-0.035022526709674213,-0.018079581990451066,0.1824122767816208,0.005694404027130666
1750422559.0271673,-1.509437095279471,-1.753340040553288,-0.20401944478879028,-3.017340209771056,-5.160311370447297,-5.327515276326832,-1.9573594853420782,0.0,0.0,0.0,0.0,0.0,0.0,0.0,0.0,0.0,0.0,0.0,0.0,0.0,0.0,5.974776229322742e-17,4.420325402617174,4.845180835730892,-0.035022526709674213,-0.018079581990451066,0.1824122767816208,0.005694404027130666
1750422559.061658,-1.509437095279471,-1.753340040553288,-0.20401944478879028,-3.017340209771056,-5.160311370447297,-5.327515276326832,-1.9573594853420782,0.0,0.0,0.0,0.0,0.0,0.0,0.0,0.0,0.0,0.0,0.0,0.0,0.0,0.0,5.974776229322742e-17,4.420325402617174,4.845180835730892,-0.035022526709674213,-0.018079581990451066,0.1824122767816208,0.005694404027130666
1750422559.0981634,-1.509437095279471,-1.753340040553288,-0.20401944478879028,-3.017340209771056,-5.160311370447297,-5.327515276326832,-1.9573594853420782,0.0,0.0,0.0,0.0,0.0,0.0,0.0,0.0,0.0,0.0,0.0,0.0,0.0,0.0,5.974776229322742e-17,4.420325402617174,4.845180835730892,-0.035022526709674213,-0.018079581990451066,0.1824122767816208,0.005694404027130666
1750422559.1343565,-1.509437095279471,-1.753340040553288,-0.20401944478879028,-3.017340209771056,-5.160311370447297,-5.327515276326832,-1.9573594853420782,0.0,0.0,0.0,0.0,0.0,0.0,0.0,0.0,0.0,0.0,0.0,0.0,0.0,0.0,5.974776229322742e-17,4.420325402617174,4.845180835730892,-0.035022526709674213,-0.018079581990451066,0.1824122767816208,0.005694404027130666
1750422559.1689188,-1.509437095279471,-1.753340040553288,-0.20401944478879028,-3.017340209771056,-5.160311370447297,-5.327515276326832,-1.9573594853420782,0.0,0.0,0.0,0.0,0.0,0.0,0.0,0.0,0.0,0.0,0.0,0.0,0.0,0.0,5.974776229322742e-17,4.420325402617174,4.845180835730892,-0.035022526709674213,-0.018079581990451066,0.1824122767816208,0.005694404027130666
1750422559.20374,-1.509437095279471,-1.753340040553288,-0.20401944478879028,-3.017340209771056,-5.160311370447297,-5.327515276326832,-1.9573594853420782,0.0,0.0,0.0,0.0,0.0,0.0,0.0,0.0,0.0,0.0,0.0,0.0,0.0,0.0,5.974776229322742e-17,4.420325402617174,4.845180835730892,-0.035022526709674213,-0.018079581990451066,0.1824122767816208,0.005694404027130666
1750422559.2382936,-1.509437095279471,-1.753340040553288,-0.20401944478879028,-3.017340209771056,-5.160311370447297,-5.327515276326832,-1.9573594853420782,0.0,0.0,0.0,0.0,0.0,0.0,0.0,0.0,0.0,0.0,0.0,0.0,0.0,0.0,5.974776229322742e-17,4.420325402617174,4.845180835730892,-0.035022526709674213,-0.018079581990451066,0.1824122767816208,0.005694404027130666
1750422559.272831,-1.509437095279471,-1.753340040553288,-0.20401944478879028,-3.017340209771056,-5.160311370447297,-5.327515276326832,-1.9573594853420782,0.0,0.0,0.0,0.0,0.0,0.0,0.0,0.0,0.0,0.0,0.0,0.0,0.0,0.0,5.974776229322742e-17,4.420325402617174,4.845180835730892,-0.035022526709674213,-0.018079581990451066,0.1824122767816208,0.005694404027130666
1750422559.3073587,-1.509437095279471,-1.753340040553288,-0.20401944478879028,-3.017340209771056,-5.160311370447297,-5.327515276326832,-1.9573594853420782,0.0,0.0,0.0,0.0,0.0,0.0,0.0,0.0,0.0,0.0,0.0,0.0,0.0,0.0,5.974776229322742e-17,4.420325402617174,4.845180835730892,-0.035022526709674213,-0.018079581990451066,0.1824122767816208,0.005694404027130666
1750422559.341881,-1.509437095279471,-1.753340040553288,-0.20401944478879028,-3.017340209771056,-5.160311370447297,-5.327515276326832,-1.9573594853420782,0.0,0.0,0.0,0.0,0.0,0.0,0.0,0.0,0.0,0.0,0.0,0.0,0.0,0.0,5.974776229322742e-17,4.420325402617174,4.845180835730892,-0.035022526709674213,-0.018079581990451066,0.1824122767816208,0.005694404027130666
1750422559.3764124,-1.509437095279471,-1.753340040553288,-0.20401944478879028,-3.017340209771056,-5.160311370447297,-5.327515276326832,-1.9573594853420782,0.0,0.0,0.0,0.0,0.0,0.0,0.0,0.0,0.0,0.0,0.0,0.0,0.0,0.0,5.974776229322742e-17,4.420325402617174,4.845180835730892,-0.035022526709674213,-0.018079581990451066,0.1824122767816208,0.005694404027130666
1750422559.4121656,-1.509437095279471,-1.753340040553288,-0.20401944478879028,-3.017340209771056,-5.160311370447297,-5.327515276326832,-1.9573594853420782,0.0,0.0,0.0,0.0,0.0,0.0,0.0,0.0,0.0,0.0,0.0,0.0,0.0,0.0,5.974776229322742e-17,4.420325402617174,4.845180835730892,-0.035022526709674213,-0.018079581990451066,0.1824122767816208,0.005694404027130666
1750422559.4466863,-1.509437095279471,-1.753340040553288,-0.20401944478879028,-3.017340209771056,-5.160311370447297,-5.327515276326832,-1.9573594853420782,0.0,0.0,0.0,0.0,0.0,0.0,0.0,0.0,0.0,0.0,0.0,0.0,0.0,0.0,5.974776229322742e-17,4.420325402617174,4.845180835730892,-0.035022526709674213,-0.018079581990451066,0.1824122767816208,0.005694404027130666
1750422559.4831843,-1.509437095279471,-1.753340040553288,-0.20401944478879028,-3.017340209771056,-5.160311370447297,-5.327515276326832,-1.9573594853420782,0.0,0.0,0.0,0.0,0.0,0.0,0.0,0.0,0.0,0.0,0.0,0.0,0.0,0.0,5.974776229322742e-17,4.420325402617174,4.845180835730892,-0.035022526709674213,-0.018079581990451066,0.1824122767816208,0.005694404027130666
1750422559.5177424,-1.509437095279471,-1.753340040553288,-0.20401944478879028,-3.017340209771056,-5.160311370447297,-5.327515276326832,-1.9573594853420782,0.0,0.0,0.0,0.0,0.0,0.0,0.0,0.0,0.0,0.0,0.0,0.0,0.0,0.0,5.974776229322742e-17,4.420325402617174,4.845180835730892,-0.035022526709674213,-0.018079581990451066,0.1824122767816208,0.005694404027130666
1750422559.5522673,-1.509437095279471,-1.753340040553288,-0.20401944478879028,-3.017340209771056,-5.160311370447297,-5.327515276326832,-1.9573594853420782,0.0,0.0,0.0,0.0,0.0,0.0,0.0,0.0,0.0,0.0,0.0,0.0,0.0,0.0,5.974776229322742e-17,4.420325402617174,4.845180835730892,-0.035022526709674213,-0.018079581990451066,0.1824122767816208,0.005694404027130666
1750422559.5867572,-1.509437095279471,-1.753340040553288,-0.20401944478879028,-3.017340209771056,-5.160311370447297,-5.327515276326832,-1.9573594853420782,0.0,0.0,0.0,0.0,0.0,0.0,0.0,0.0,0.0,0.0,0.0,0.0,0.0,0.0,5.974776229322742e-17,4.420325402617174,4.845180835730892,-0.035022526709674213,-0.018079581990451066,0.1824122767816208,0.005694404027130666
1750422559.6232538,-1.509437095279471,-1.753340040553288,-0.20401944478879028,-3.017340209771056,-5.160311370447297,-5.327515276326832,-1.9573594853420782,0.0,0.0,0.0,0.0,0.0,0.0,0.0,0.0,0.0,0.0,0.0,0.0,0.0,0.0,5.974776229322742e-17,4.420325402617174,4.845180835730892,-0.035022526709674213,-0.018079581990451066,0.1824122767816208,0.005694404027130666
1750422559.657796,-1.509437095279471,-1.753340040553288,-0.20401944478879028,-3.017340209771056,-5.160311370447297,-5.327515276326832,-1.9573594853420782,0.0,0.0,0.0,0.0,0.0,0.0,0.0,0.0,0.0,0.0,0.0,0.0,0.0,0.0,5.974776229322742e-17,4.420325402617174,4.845180835730892,-0.035022526709674213,-0.018079581990451066,0.1824122767816208,0.005694404027130666
1750422559.6923313,-1.509437095279471,-1.753340040553288,-0.20401944478879028,-3.017340209771056,-5.160311370447297,-5.327515276326832,-1.9573594853420782,0.0,0.0,0.0,0.0,0.0,0.0,0.0,0.0,0.0,0.0,0.0,0.0,0.0,0.0,5.974776229322742e-17,4.420325402617174,4.845180835730892,-0.035022526709674213,-0.018079581990451066,0.1824122767816208,0.005694404027130666
1750422559.726864,-1.509437095279471,-1.753340040553288,-0.20401944478879028,-3.017340209771056,-5.160311370447297,-5.327515276326832,-1.9573594853420782,0.0,0.0,0.0,0.0,0.0,0.0,0.0,0.0,0.0,0.0,0.0,0.0,0.0,0.0,5.974776229322742e-17,4.420325402617174,4.845180835730892,-0.035022526709674213,-0.018079581990451066,0.1824122767816208,0.005694404027130666
1750422559.7613893,-1.509437095279471,-1.753340040553288,-0.20401944478879028,-3.017340209771056,-5.160311370447297,-5.327515276326832,-1.9573594853420782,0.0,0.0,0.0,0.0,0.0,0.0,0.0,0.0,0.0,0.0,0.0,0.0,0.0,0.0,5.974776229322742e-17,4.420325402617174,4.845180835730892,-0.035022526709674213,-0.018079581990451066,0.1824122767816208,0.005694404027130666
1750422559.7959146,-1.509437095279471,-1.753340040553288,-0.20401944478879028,-3.017340209771056,-5.160311370447297,-5.327515276326832,-1.9573594853420782,0.0,0.0,0.0,0.0,0.0,0.0,0.0,0.0,0.0,0.0,0.0,0.0,0.0,0.0,5.974776229322742e-17,4.420325402617174,4.845180835730892,-0.035022526709674213,-0.018079581990451066,0.1824122767816208,0.005694404027130666
1750422559.832168,-1.509437095279471,-1.753340040553288,-0.20401944478879028,-3.017340209771056,-5.160311370447297,-5.327515276326832,-1.9573594853420782,0.0,0.0,0.0,0.0,0.0,0.0,0.0,0.0,0.0,0.0,0.0,0.0,0.0,0.0,5.974776229322742e-17,4.420325402617174,4.845180835730892,-0.035022526709674213,-0.018079581990451066,0.1824122767816208,0.005694404027130666
1750422559.86666,-1.509437095279471,-1.753340040553288,-0.20401944478879028,-3.017340209771056,-5.160311370447297,-5.327515276326832,-1.9573594853420782,0.0,0.0,0.0,0.0,0.0,0.0,0.0,0.0,0.0,0.0,0.0,0.0,0.0,0.0,5.974776229322742e-17,4.420325402617174,4.845180835730892,-0.035022526709674213,-0.018079581990451066,0.1824122767816208,0.005694404027130666
1750422559.9031656,-1.509437095279471,-1.753340040553288,-0.20401944478879028,-3.017340209771056,-5.160311370447297,-5.327515276326832,-1.9573594853420782,0.0,0.0,0.0,0.0,0.0,0.0,0.0,0.0,0.0,0.0,0.0,0.0,0.0,0.0,5.974776229322742e-17,4.420325402617174,4.845180835730892,-0.035022526709674213,-0.018079581990451066,0.1824122767816208,0.005694404027130666
1750422559.9377017,-1.509437095279471,-1.753340040553288,-0.20401944478879028,-3.017340209771056,-5.160311370447297,-5.327515276326832,-1.9573594853420782,0.0,0.0,0.0,0.0,0.0,0.0,0.0,0.0,0.0,0.0,0.0,0.0,0.0,0.0,5.974776229322742e-17,4.420325402617174,4.845180835730892,-0.035022526709674213,-0.018079581990451066,0.1824122767816208,0.005694404027130666
1750422559.9723744,-1.509437095279471,-1.753340040553288,-0.20401944478879028,-3.017340209771056,-5.160311370447297,-5.327515276326832,-1.9573594853420782,0.0,0.0,0.0,0.0,0.0,0.0,0.0,0.0,0.0,0.0,0.0,0.0,0.0,0.0,5.974776229322742e-17,4.420325402617174,4.845180835730892,-0.035022526709674213,-0.018079581990451066,0.1824122767816208,0.005694404027130666
1750422560.0069454,-1.509437095279471,-1.753340040553288,-0.20401944478879028,-3.017340209771056,-5.160311370447297,-5.327515276326832,-1.9573594853420782,0.0,0.0,0.0,0.0,0.0,0.0,0.0,0.0,0.0,0.0,0.0,0.0,0.0,0.0,5.974776229322742e-17,4.420325402617174,4.845180835730892,-0.035022526709674213,-0.018079581990451066,0.1824122767816208,0.005694404027130666
1750422560.0414834,-1.509437095279471,-1.753340040553288,-0.20401944478879028,-3.017340209771056,-5.160311370447297,-5.327515276326832,-1.9573594853420782,0.0,0.0,0.0,0.0,0.0,0.0,0.0,0.0,0.0,0.0,0.0,0.0,0.0,0.0,5.974776229322742e-17,4.420325402617174,4.845180835730892,-0.035022526709674213,-0.018079581990451066,0.1824122767816208,0.005694404027130666
1750422560.076292,-1.509437095279471,-1.753340040553288,-0.20401944478879028,-3.017340209771056,-5.160311370447297,-5.327515276326832,-1.9573594853420782,0.0,0.0,0.0,0.0,0.0,0.0,0.0,0.0,0.0,0.0,0.0,0.0,0.0,0.0,5.974776229322742e-17,4.420325402617174,4.845180835730892,-0.035022526709674213,-0.018079581990451066,0.1824122767816208,0.005694404027130666
1750422560.110826,-1.509437095279471,-1.753340040553288,-0.20401944478879028,-3.017340209771056,-5.160311370447297,-5.327515276326832,-1.9573594853420782,0.0,0.0,0.0,0.0,0.0,0.0,0.0,0.0,0.0,0.0,0.0,0.0,0.0,0.0,5.974776229322742e-17,4.420325402617174,4.845180835730892,-0.035022526709674213,-0.018079581990451066,0.1824122767816208,0.005694404027130666
1750422560.1453571,-1.509437095279471,-1.753340040553288,-0.20401944478879028,-3.017340209771056,-5.160311370447297,-5.327515276326832,-1.9573594853420782,0.0,0.0,0.0,0.0,0.0,0.0,0.0,0.0,0.0,0.0,0.0,0.0,0.0,0.0,5.974776229322742e-17,4.420325402617174,4.845180835730892,-0.035022526709674213,-0.018079581990451066,0.1824122767816208,0.005694404027130666
1750422560.179858,-1.509437095279471,-1.753340040553288,-0.20401944478879028,-3.017340209771056,-5.160311370447297,-5.327515276326832,-1.9573594853420782,0.0,0.0,0.0,0.0,0.0,0.0,0.0,0.0,0.0,0.0,0.0,0.0,0.0,0.0,5.974776229322742e-17,4.420325402617174,4.845180835730892,-0.035022526709674213,-0.018079581990451066,0.1824122767816208,0.005694404027130666
1750422560.2161775,-1.509437095279471,-1.753340040553288,-0.20401944478879028,-3.017340209771056,-5.160311370447297,-5.327515276326832,-1.9573594853420782,0.0,0.0,0.0,0.0,0.0,0.0,0.0,0.0,0.0,0.0,0.0,0.0,0.0,0.0,5.974776229322742e-17,4.420325402617174,4.845180835730892,-0.035022526709674213,-0.018079581990451066,0.1824122767816208,0.005694404027130666
1750422560.2507384,-1.509437095279471,-1.753340040553288,-0.20401944478879028,-3.017340209771056,-5.160311370447297,-5.327515276326832,-1.9573594853420782,0.0,0.0,0.0,0.0,0.0,0.0,0.0,0.0,0.0,0.0,0.0,0.0,0.0,0.0,5.974776229322742e-17,4.420325402617174,4.845180835730892,-0.035022526709674213,-0.018079581990451066,0.1824122767816208,0.005694404027130666
1750422560.2852888,-1.509437095279471,-1.753340040553288,-0.20401944478879028,-3.017340209771056,-5.160311370447297,-5.327515276326832,-1.9573594853420782,0.0,0.0,0.0,0.0,0.0,0.0,0.0,0.0,0.0,0.0,0.0,0.0,0.0,0.0,5.974776229322742e-17,4.420325402617174,4.845180835730892,-0.035022526709674213,-0.018079581990451066,0.1824122767816208,0.005694404027130666
1750422560.3211722,-1.509437095279471,-1.753340040553288,-0.20401944478879028,-3.017340209771056,-5.160311370447297,-5.327515276326832,-1.9573594853420782,0.0,0.0,0.0,0.0,0.0,0.0,0.0,0.0,0.0,0.0,0.0,0.0,0.0,0.0,5.974776229322742e-17,4.420325402617174,4.845180835730892,-0.035022526709674213,-0.018079581990451066,0.1824122767816208,0.005694404027130666
1750422560.3557005,-1.509437095279471,-1.753340040553288,-0.20401944478879028,-3.017340209771056,-5.160311370447297,-5.327515276326832,-1.9573594853420782,0.0,0.0,0.0,0.0,0.0,0.0,0.0,0.0,0.0,0.0,0.0,0.0,0.0,0.0,5.974776229322742e-17,4.420325402617174,4.845180835730892,-0.035022526709674213,-0.018079581990451066,0.1824122767816208,0.005694404027130666
1750422560.392165,-1.509437095279471,-1.753340040553288,-0.20401944478879028,-3.017340209771056,-5.160311370447297,-5.327515276326832,-1.9573594853420782,0.0,0.0,0.0,0.0,0.0,0.0,0.0,0.0,0.0,0.0,0.0,0.0,0.0,0.0,5.974776229322742e-17,4.420325402617174,4.845180835730892,-0.035022526709674213,-0.018079581990451066,0.1824122767816208,0.005694404027130666
1750422560.4284575,-1.509437095279471,-1.753340040553288,-0.20401944478879028,-3.017340209771056,-5.160311370447297,-5.327515276326832,-1.9573594853420782,0.0,0.0,0.0,0.0,0.0,0.0,0.0,0.0,0.0,0.0,0.0,0.0,0.0,0.0,5.974776229322742e-17,4.420325402617174,4.845180835730892,-0.035022526709674213,-0.018079581990451066,0.1824122767816208,0.005694404027130666
1750422560.4629767,-1.509437095279471,-1.753340040553288,-0.20401944478879028,-3.017340209771056,-5.160311370447297,-5.327515276326832,-1.9573594853420782,0.0,0.0,0.0,0.0,0.0,0.0,0.0,0.0,0.0,0.0,0.0,0.0,0.0,0.0,5.974776229322742e-17,4.420325402617174,4.845180835730892,-0.035022526709674213,-0.018079581990451066,0.1824122767816208,0.005694404027130666
1750422560.4975114,-1.509437095279471,-1.753340040553288,-0.20401944478879028,-3.017340209771056,-5.160311370447297,-5.327515276326832,-1.9573594853420782,0.0,0.0,0.0,0.0,0.0,0.0,0.0,0.0,0.0,0.0,0.0,0.0,0.0,0.0,5.974776229322742e-17,4.420325402617174,4.845180835730892,-0.035022526709674213,-0.018079581990451066,0.1824122767816208,0.005694404027130666
1750422560.5320628,-1.509437095279471,-1.753340040553288,-0.20401944478879028,-3.017340209771056,-5.160311370447297,-5.327515276326832,-1.9573594853420782,0.0,0.0,0.0,0.0,0.0,0.0,0.0,0.0,0.0,0.0,0.0,0.0,0.0,0.0,5.974776229322742e-17,4.420325402617174,4.845180835730892,-0.035022526709674213,-0.018079581990451066,0.1824122767816208,0.005694404027130666
1750422560.5665529,-1.509437095279471,-1.753340040553288,-0.20401944478879028,-3.017340209771056,-5.160311370447297,-5.327515276326832,-1.9573594853420782,0.0,0.0,0.0,0.0,0.0,0.0,0.0,0.0,0.0,0.0,0.0,0.0,0.0,0.0,5.974776229322742e-17,4.420325402617174,4.845180835730892,-0.035022526709674213,-0.018079581990451066,0.1824122767816208,0.005694404027130666
1750422560.6010795,-1.509437095279471,-1.753340040553288,-0.20401944478879028,-3.017340209771056,-5.160311370447297,-5.327515276326832,-1.9573594853420782,0.0,0.0,0.0,0.0,0.0,0.0,0.0,0.0,0.0,0.0,0.0,0.0,0.0,0.0,5.974776229322742e-17,4.420325402617174,4.845180835730892,-0.035022526709674213,-0.018079581990451066,0.1824122767816208,0.005694404027130666
1750422560.6356056,-1.509437095279471,-1.753340040553288,-0.20401944478879028,-3.017340209771056,-5.160311370447297,-5.327515276326832,-1.9573594853420782,0.0,0.0,0.0,0.0,0.0,0.0,0.0,0.0,0.0,0.0,0.0,0.0,0.0,0.0,5.974776229322742e-17,4.420325402617174,4.845180835730892,-0.035022526709674213,-0.018079581990451066,0.1824122767816208,0.005694404027130666
1750422560.6711743,-1.509437095279471,-1.753340040553288,-0.20401944478879028,-3.017340209771056,-5.160311370447297,-5.327515276326832,-1.9573594853420782,0.0,0.0,0.0,0.0,0.0,0.0,0.0,0.0,0.0,0.0,0.0,0.0,0.0,0.0,5.974776229322742e-17,4.420325402617174,4.845180835730892,-0.035022526709674213,-0.018079581990451066,0.1824122767816208,0.005694404027130666
1750422560.7073867,-1.509437095279471,-1.753340040553288,-0.20401944478879028,-3.017340209771056,-5.160311370447297,-5.327515276326832,-1.9573594853420782,0.0,0.0,0.0,0.0,0.0,0.0,0.0,0.0,0.0,0.0,0.0,0.0,0.0,0.0,5.974776229322742e-17,4.420325402617174,4.845180835730892,-0.035022526709674213,-0.018079581990451066,0.1824122767816208,0.005694404027130666
1750422560.7419214,-1.509437095279471,-1.753340040553288,-0.20401944478879028,-3.017340209771056,-5.160311370447297,-5.327515276326832,-1.9573594853420782,0.0,0.0,0.0,0.0,0.0,0.0,0.0,0.0,0.0,0.0,0.0,0.0,0.0,0.0,5.974776229322742e-17,4.420325402617174,4.845180835730892,-0.035022526709674213,-0.018079581990451066,0.1824122767816208,0.005694404027130666
1750422560.776481,-1.509437095279471,-1.753340040553288,-0.20401944478879028,-3.017340209771056,-5.160311370447297,-5.327515276326832,-1.9573594853420782,0.0,0.0,0.0,0.0,0.0,0.0,0.0,0.0,0.0,0.0,0.0,0.0,0.0,0.0,5.974776229322742e-17,4.420325402617174,4.845180835730892,-0.035022526709674213,-0.018079581990451066,0.1824122767816208,0.005694404027130666
1750422560.811011,-1.509437095279471,-1.753340040553288,-0.20401944478879028,-3.017340209771056,-5.160311370447297,-5.327515276326832,-1.9573594853420782,0.0,0.0,0.0,0.0,0.0,0.0,0.0,0.0,0.0,0.0,0.0,0.0,0.0,0.0,5.974776229322742e-17,4.420325402617174,4.845180835730892,-0.035022526709674213,-0.018079581990451066,0.1824122767816208,0.005694404027130666
1750422560.8455403,-1.509437095279471,-1.753340040553288,-0.20401944478879028,-3.017340209771056,-5.160311370447297,-5.327515276326832,-1.9573594853420782,0.0,0.0,0.0,0.0,0.0,0.0,0.0,0.0,0.0,0.0,0.0,0.0,0.0,0.0,5.974776229322742e-17,4.420325402617174,4.845180835730892,-0.035022526709674213,-0.018079581990451066,0.1824122767816208,0.005694404027130666
1750422560.8800304,-1.509437095279471,-1.753340040553288,-0.20401944478879028,-3.017340209771056,-5.160311370447297,-5.327515276326832,-1.9573594853420782,0.0,0.0,0.0,0.0,0.0,0.0,0.0,0.0,0.0,0.0,0.0,0.0,0.0,0.0,5.974776229322742e-17,4.420325402617174,4.845180835730892,-0.035022526709674213,-0.018079581990451066,0.1824122767816208,0.005694404027130666
1750422560.9145508,-1.509437095279471,-1.753340040553288,-0.20401944478879028,-3.017340209771056,-5.160311370447297,-5.327515276326832,-1.9573594853420782,0.0,0.0,0.0,0.0,0.0,0.0,0.0,0.0,0.0,0.0,0.0,0.0,0.0,0.0,5.974776229322742e-17,4.420325402617174,4.845180835730892,-0.035022526709674213,-0.018079581990451066,0.1824122767816208,0.005694404027130666
1750422560.9493725,-1.509437095279471,-1.753340040553288,-0.20401944478879028,-3.017340209771056,-5.160311370447297,-5.327515276326832,-1.9573594853420782,0.0,0.0,0.0,0.0,0.0,0.0,0.0,0.0,0.0,0.0,0.0,0.0,0.0,0.0,5.974776229322742e-17,4.420325402617174,4.845180835730892,-0.035022526709674213,-0.018079581990451066,0.1824122767816208,0.005694404027130666
1750422560.9838684,-1.509437095279471,-1.753340040553288,-0.20401944478879028,-3.017340209771056,-5.160311370447297,-5.327515276326832,-1.9573594853420782,0.0,0.0,0.0,0.0,0.0,0.0,0.0,0.0,0.0,0.0,0.0,0.0,0.0,0.0,5.974776229322742e-17,4.420325402617174,4.845180835730892,-0.035022526709674213,-0.018079581990451066,0.1824122767816208,0.005694404027130666
1750422561.0183904,-1.509437095279471,-1.753340040553288,-0.20401944478879028,-3.017340209771056,-5.160311370447297,-5.327515276326832,-1.9573594853420782,0.0,0.0,0.0,0.0,0.0,0.0,0.0,0.0,0.0,0.0,0.0,0.0,0.0,0.0,5.974776229322742e-17,4.420325402617174,4.845180835730892,-0.035022526709674213,-0.018079581990451066,0.1824122767816208,0.005694404027130666
1750422561.0529165,-1.509437095279471,-1.753340040553288,-0.20401944478879028,-3.017340209771056,-5.160311370447297,-5.327515276326832,-1.9573594853420782,0.0,0.0,0.0,0.0,0.0,0.0,0.0,0.0,0.0,0.0,0.0,0.0,0.0,0.0,5.974776229322742e-17,4.420325402617174,4.845180835730892,-0.035022526709674213,-0.018079581990451066,0.1824122767816208,0.005694404027130666
1750422561.089175,-1.509437095279471,-1.753340040553288,-0.20401944478879028,-3.017340209771056,-5.160311370447297,-5.327515276326832,-1.9573594853420782,0.0,0.0,0.0,0.0,0.0,0.0,0.0,0.0,0.0,0.0,0.0,0.0,0.0,0.0,5.974776229322742e-17,4.420325402617174,4.845180835730892,-0.035022526709674213,-0.018079581990451066,0.1824122767816208,0.005694404027130666
1750422561.1253974,-1.509437095279471,-1.753340040553288,-0.20401944478879028,-3.017340209771056,-5.160311370447297,-5.327515276326832,-1.9573594853420782,0.0,0.0,0.0,0.0,0.0,0.0,0.0,0.0,0.0,0.0,0.0,0.0,0.0,0.0,5.974776229322742e-17,4.420325402617174,4.845180835730892,-0.035022526709674213,-0.018079581990451066,0.1824122767816208,0.005694404027130666
1750422561.1599045,-1.509437095279471,-1.753340040553288,-0.20401944478879028,-3.017340209771056,-5.160311370447297,-5.327515276326832,-1.9573594853420782,0.0,0.0,0.0,0.0,0.0,0.0,0.0,0.0,0.0,0.0,0.0,0.0,0.0,0.0,5.974776229322742e-17,4.420325402617174,4.845180835730892,-0.035022526709674213,-0.018079581990451066,0.1824122767816208,0.005694404027130666
1750422561.194432,-1.509437095279471,-1.753340040553288,-0.20401944478879028,-3.017340209771056,-5.160311370447297,-5.327515276326832,-1.9573594853420782,0.0,0.0,0.0,0.0,0.0,0.0,0.0,0.0,0.0,0.0,0.0,0.0,0.0,0.0,5.974776229322742e-17,4.420325402617174,4.845180835730892,-0.035022526709674213,-0.018079581990451066,0.1824122767816208,0.005694404027130666
1750422561.2301695,-1.509437095279471,-1.753340040553288,-0.20401944478879028,-3.017340209771056,-5.160311370447297,-5.327515276326832,-1.9573594853420782,0.0,0.0,0.0,0.0,0.0,0.0,0.0,0.0,0.0,0.0,0.0,0.0,0.0,0.0,5.974776229322742e-17,4.420325402617174,4.845180835730892,-0.035022526709674213,-0.018079581990451066,0.1824122767816208,0.005694404027130666
1750422561.2646775,-1.509437095279471,-1.753340040553288,-0.20401944478879028,-3.017340209771056,-5.160311370447297,-5.327515276326832,-1.9573594853420782,0.0,0.0,0.0,0.0,0.0,0.0,0.0,0.0,0.0,0.0,0.0,0.0,0.0,0.0,5.974776229322742e-17,4.420325402617174,4.845180835730892,-0.035022526709674213,-0.018079581990451066,0.1824122767816208,0.005694404027130666
1750422561.301364,-1.509437095279471,-1.753340040553288,-0.20401944478879028,-3.017340209771056,-5.160311370447297,-5.327515276326832,-1.9573594853420782,0.0,0.0,0.0,0.0,0.0,0.0,0.0,0.0,0.0,0.0,0.0,0.0,0.0,0.0,5.974776229322742e-17,4.420325402617174,4.845180835730892,-0.035022526709674213,-0.018079581990451066,0.1824122767816208,0.005694404027130666
1750422561.3359468,-1.509437095279471,-1.753340040553288,-0.20401944478879028,-3.017340209771056,-5.160311370447297,-5.327515276326832,-1.9573594853420782,0.0,0.0,0.0,0.0,0.0,0.0,0.0,0.0,0.0,0.0,0.0,0.0,0.0,0.0,5.974776229322742e-17,4.420325402617174,4.845180835730892,-0.035022526709674213,-0.018079581990451066,0.1824122767816208,0.005694404027130666
1750422561.3704684,-1.509437095279471,-1.753340040553288,-0.20401944478879028,-3.017340209771056,-5.160311370447297,-5.327515276326832,-1.9573594853420782,0.0,0.0,0.0,0.0,0.0,0.0,0.0,0.0,0.0,0.0,0.0,0.0,0.0,0.0,5.974776229322742e-17,4.420325402617174,4.845180835730892,-0.035022526709674213,-0.018079581990451066,0.1824122767816208,0.005694404027130666
1750422561.4050193,-1.509437095279471,-1.753340040553288,-0.20401944478879028,-3.017340209771056,-5.160311370447297,-5.327515276326832,-1.9573594853420782,0.0,0.0,0.0,0.0,0.0,0.0,0.0,0.0,0.0,0.0,0.0,0.0,0.0,0.0,5.974776229322742e-17,4.420325402617174,4.845180835730892,-0.035022526709674213,-0.018079581990451066,0.1824122767816208,0.005694404027130666
1750422561.4395432,-1.509437095279471,-1.753340040553288,-0.20401944478879028,-3.017340209771056,-5.160311370447297,-5.327515276326832,-1.9573594853420782,0.0,0.0,0.0,0.0,0.0,0.0,0.0,0.0,0.0,0.0,0.0,0.0,0.0,0.0,5.974776229322742e-17,4.420325402617174,4.845180835730892,-0.035022526709674213,-0.018079581990451066,0.1824122767816208,0.005694404027130666
1750422561.4740715,-1.509437095279471,-1.753340040553288,-0.20401944478879028,-3.017340209771056,-5.160311370447297,-5.327515276326832,-1.9573594853420782,0.0,0.0,0.0,0.0,0.0,0.0,0.0,0.0,0.0,0.0,0.0,0.0,0.0,0.0,5.974776229322742e-17,4.420325402617174,4.845180835730892,-0.035022526709674213,-0.018079581990451066,0.1824122767816208,0.005694404027130666
1750422561.5085988,-1.509437095279471,-1.753340040553288,-0.20401944478879028,-3.017340209771056,-5.160311370447297,-5.327515276326832,-1.9573594853420782,0.0,0.0,0.0,0.0,0.0,0.0,0.0,0.0,0.0,0.0,0.0,0.0,0.0,0.0,5.974776229322742e-17,4.420325402617174,4.845180835730892,-0.035022526709674213,-0.018079581990451066,0.1824122767816208,0.005694404027130666
1750422561.5430915,-1.509437095279471,-1.753340040553288,-0.20401944478879028,-3.017340209771056,-5.160311370447297,-5.327515276326832,-1.9573594853420782,0.0,0.0,0.0,0.0,0.0,0.0,0.0,0.0,0.0,0.0,0.0,0.0,0.0,0.0,5.974776229322742e-17,4.420325402617174,4.845180835730892,-0.035022526709674213,-0.018079581990451066,0.1824122767816208,0.005694404027130666
1750422561.5776303,-1.509437095279471,-1.753340040553288,-0.20401944478879028,-3.017340209771056,-5.160311370447297,-5.327515276326832,-1.9573594853420782,0.0,0.0,0.0,0.0,0.0,0.0,0.0,0.0,0.0,0.0,0.0,0.0,0.0,0.0,5.974776229322742e-17,4.420325402617174,4.845180835730892,-0.035022526709674213,-0.018079581990451066,0.1824122767816208,0.005694404027130666
1750422561.6121583,-1.509437095279471,-1.753340040553288,-0.20401944478879028,-3.017340209771056,-5.160311370447297,-5.327515276326832,-1.9573594853420782,0.0,0.0,0.0,0.0,0.0,0.0,0.0,0.0,0.0,0.0,0.0,0.0,0.0,0.0,5.974776229322742e-17,4.420325402617174,4.845180835730892,-0.035022526709674213,-0.018079581990451066,0.1824122767816208,0.005694404027130666
1750422561.6482565,-1.509437095279471,-1.753340040553288,-0.20401944478879028,-3.017340209771056,-5.160311370447297,-5.327515276326832,-1.9573594853420782,0.0,0.0,0.0,0.0,0.0,0.0,0.0,0.0,0.0,0.0,0.0,0.0,0.0,0.0,5.974776229322742e-17,4.420325402617174,4.845180835730892,-0.035022526709674213,-0.018079581990451066,0.1824122767816208,0.005694404027130666
1750422561.6827998,-1.509437095279471,-1.753340040553288,-0.20401944478879028,-3.017340209771056,-5.160311370447297,-5.327515276326832,-1.9573594853420782,0.0,0.0,0.0,0.0,0.0,0.0,0.0,0.0,0.0,0.0,0.0,0.0,0.0,0.0,5.974776229322742e-17,4.420325402617174,4.845180835730892,-0.035022526709674213,-0.018079581990451066,0.1824122767816208,0.005694404027130666
1750422561.7173278,-1.509437095279471,-1.753340040553288,-0.20401944478879028,-3.017340209771056,-5.160311370447297,-5.327515276326832,-1.9573594853420782,0.0,0.0,0.0,0.0,0.0,0.0,0.0,0.0,0.0,0.0,0.0,0.0,0.0,0.0,5.974776229322742e-17,4.420325402617174,4.845180835730892,-0.035022526709674213,-0.018079581990451066,0.1824122767816208,0.005694404027130666
1750422561.7518806,-1.509437095279471,-1.753340040553288,-0.20401944478879028,-3.017340209771056,-5.160311370447297,-5.327515276326832,-1.9573594853420782,0.0,0.0,0.0,0.0,0.0,0.0,0.0,0.0,0.0,0.0,0.0,0.0,0.0,0.0,5.974776229322742e-17,4.420325402617174,4.845180835730892,-0.035022526709674213,-0.018079581990451066,0.1824122767816208,0.005694404027130666
1750422561.7864056,-1.509437095279471,-1.753340040553288,-0.20401944478879028,-3.017340209771056,-5.160311370447297,-5.327515276326832,-1.9573594853420782,0.0,0.0,0.0,0.0,0.0,0.0,0.0,0.0,0.0,0.0,0.0,0.0,0.0,0.0,5.974776229322742e-17,4.420325402617174,4.845180835730892,-0.035022526709674213,-0.018079581990451066,0.1824122767816208,0.005694404027130666
1750422561.8212013,-1.509437095279471,-1.753340040553288,-0.20401944478879028,-3.017340209771056,-5.160311370447297,-5.327515276326832,-1.9573594853420782,0.0,0.0,0.0,0.0,0.0,0.0,0.0,0.0,0.0,0.0,0.0,0.0,0.0,0.0,5.974776229322742e-17,4.420325402617174,4.845180835730892,-0.035022526709674213,-0.018079581990451066,0.1824122767816208,0.005694404027130666
1750422561.8557322,-1.509437095279471,-1.753340040553288,-0.20401944478879028,-3.017340209771056,-5.160311370447297,-5.327515276326832,-1.9573594853420782,0.0,0.0,0.0,0.0,0.0,0.0,0.0,0.0,0.0,0.0,0.0,0.0,0.0,0.0,5.974776229322742e-17,4.420325402617174,4.845180835730892,-0.035022526709674213,-0.018079581990451066,0.1824122767816208,0.005694404027130666
1750422561.8902686,-1.509437095279471,-1.753340040553288,-0.20401944478879028,-3.017340209771056,-5.160311370447297,-5.327515276326832,-1.9573594853420782,0.0,0.0,0.0,0.0,0.0,0.0,0.0,0.0,0.0,0.0,0.0,0.0,0.0,0.0,5.974776229322742e-17,4.420325402617174,4.845180835730892,-0.035022526709674213,-0.018079581990451066,0.1824122767816208,0.005694404027130666
